!!!!SEGMENT: pl-wn--mus-iii-65-947-cim--015_sowinski-wojciech--swiety-wojciech-meczennik-no-13-arja-i-chor.krn
!!!cenid: 18xx:3608
!!!COM: Sowiński, Wojciech
!!!COM-rismID: pe30008543
!!!CDT: ~1803-1880/03/05
!!!CNT:
!!!GTL: Święty Wojciech męczennik
!!!OTL: No. 13. Arja i chór
!!!PDT: 1877
!!!AGN:
!!!SMS-siglum: PL-Wn
!!!SMS-shelfmark: Mus.III.65.947 Cim.
!!!SMS-shelfwork: 015 G
!!!SMS-variant:
!!!SMS-altvar:
!!!NIFC-rismSourceID:
!!!NIFC-rismChildID:
!!!NIFC-islandoraID:
!!!URL-pdf-islandora:
!!!URL-scan: https://polona.pl/item/swiety-wojciech-meczennik-oratorjo-w-trzech-czesciach-dzielo-66-spiew-z-fortepianem,MTkzODI1Mzc/242/#item @EN{Scan on Polona} @PL{Skany w portalu Polona}
!!!ONB-nifc: UWAGA: oratorium zawiera w źródle 28 numerów podzielonych na 30 plików (rozdzielenie w No. 6 - osobno Recitativo oraz Aria matki i No. 10 - osobno Recitativo, arja i chór oraz Sen). Polecam widok miniatur na Polonie. Uwaga co do obsady: prosimy umieszczać tylko partie występujące w danym numerze (nie całą obsadę oratorium)
!!!OMD: Moderato
!!!AIN: 7 empty 1 tenor
!!!key:
**kern	**kern	**dynam	**kern	**text	**dynam	**kern	**text	**dynam	**kern	**text	**dynam	**kern	**text	**dynam	**kern	**text	**dynam	**kern	**text	**dynam	**kern	**text	**dynam
*part8	*part8	*part8	*part7	*part7	*part7	*part6	*part6	*part6	*part5	*part5	*part5	*part4	*part4	*part4	*part3	*part3	*part3	*part2	*part2	*part2	*part1	*part1	*part1
*staff9	*staff8	*	*staff7	*staff7	*	*staff6	*staff6	*	*staff5	*staff5	*	*staff4	*staff4	*	*staff3	*staff3	*	*staff2	*staff2	*	*staff1	*staff1	*
*Iempty	*Ipiano	*	*Iempty	*	*	*Iempty	*	*	*Iempty	*	*	*Iempty	*	*	*Iempty	*	*	*Itenor	*	*	*Iempty	*	*
*	*I"Piano	*	*I"WOJCIECH	*	*	*I"Voce 3	*	*	*I"Voce 2	*	*	*I"Voce 1	*	*	*I"Bas.	*	*	*I"Tenor.	*	*	*I"DĄBRÓWKA	*	*
*	*I'pf	*	*I'W	*	*	*I'V 3	*	*	*I'V 2	*	*	*I'V 1	*	*	*I'B	*	*	*I'T	*	*	*I'D	*	*
*clefF4	*clefG2	*	*clefF4	*	*	*clefG2	*	*	*clefG2	*	*	*clefG2	*	*	*clefG2	*	*	*clefG2	*	*	*clefG2	*	*
*k[b-]	*k[b-]	*	*k[b-]	*	*	*k[b-]	*	*	*k[b-]	*	*	*k[b-]	*	*	*k[b-]	*	*	*k[b-]	*	*	*k[b-]	*	*
*d:	*d:	*	*d:	*	*	*d:	*	*	*d:	*	*	*d:	*	*	*d:	*	*	*d:	*	*	*	*	*
*M4/4	*M4/4	*	*M4/4	*	*	*M4/4	*	*	*M4/4	*	*	*M4/4	*	*	*M4/4	*	*	*M4/4	*	*	*M4/4	*	*
*met(c)	*met(c)	*	*met(c)	*	*	*met(c)	*	*	*met(c)	*	*	*met(c)	*	*	*met(c)	*	*	*met(c)	*	*	*met(c)	*	*
=1	=1	=1	=1	=1	=1	=1	=1	=1	=1	=1	=1	=1	=1	=1	=1	=1	=1	=1	=1	=1	=1	=1	=1
!!LO:TX:t=P:problem:3 kasowniki obok bemola przy kluczu we wszystkich głosach
!	!LO:TX:a:B:t=più mod.te	!	!LO:TX:a:B:t=più mod.te	!	!	!	!	!	!	!	!	!	!	!	!	!	!	!	!	!	!	!	!
2F 2FF^\	12r	.	2r	.	.	1ryy	.	.	1ryy	.	.	1ryy	.	.	1ryy	.	.	1ryy	.	.	1ryy	.	.
.	12ccL 12a'/	mf >	.	.	.	.	.	.	.	.	.	.	.	.	.	.	.	.	.	.	.	.	.
.	12ccJ 12a'/	.	.	.	.	.	.	.	.	.	.	.	.	.	.	.	.	.	.	.	.	.	.
!	!LO:TUP:b:problem=klamra łukowa	!	!	!	!	!	!	!	!	!	!	!	!	!	!	!	!	!	!	!	!	!	!
.	12ccL 12a/	]	.	.	.	.	.	.	.	.	.	.	.	.	.	.	.	.	.	.	.	.	.
.	12f/	.	.	.	.	.	.	.	.	.	.	.	.	.	.	.	.	.	.	.	.	.	.
.	12c/J	.	.	.	.	.	.	.	.	.	.	.	.	.	.	.	.	.	.	.	.	.	.
!	!	!	!LO:TX:a:t=WOJCIECH.	!	!LO:DY:a	!	!	!	!	!	!	!	!	!	!	!	!	!	!	!	!	!	!
2A 2AA^\	12r	.	4A\	Cóż	mf	.	.	.	.	.	.	.	.	.	.	.	.	.	.	.	.	.	.
.	12ffL 12cc'\	.	.	.	.	.	.	.	.	.	.	.	.	.	.	.	.	.	.	.	.	.	.
.	12ffJ 12cc'\	.	.	.	.	.	.	.	.	.	.	.	.	.	.	.	.	.	.	.	.	.	.
!	!LO:TUP:a:problem=klamra łukowa	!	!	!	!	!	!	!	!	!	!	!	!	!	!	!	!	!	!	!	!	!	!
.	12ffL 12cc\	.	8.A\	tam	.	.	.	.	.	.	.	.	.	.	.	.	.	.	.	.	.	.	.
.	12a\	.	.	.	.	.	.	.	.	.	.	.	.	.	.	.	.	.	.	.	.	.	.
.	12f\J	.	.	.	.	.	.	.	.	.	.	.	.	.	.	.	.	.	.	.	.	.	.
.	.	.	16A\	nad	.	.	.	.	.	.	.	.	.	.	.	.	.	.	.	.	.	.	.
=2	=2	=2	=2	=2	=2	=2	=2	=2	=2	=2	=2	=2	=2	=2	=2	=2	=2	=2	=2	=2	=2	=2	=2
4G 4GG\	12r	.	4.B-^\	Wis-	.	1ryy	.	.	1ryy	.	.	1ryy	.	.	1ryy	.	.	1ryy	.	.	1ryy	.	.
.	12ffL 12dd-X'\	.	.	.	.	.	.	.	.	.	.	.	.	.	.	.	.	.	.	.	.	.	.
.	12ffJ 12dd-'\	.	.	.	.	.	.	.	.	.	.	.	.	.	.	.	.	.	.	.	.	.	.
!	!LO:TUP:a:problem=klamra łukowa	!	!	!	!	!	!	!	!	!	!	!	!	!	!	!	!	!	!	!	!	!	!
4B- 4BB-\	12ffL 12dd-\	.	.	.	.	.	.	.	.	.	.	.	.	.	.	.	.	.	.	.	.	.	.
.	12b-\	.	.	.	.	.	.	.	.	.	.	.	.	.	.	.	.	.	.	.	.	.	.
.	.	.	8G\	-łą	.	.	.	.	.	.	.	.	.	.	.	.	.	.	.	.	.	.	.
.	12g\J	.	.	.	.	.	.	.	.	.	.	.	.	.	.	.	.	.	.	.	.	.	.
2c 2C\	12r	.	(4c\	bie-	.	.	.	.	.	.	.	.	.	.	.	.	.	.	.	.	.	.	.
.	12eeL 12cc'\	.	.	.	.	.	.	.	.	.	.	.	.	.	.	.	.	.	.	.	.	.	.
.	12eeJ 12cc'\	.	.	.	.	.	.	.	.	.	.	.	.	.	.	.	.	.	.	.	.	.	.
!	!LO:TUP:a:problem=klamra łukowa	!	!	!	!	!	!	!	!	!	!	!	!	!	!	!	!	!	!	!	!	!	!
.	12eeL 12cc\	.	8.B-\)	.	.	.	.	.	.	.	.	.	.	.	.	.	.	.	.	.	.	.	.
.	12b-\	.	.	.	.	.	.	.	.	.	.	.	.	.	.	.	.	.	.	.	.	.	.
.	12g\J	.	.	.	.	.	.	.	.	.	.	.	.	.	.	.	.	.	.	.	.	.	.
.	.	.	16B-\	-li	.	.	.	.	.	.	.	.	.	.	.	.	.	.	.	.	.	.	.
=3	=3	=3	=3	=3	=3	=3	=3	=3	=3	=3	=3	=3	=3	=3	=3	=3	=3	=3	=3	=3	=3	=3	=3
4F 4FF\	12r	.	[4A\	się	.	1ryy	.	.	1ryy	.	.	1ryy	.	.	1ryy	.	.	1ryy	.	.	1ryy	.	.
.	12eeL 12cc'\	.	.	.	.	.	.	.	.	.	.	.	.	.	.	.	.	.	.	.	.	.	.
.	12eeJ 12cc'\	.	.	.	.	.	.	.	.	.	.	.	.	.	.	.	.	.	.	.	.	.	.
!	!LO:TUP:a:problem=klamra łukowa	!	!	!	!	!	!	!	!	!	!	!	!	!	!	!	!	!	!	!	!	!	!
4A 4AA\	12eeL 12cc\	.	8.A\]	.	.	.	.	.	.	.	.	.	.	.	.	.	.	.	.	.	.	.	.
.	12a\	.	.	.	.	.	.	.	.	.	.	.	.	.	.	.	.	.	.	.	.	.	.
.	12f\J	.	.	.	.	.	.	.	.	.	.	.	.	.	.	.	.	.	.	.	.	.	.
.	.	.	16F\	w roz-	.	.	.	.	.	.	.	.	.	.	.	.	.	.	.	.	.	.	.
2c 2C^\	12r	.	2B-^\	-do-	.	.	.	.	.	.	.	.	.	.	.	.	.	.	.	.	.	.	.
.	12eeL 12cc'\	.	.	.	.	.	.	.	.	.	.	.	.	.	.	.	.	.	.	.	.	.	.
.	12eeJ 12cc'\	.	.	.	.	.	.	.	.	.	.	.	.	.	.	.	.	.	.	.	.	.	.
!	!LO:TUP:a:problem=klamra łukowa	!	!	!	!	!	!	!	!	!	!	!	!	!	!	!	!	!	!	!	!	!	!
.	12ddL 12b-\	.	.	.	.	.	.	.	.	.	.	.	.	.	.	.	.	.	.	.	.	.	.
.	12f\	.	.	.	.	.	.	.	.	.	.	.	.	.	.	.	.	.	.	.	.	.	.
.	12d\J	.	.	.	.	.	.	.	.	.	.	.	.	.	.	.	.	.	.	.	.	.	.
=4	=4	=4	=4	=4	=4	=4	=4	=4	=4	=4	=4	=4	=4	=4	=4	=4	=4	=4	=4	=4	=4	=4	=4
4E 4EE^/	12r	.	4B-\	-le	.	1ryy	.	.	1ryy	.	.	1ryy	.	.	1ryy	.	.	1ryy	.	.	1ryy	.	.
.	12ddL 12g'\	.	.	.	.	.	.	.	.	.	.	.	.	.	.	.	.	.	.	.	.	.	.
.	12ddJ 12g'\	.	.	.	.	.	.	.	.	.	.	.	.	.	.	.	.	.	.	.	.	.	.
4C 4CC/	12ddL 12g\	.	8.G\	w śród	.	.	.	.	.	.	.	.	.	.	.	.	.	.	.	.	.	.	.
.	12cc\	>	.	.	.	.	.	.	.	.	.	.	.	.	.	.	.	.	.	.	.	.	.
.	12bn\J	.	.	.	.	.	.	.	.	.	.	.	.	.	.	.	.	.	.	.	.	.	.
.	.	.	16G#X\	szu-	.	.	.	.	.	.	.	.	.	.	.	.	.	.	.	.	.	.	.
!	!	!	!LO:N:vis=4.	!	!	!	!	!	!	!	!	!	!	!	!	!	!	!	!	!	!	!	!
2F 2FF\	12r	] p	4..A\	-mią-	.	.	.	.	.	.	.	.	.	.	.	.	.	.	.	.	.	.	.
.	12ccL 12a'\	.	.	.	.	.	.	.	.	.	.	.	.	.	.	.	.	.	.	.	.	.	.
.	12ccJ 12a'\	.	.	.	.	.	.	.	.	.	.	.	.	.	.	.	.	.	.	.	.	.	.
!	!LO:TUP:b:problem=klamra łukowa	!	!	!	!	!	!	!	!	!	!	!	!	!	!	!	!	!	!	!	!	!	!
.	12ccL 12a/	.	.	.	.	.	.	.	.	.	.	.	.	.	.	.	.	.	.	.	.	.	.
.	12f/	.	.	.	.	.	.	.	.	.	.	.	.	.	.	.	.	.	.	.	.	.	.
.	12c/J	.	.	.	.	.	.	.	.	.	.	.	.	.	.	.	.	.	.	.	.	.	.
.	.	.	16A\	-cych	.	.	.	.	.	.	.	.	.	.	.	.	.	.	.	.	.	.	.
=5	=5	=5	=5	=5	=5	=5	=5	=5	=5	=5	=5	=5	=5	=5	=5	=5	=5	=5	=5	=5	=5	=5	=5
4A 4AA\	12r	.	2c^\	drzew	.	1ryy	.	.	1ryy	.	.	1ryy	.	.	1ryy	.	.	1ryy	.	.	1ryy	.	.
.	12ccL 12a'/	f	.	.	.	.	.	.	.	.	.	.	.	.	.	.	.	.	.	.	.	.	.
.	12ccJ 12a'/	.	.	.	.	.	.	.	.	.	.	.	.	.	.	.	.	.	.	.	.	.	.
!	!LO:TUP:b:problem=klamra łukowa	!	!	!	!	!	!	!	!	!	!	!	!	!	!	!	!	!	!	!	!	!	!
4AA 4AAA/	12ccL 12a/	.	.	.	.	.	.	.	.	.	.	.	.	.	.	.	.	.	.	.	.	.	.
.	12e/	.	.	.	.	.	.	.	.	.	.	.	.	.	.	.	.	.	.	.	.	.	.
.	12c/J	.	.	.	.	.	.	.	.	.	.	.	.	.	.	.	.	.	.	.	.	.	.
2D 2DD^/	12r	.	4..A\	wśród	.	.	.	.	.	.	.	.	.	.	.	.	.	.	.	.	.	.	.
.	12ffL 12dd'\	.	.	.	.	.	.	.	.	.	.	.	.	.	.	.	.	.	.	.	.	.	.
.	12ffJ 12dd'\	.	.	.	.	.	.	.	.	.	.	.	.	.	.	.	.	.	.	.	.	.	.
!	!LO:TUP:a:problem=klamra łukowa	!	!	!	!	!	!	!	!	!	!	!	!	!	!	!	!	!	!	!	!	!	!
.	12ffL 12dd\	.	.	.	.	.	.	.	.	.	.	.	.	.	.	.	.	.	.	.	.	.	.
.	12a\	.	.	.	.	.	.	.	.	.	.	.	.	.	.	.	.	.	.	.	.	.	.
.	12f\J	.	.	.	.	.	.	.	.	.	.	.	.	.	.	.	.	.	.	.	.	.	.
.	.	.	16A\	szu-	.	.	.	.	.	.	.	.	.	.	.	.	.	.	.	.	.	.	.
=6	=6	=6	=6	=6	=6	=6	=6	=6	=6	=6	=6	=6	=6	=6	=6	=6	=6	=6	=6	=6	=6	=6	=6
4C 4CC/	12r	.	(2A\	-mią-	.	1ryy	.	.	1ryy	.	.	1ryy	.	.	1ryy	.	.	1ryy	.	.	1ryy	.	.
.	12eeL 12a'\	.	.	.	.	.	.	.	.	.	.	.	.	.	.	.	.	.	.	.	.	.	.
.	12eeJ 12a'\	.	.	.	.	.	.	.	.	.	.	.	.	.	.	.	.	.	.	.	.	.	.
!	!LO:TUP:a:problem=klamra łukowa	!	!	!	!	!	!	!	!	!	!	!	!	!	!	!	!	!	!	!	!	!	!
4c 4C\	12eeL 12a\	.	.	.	.	.	.	.	.	.	.	.	.	.	.	.	.	.	.	.	.	.	.
.	12cc\	.	.	.	.	.	.	.	.	.	.	.	.	.	.	.	.	.	.	.	.	.	.
.	12e\J	.	.	.	.	.	.	.	.	.	.	.	.	.	.	.	.	.	.	.	.	.	.
!	!	!	!	!	!LO:HP:a	!	!	!	!	!	!	!	!	!	!	!	!	!	!	!	!	!	!
4Bn 4BBn\	12r	.	4G#X\)	.	<	.	.	.	.	.	.	.	.	.	.	.	.	.	.	.	.	.	.
.	12eeL 12dd'\	.	.	.	.	.	.	.	.	.	.	.	.	.	.	.	.	.	.	.	.	.	.
.	12eeJ 12dd'\	.	.	.	.	.	.	.	.	.	.	.	.	.	.	.	.	.	.	.	.	.	.
!	!LO:TUP:a:problem=klamra łukowa	!	!	!	!	!	!	!	!	!	!	!	!	!	!	!	!	!	!	!	!	!	!
4G#X 4GG#X\	12eeL 12dd\	.	(8A\L	-cych	[	.	.	.	.	.	.	.	.	.	.	.	.	.	.	.	.	.	.
.	12bn\	.	.	.	.	.	.	.	.	.	.	.	.	.	.	.	.	.	.	.	.	.	.
.	.	.	8Bn\J)	.	.	.	.	.	.	.	.	.	.	.	.	.	.	.	.	.	.	.	.
.	12e\J	.	.	.	.	.	.	.	.	.	.	.	.	.	.	.	.	.	.	.	.	.	.
=7	=7	=7	=7	=7	=7	=7	=7	=7	=7	=7	=7	=7	=7	=7	=7	=7	=7	=7	=7	=7	=7	=7	=7
*	*^	*	*	*	*	*	*	*	*	*	*	*	*	*	*	*	*	*	*	*	*	*	*
4A 4AA\	12r	4ryy	.	2A\	drzew?	.	1ryy	.	.	1ryy	.	.	1ryy	.	.	1ryy	.	.	1ryy	.	.	1ryy	.	.
.	12eeL 12cc\	.	.	.	.	.	.	.	.	.	.	.	.	.	.	.	.	.	.	.	.	.	.	.
.	12eeJ 12cc\	.	.	.	.	.	.	.	.	.	.	.	.	.	.	.	.	.	.	.	.	.	.	.
4Gn 4GGn\	4ee/	12cc#X\L	.	.	.	.	.	.	.	.	.	.	.	.	.	.	.	.	.	.	.	.	.	.
.	.	12b-X\	.	.	.	.	.	.	.	.	.	.	.	.	.	.	.	.	.	.	.	.	.	.
.	.	12e\J	.	.	.	.	.	.	.	.	.	.	.	.	.	.	.	.	.	.	.	.	.	.
2F 2FF^\	12r	4ryy	.	4r	.	.	.	.	.	.	.	.	.	.	.	.	.	.	.	.	.	.	.	.
.	12eeL 12a\	.	.	.	.	.	.	.	.	.	.	.	.	.	.	.	.	.	.	.	.	.	.	.
.	12eeJ 12a\	.	.	.	.	.	.	.	.	.	.	.	.	.	.	.	.	.	.	.	.	.	.	.
.	4dd/	12a\L	.	8r	.	.	.	.	.	.	.	.	.	.	.	.	.	.	.	.	.	.	.	.
.	.	12f\	.	.	.	.	.	.	.	.	.	.	.	.	.	.	.	.	.	.	.	.	.	.
!	!	!	!	!	!	!LO:DY:a	!	!	!	!	!	!	!	!	!	!	!	!	!	!	!	!	!	!
.	.	.	.	8A\	Tam	p	.	.	.	.	.	.	.	.	.	.	.	.	.	.	.	.	.	.
.	.	12d\J	.	.	.	.	.	.	.	.	.	.	.	.	.	.	.	.	.	.	.	.	.	.
=8	=8	=8	=8	=8	=8	=8	=8	=8	=8	=8	=8	=8	=8	=8	=8	=8	=8	=8	=8	=8	=8	=8	=8	=8
2F#X 2FF#X/	12r	4ryy	.	(2A\	na-	.	1ryy	.	.	1ryy	.	.	1ryy	.	.	1ryy	.	.	1ryy	.	.	1ryy	.	.
.	12ddL 12ccn\	.	.	.	.	.	.	.	.	.	.	.	.	.	.	.	.	.	.	.	.	.	.	.
.	12ddJ 12cc\	.	.	.	.	.	.	.	.	.	.	.	.	.	.	.	.	.	.	.	.	.	.	.
!	!LO:TUP:a:problem=klamra łukowa	!	!	!	!	!	!	!	!	!	!	!	!	!	!	!	!	!	!	!	!	!	!	!
.	4dd/	12cc\L	.	.	.	.	.	.	.	.	.	.	.	.	.	.	.	.	.	.	.	.	.	.
.	.	12a\	.	.	.	.	.	.	.	.	.	.	.	.	.	.	.	.	.	.	.	.	.	.
.	.	12d\J	.	.	.	.	.	.	.	.	.	.	.	.	.	.	.	.	.	.	.	.	.	.
4G 4GG/	12r	4ryy	.	4.B-X\)	.	.	.	.	.	.	.	.	.	.	.	.	.	.	.	.	.	.	.	.
.	12ddL 12cc\	.	.	.	.	.	.	.	.	.	.	.	.	.	.	.	.	.	.	.	.	.	.	.
.	12ddJ 12cc\	.	.	.	.	.	.	.	.	.	.	.	.	.	.	.	.	.	.	.	.	.	.	.
!	!LO:TUP:a:problem=klamra łukowa	!	!	!	!	!	!	!	!	!	!	!	!	!	!	!	!	!	!	!	!	!	!	!
4Fn 4FFn/	4dd/	12b-\L	.	.	.	.	.	.	.	.	.	.	.	.	.	.	.	.	.	.	.	.	.	.
.	.	12g\	.	.	.	.	.	.	.	.	.	.	.	.	.	.	.	.	.	.	.	.	.	.
.	.	.	.	8B-\	-si	.	.	.	.	.	.	.	.	.	.	.	.	.	.	.	.	.	.	.
.	.	12d\J	.	.	.	.	.	.	.	.	.	.	.	.	.	.	.	.	.	.	.	.	.	.
=9	=9	=9	=9	=9	=9	=9	=9	=9	=9	=9	=9	=9	=9	=9	=9	=9	=9	=9	=9	=9	=9	=9	=9	=9
2E 2EE/	12r	4ryy	.	(2G\	brań-	.	1ryy	.	.	1ryy	.	.	1ryy	.	.	1ryy	.	.	1ryy	.	.	1ryy	.	.
.	12ccL 12b-'\	.	<	.	.	.	.	.	.	.	.	.	.	.	.	.	.	.	.	.	.	.	.	.
.	12ccJ 12b-'\	.	.	.	.	.	.	.	.	.	.	.	.	.	.	.	.	.	.	.	.	.	.	.
!	!LO:TUP:a:problem=klamra łukowa	!	!	!	!	!	!	!	!	!	!	!	!	!	!	!	!	!	!	!	!	!	!	!
.	4cc/	12b-\L	[ >	.	.	.	.	.	.	.	.	.	.	.	.	.	.	.	.	.	.	.	.	.
.	.	12g\	.	.	.	.	.	.	.	.	.	.	.	.	.	.	.	.	.	.	.	.	.	.
.	.	12c\J	.	.	.	.	.	.	.	.	.	.	.	.	.	.	.	.	.	.	.	.	.	.
2F 2FF/	12r	4ryy	]	4A\)	.	.	.	.	.	.	.	.	.	.	.	.	.	.	.	.	.	.	.	.
.	12ccL 12a'\	.	.	.	.	.	.	.	.	.	.	.	.	.	.	.	.	.	.	.	.	.	.	.
.	12ccJ 12a'\	.	.	.	.	.	.	.	.	.	.	.	.	.	.	.	.	.	.	.	.	.	.	.
!	!LO:TUP:a:problem=klamra łukowa	!	!	!	!	!	!	!	!	!	!	!	!	!	!	!	!	!	!	!	!	!	!	!
.	4cc/	12a\L	.	(8A\L	-cy;	.	.	.	.	.	.	.	.	.	.	.	.	.	.	.	.	.	.	.
.	.	12f\	.	.	.	.	.	.	.	.	.	.	.	.	.	.	.	.	.	.	.	.	.	.
.	.	.	.	8G\J)	.	.	.	.	.	.	.	.	.	.	.	.	.	.	.	.	.	.	.	.
.	.	12c\J	.	.	.	.	.	.	.	.	.	.	.	.	.	.	.	.	.	.	.	.	.	.
=10	=10	=10	=10	=10	=10	=10	=10	=10	=10	=10	=10	=10	=10	=10	=10	=10	=10	=10	=10	=10	=10	=10	=10	=10
2D 2DD^/	12r	4ryy	.	(4F\	tam	.	1ryy	.	.	1ryy	.	.	1ryy	.	.	1ryy	.	.	1ryy	.	.	1ryy	.	.
.	12b-L 12a\	.	.	.	.	.	.	.	.	.	.	.	.	.	.	.	.	.	.	.	.	.	.	.
.	12b-J 12a\	.	.	.	.	.	.	.	.	.	.	.	.	.	.	.	.	.	.	.	.	.	.	.
!	!LO:TUP:a:problem=klamra łukowa	!	!	!	!	!	!	!	!	!	!	!	!	!	!	!	!	!	!	!	!	!	!	!
.	4b-/	12a\L	.	4D\)	.	.	.	.	.	.	.	.	.	.	.	.	.	.	.	.	.	.	.	.
.	.	12f\	.	.	.	.	.	.	.	.	.	.	.	.	.	.	.	.	.	.	.	.	.	.
.	.	12B-\J	.	.	.	.	.	.	.	.	.	.	.	.	.	.	.	.	.	.	.	.	.	.
4C#X 4CC#X^/	12r	2ryy	.	(4E\	dziew-	.	.	.	.	.	.	.	.	.	.	.	.	.	.	.	.	.	.	.
.	12aL 12g 12e/	.	.	.	.	.	.	.	.	.	.	.	.	.	.	.	.	.	.	.	.	.	.	.
.	12aJ 12g 12e/	.	.	.	.	.	.	.	.	.	.	.	.	.	.	.	.	.	.	.	.	.	.	.
4Cn 4CCn^/	8aL 8f#X 8e-X/	.	.	8F#X\)	.	.	.	.	.	.	.	.	.	.	.	.	.	.	.	.	.	.	.	.
.	8aJ 8f# 8e-/	.	.	8F#\	-cze	.	.	.	.	.	.	.	.	.	.	.	.	.	.	.	.	.	.	.
*	*v	*v	*	*	*	*	*	*	*	*	*	*	*	*	*	*	*	*	*	*	*	*	*	*
=11	=11	=11	=11	=11	=11	=11	=11	=11	=11	=11	=11	=11	=11	=11	=11	=11	=11	=11	=11	=11	=11	=11	=11
2BB- 2BBB-/	12r	<	(4A\	czy	.	1ryy	.	.	1ryy	.	.	1ryy	.	.	1ryy	.	.	1ryy	.	.	1ryy	.	.
.	12aL 12d/	.	.	.	.	.	.	.	.	.	.	.	.	.	.	.	.	.	.	.	.	.	.
.	12aJ 12d/	.	.	.	.	.	.	.	.	.	.	.	.	.	.	.	.	.	.	.	.	.	.
!	!LO:TUP:b:problem=klamra łukowa	!	!	!	!LO:HP:a	!	!	!	!	!	!	!	!	!	!	!	!	!	!	!	!	!	!
.	12aL 12d/	.	8G\)	.	<	.	.	.	.	.	.	.	.	.	.	.	.	.	.	.	.	.	.
.	12g/	.	.	.	.	.	.	.	.	.	.	.	.	.	.	.	.	.	.	.	.	.	.
.	.	.	8G\	pa-	.	.	.	.	.	.	.	.	.	.	.	.	.	.	.	.	.	.	.
.	12dd/J	.	.	.	.	.	.	.	.	.	.	.	.	.	.	.	.	.	.	.	.	.	.
2B- 2BB-^\	12r	.	[2d^\	-cho-	[	.	.	.	.	.	.	.	.	.	.	.	.	.	.	.	.	.	.
.	12ddL 12g 12d/	.	.	.	.	.	.	.	.	.	.	.	.	.	.	.	.	.	.	.	.	.	.
.	12ddJ 12g 12d/	.	.	.	.	.	.	.	.	.	.	.	.	.	.	.	.	.	.	.	.	.	.
!	!LO:TUP:a:problem=klamra łukowa	!	!	!	!	!	!	!	!	!	!	!	!	!	!	!	!	!	!	!	!	!	!
.	12ddL 12g 12d\	.	.	.	.	.	.	.	.	.	.	.	.	.	.	.	.	.	.	.	.	.	.
.	12ee\	.	.	.	.	.	.	.	.	.	.	.	.	.	.	.	.	.	.	.	.	.	.
.	12dd\J	.	.	.	.	.	.	.	.	.	.	.	.	.	.	.	.	.	.	.	.	.	.
=12	=12	=12	=12	=12	=12	=12	=12	=12	=12	=12	=12	=12	=12	=12	=12	=12	=12	=12	=12	=12	=12	=12	=12
2A 2AA^\	12r	.	4d\]	.	.	1ryy	.	.	1ryy	.	.	1ryy	.	.	1ryy	.	.	1ryy	.	.	1ryy	.	.
.	12ddL 12g 12e/	.	.	.	.	.	.	.	.	.	.	.	.	.	.	.	.	.	.	.	.	.	.
.	12ddJ 12g 12e/	.	.	.	.	.	.	.	.	.	.	.	.	.	.	.	.	.	.	.	.	.	.
.	12cc#XL 12g 12e/	.	4c#X\	-le?	.	.	.	.	.	.	.	.	.	.	.	.	.	.	.	.	.	.	.
.	12cc# 12g 12e/	.	.	.	.	.	.	.	.	.	.	.	.	.	.	.	.	.	.	.	.	.	.
.	12cc#J 12g 12e/	[	.	.	.	.	.	.	.	.	.	.	.	.	.	.	.	.	.	.	.	.	.
4AA-X 4AAA-X/	12r	.	4.cn\	Czy	.	.	.	.	.	.	.	.	.	.	.	.	.	.	.	.	.	.	.
.	12ccnL 12f#X 12d/	.	.	.	.	.	.	.	.	.	.	.	.	.	.	.	.	.	.	.	.	.	.
.	12ccJ 12f# 12d/	.	.	.	.	.	.	.	.	.	.	.	.	.	.	.	.	.	.	.	.	.	.
4A-X 4AA-X^\	12ccL 12f# 12d/	.	.	.	.	.	.	.	.	.	.	.	.	.	.	.	.	.	.	.	.	.	.
.	12dd/	.	.	.	.	.	.	.	.	.	.	.	.	.	.	.	.	.	.	.	.	.	.
.	.	.	8c\	to	.	.	.	.	.	.	.	.	.	.	.	.	.	.	.	.	.	.	.
.	12cc/J	.	.	.	.	.	.	.	.	.	.	.	.	.	.	.	.	.	.	.	.	.	.
=13	=13	=13	=13	=13	=13	=13	=13	=13	=13	=13	=13	=13	=13	=13	=13	=13	=13	=13	=13	=13	=13	=13	=13
2G 2GG/	12r	.	4c\	jęk	.	1ryy	.	.	1ryy	.	.	1ryy	.	.	1ryy	.	.	1ryy	.	.	1ryy	.	.
.	12ccL 12g 12d/	.	.	.	.	.	.	.	.	.	.	.	.	.	.	.	.	.	.	.	.	.	.
.	12ccJ 12g 12d/	.	.	.	.	.	.	.	.	.	.	.	.	.	.	.	.	.	.	.	.	.	.
.	12bnL 12g 12d/	.	4Bn\	czy	.	.	.	.	.	.	.	.	.	.	.	.	.	.	.	.	.	.	.
.	12b 12g 12d/	.	.	.	.	.	.	.	.	.	.	.	.	.	.	.	.	.	.	.	.	.	.
.	12bJ 12g 12d/	.	.	.	.	.	.	.	.	.	.	.	.	.	.	.	.	.	.	.	.	.	.
2E 2EE/	12r	.	4.B-X\	śpiew,	.	.	.	.	.	.	.	.	.	.	.	.	.	.	.	.	.	.	.
.	12b-XL 12g 12c/	>	.	.	.	.	.	.	.	.	.	.	.	.	.	.	.	.	.	.	.	.	.
.	12b-J 12g 12c/	.	.	.	.	.	.	.	.	.	.	.	.	.	.	.	.	.	.	.	.	.	.
!	!LO:TUP:a:problem=klamra łukowa	!	!	!	!	!	!	!	!	!	!	!	!	!	!	!	!	!	!	!	!	!	!
.	12b-L 12g 12c/	.	.	.	.	.	.	.	.	.	.	.	.	.	.	.	.	.	.	.	.	.	.
.	12cc/	.	.	.	.	.	.	.	.	.	.	.	.	.	.	.	.	.	.	.	.	.	.
.	.	.	8G\	czy	.	.	.	.	.	.	.	.	.	.	.	.	.	.	.	.	.	.	.
.	12g/J	]]	.	.	.	.	.	.	.	.	.	.	.	.	.	.	.	.	.	.	.	.	.
=14	=14	=14	=14	=14	=14	=14	=14	=14	=14	=14	=14	=14	=14	=14	=14	=14	=14	=14	=14	=14	=14	=14	=14
*	*^	*	*	*	*	*	*	*	*	*	*	*	*	*	*	*	*	*	*	*	*	*	*
4F 4FF^/	12r	2ryy	f	4A\	śpiew?	.	1ryy	.	.	1ryy	.	.	1ryy	.	.	1ryy	.	.	1ryy	.	.	1ryy	.	.
.	12aL 12f/	.	.	.	.	.	.	.	.	.	.	.	.	.	.	.	.	.	.	.	.	.	.	.
.	12aJ 12f/	.	.	.	.	.	.	.	.	.	.	.	.	.	.	.	.	.	.	.	.	.	.	.
4D 4DD^/	12ffL 12a 12f\	.	.	8B-\	czy	.	.	.	.	.	.	.	.	.	.	.	.	.	.	.	.	.	.	.
.	12ff 12a 12f\	.	.	.	.	.	.	.	.	.	.	.	.	.	.	.	.	.	.	.	.	.	.	.
.	.	.	.	8A\	to	.	.	.	.	.	.	.	.	.	.	.	.	.	.	.	.	.	.	.
.	12ffJ 12a 12f\	.	.	.	.	.	.	.	.	.	.	.	.	.	.	.	.	.	.	.	.	.	.	.
!	!	!	!	!	!	!LO:HP:a	!	!	!	!	!	!	!	!	!	!	!	!	!	!	!	!	!	!
4BB- 4BBB-^/	12ff/L	4b- 4g\	.	4..G\	jęk,	<	.	.	.	.	.	.	.	.	.	.	.	.	.	.	.	.	.	.
.	12ee/	.	.	.	.	.	.	.	.	.	.	.	.	.	.	.	.	.	.	.	.	.	.	.
.	12dd/J	.	.	.	.	.	.	.	.	.	.	.	.	.	.	.	.	.	.	.	.	.	.	.
4C 4CC^/	12ee/L	12b-L 12g\	.	.	.	.	.	.	.	.	.	.	.	.	.	.	.	.	.	.	.	.	.	.
.	12ee/	12a\	.	.	.	.	.	.	.	.	.	.	.	.	.	.	.	.	.	.	.	.	.	.
.	12ee/J	12g\J	.	.	.	.	.	.	.	.	.	.	.	.	.	.	.	.	.	.	.	.	.	.
.	.	.	.	16G\	czy	[[	.	.	.	.	.	.	.	.	.	.	.	.	.	.	.	.	.	.
=15	=15	=15	=15	=15	=15	=15	=15	=15	=15	=15	=15	=15	=15	=15	=15	=15	=15	=15	=15	=15	=15	=15	=15	=15
2A 2AA\	12r	4ryy	sf	2A\	śpiew?	.	1ryy	.	.	1ryy	.	.	1ryy	.	.	1ryy	.	.	1ryy	.	.	1ryy	.	.
.	12eeL 12cc\	.	.	.	.	.	.	.	.	.	.	.	.	.	.	.	.	.	.	.	.	.	.	.
.	12eeJ 12cc\	.	.	.	.	.	.	.	.	.	.	.	.	.	.	.	.	.	.	.	.	.	.	.
!	!LO:TUP:a:problem=klamra łukowa	!	!	!	!	!	!	!	!	!	!	!	!	!	!	!	!	!	!	!	!	!	!	!
.	4ee/	12cc\L	.	.	.	.	.	.	.	.	.	.	.	.	.	.	.	.	.	.	.	.	.	.
.	.	12a\	.	.	.	.	.	.	.	.	.	.	.	.	.	.	.	.	.	.	.	.	.	.
.	.	12f\J	.	.	.	.	.	.	.	.	.	.	.	.	.	.	.	.	.	.	.	.	.	.
2G 2GG\	12r	4ryy	sf	4r	.	.	.	.	.	.	.	.	.	.	.	.	.	.	.	.	.	.	.	.
.	12ffL 12cc#X\	.	.	.	.	.	.	.	.	.	.	.	.	.	.	.	.	.	.	.	.	.	.	.
.	12eeJ 12cc#\	.	.	.	.	.	.	.	.	.	.	.	.	.	.	.	.	.	.	.	.	.	.	.
!	!LO:TUP:a:problem=klamra łukowa	!	!	!	!	!	!	!	!	!	!	!	!	!	!	!	!	!	!	!	!	!	!	!
.	4ee/	12cc#\L	.	4c#X\	Tam	.	.	.	.	.	.	.	.	.	.	.	.	.	.	.	.	.	.	.
.	.	12b-\	.	.	.	.	.	.	.	.	.	.	.	.	.	.	.	.	.	.	.	.	.	.
.	.	12e\J	.	.	.	.	.	.	.	.	.	.	.	.	.	.	.	.	.	.	.	.	.	.
=16	=16	=16	=16	=16	=16	=16	=16	=16	=16	=16	=16	=16	=16	=16	=16	=16	=16	=16	=16	=16	=16	=16	=16	=16
2F 2FF^/	12r	4ryy	.	[2d\	na-	.	1ryy	.	.	1ryy	.	.	1ryy	.	.	1ryy	.	.	1ryy	.	.	1ryy	.	.
.	12ddL 12a\	.	.	.	.	.	.	.	.	.	.	.	.	.	.	.	.	.	.	.	.	.	.	.
.	12ddJ 12a\	.	.	.	.	.	.	.	.	.	.	.	.	.	.	.	.	.	.	.	.	.	.	.
!	!LO:TUP:a:problem=klamra łukowa	!	!	!	!	!	!	!	!	!	!	!	!	!	!	!	!	!	!	!	!	!	!	!
.	4dd/	12a\L	.	.	.	.	.	.	.	.	.	.	.	.	.	.	.	.	.	.	.	.	.	.
.	.	12f\	.	.	.	.	.	.	.	.	.	.	.	.	.	.	.	.	.	.	.	.	.	.
.	.	12d\J	.	.	.	.	.	.	.	.	.	.	.	.	.	.	.	.	.	.	.	.	.	.
2E 2EE^/	12r	4ryy	.	4.d\]	.	.	.	.	.	.	.	.	.	.	.	.	.	.	.	.	.	.	.	.
.	12eeL 12cc#X'\	.	.	.	.	.	.	.	.	.	.	.	.	.	.	.	.	.	.	.	.	.	.	.
.	12eeJ 12cc#'\	.	.	.	.	.	.	.	.	.	.	.	.	.	.	.	.	.	.	.	.	.	.	.
!	!LO:TUP:a:problem=klamra łukowa	!	!	!	!	!	!	!	!	!	!	!	!	!	!	!	!	!	!	!	!	!	!	!
.	4ee/	12cc#\L	.	.	.	.	.	.	.	.	.	.	.	.	.	.	.	.	.	.	.	.	.	.
.	.	12a\	.	.	.	.	.	.	.	.	.	.	.	.	.	.	.	.	.	.	.	.	.	.
!	!	!	!	!	!	!LO:DY:a	!	!	!	!	!	!	!	!	!	!	!	!	!	!	!	!	!	!
.	.	.	.	8e\	-si	f	.	.	.	.	.	.	.	.	.	.	.	.	.	.	.	.	.	.
.	.	12e\J	.	.	.	.	.	.	.	.	.	.	.	.	.	.	.	.	.	.	.	.	.	.
=17	=17	=17	=17	=17	=17	=17	=17	=17	=17	=17	=17	=17	=17	=17	=17	=17	=17	=17	=17	=17	=17	=17	=17	=17
2D 2DD^/	12r	2.ryy	f	(4f\	brań-	.	1ryy	.	.	1ryy	.	.	1ryy	.	.	1ryy	.	.	1ryy	.	.	1ryy	.	.
.	12ffL 12dd\	.	.	.	.	.	.	.	.	.	.	.	.	.	.	.	.	.	.	.	.	.	.	.
.	12ffJ 12dd\	.	.	.	.	.	.	.	.	.	.	.	.	.	.	.	.	.	.	.	.	.	.	.
!	!LO:TUP:a:problem=klamra łukowa	!	!	!	!	!	!	!	!	!	!	!	!	!	!	!	!	!	!	!	!	!	!	!
.	12ffL 12dd\	.	.	12d\L)	.	.	.	.	.	.	.	.	.	.	.	.	.	.	.	.	.	.	.	.
.	12a\	.	.	12F\J	.	.	.	.	.	.	.	.	.	.	.	.	.	.	.	.	.	.	.	.
.	12f\J	.	.	12F\	-cy;	.	.	.	.	.	.	.	.	.	.	.	.	.	.	.	.	.	.	.
2Cn 2CCn^/	12r	.	.	4D\	dziew-	.	.	.	.	.	.	.	.	.	.	.	.	.	.	.	.	.	.	.
.	12ff#XL 12dd\	.	.	.	.	.	.	.	.	.	.	.	.	.	.	.	.	.	.	.	.	.	.	.
.	12ff#J 12dd\	.	.	.	.	.	.	.	.	.	.	.	.	.	.	.	.	.	.	.	.	.	.	.
.	4ff#/	12dd\L	.	8.E\	.	.	.	.	.	.	.	.	.	.	.	.	.	.	.	.	.	.	.	.
.	.	12a\	.	.	.	.	.	.	.	.	.	.	.	.	.	.	.	.	.	.	.	.	.	.
.	.	12f#X\J	.	.	.	.	.	.	.	.	.	.	.	.	.	.	.	.	.	.	.	.	.	.
.	.	.	.	16F#X\	-cze	.	.	.	.	.	.	.	.	.	.	.	.	.	.	.	.	.	.	.
=18	=18	=18	=18	=18	=18	=18	=18	=18	=18	=18	=18	=18	=18	=18	=18	=18	=18	=18	=18	=18	=18	=18	=18	=18
2BB- 2BBB-/	12r	2.ryy	.	[2G\	czy	.	1ryy	.	.	1ryy	.	.	1ryy	.	.	1ryy	.	.	1ryy	.	.	1ryy	.	.
.	12ggL 12dd\	.	.	.	.	.	.	.	.	.	.	.	.	.	.	.	.	.	.	.	.	.	.	.
.	12ggJ 12dd\	.	.	.	.	.	.	.	.	.	.	.	.	.	.	.	.	.	.	.	.	.	.	.
.	12ggL 12dd\	.	.	.	.	.	.	.	.	.	.	.	.	.	.	.	.	.	.	.	.	.	.	.
.	12b-\	.	.	.	.	.	.	.	.	.	.	.	.	.	.	.	.	.	.	.	.	.	.	.
.	12g\J	.	.	.	.	.	.	.	.	.	.	.	.	.	.	.	.	.	.	.	.	.	.	.
2BBn 2BBBn/	12r	.	.	4.G\]	.	.	.	.	.	.	.	.	.	.	.	.	.	.	.	.	.	.	.	.
.	12ffL 12dd\	.	.	.	.	.	.	.	.	.	.	.	.	.	.	.	.	.	.	.	.	.	.	.
.	12ffJ 12dd\	.	.	.	.	.	.	.	.	.	.	.	.	.	.	.	.	.	.	.	.	.	.	.
.	4ff/	12dd\L	.	.	.	.	.	.	.	.	.	.	.	.	.	.	.	.	.	.	.	.	.	.
.	.	12a-X\	.	.	.	.	.	.	.	.	.	.	.	.	.	.	.	.	.	.	.	.	.	.
.	.	.	.	8d\	pa-	.	.	.	.	.	.	.	.	.	.	.	.	.	.	.	.	.	.	.
.	.	12f\J	.	.	.	.	.	.	.	.	.	.	.	.	.	.	.	.	.	.	.	.	.	.
=19	=19	=19	=19	=19	=19	=19	=19	=19	=19	=19	=19	=19	=19	=19	=19	=19	=19	=19	=19	=19	=19	=19	=19	=19
2C 2CC/	4ff/	12r	.	(2c\	-cho-	.	1ryy	.	.	1ryy	.	.	1ryy	.	.	1ryy	.	.	1ryy	.	.	1ryy	.	.
.	.	12an\L	.	.	.	.	.	.	.	.	.	.	.	.	.	.	.	.	.	.	.	.	.	.
.	.	12cc\J	.	.	.	.	.	.	.	.	.	.	.	.	.	.	.	.	.	.	.	.	.	.
!	!LO:TUP:a:problem=klamra łukowa	!	!	!	!	!	!	!	!	!	!	!	!	!	!	!	!	!	!	!	!	!	!	!
.	4ff/	12a\L	.	.	.	.	.	.	.	.	.	.	.	.	.	.	.	.	.	.	.	.	.	.
.	.	12dd\	.	.	.	.	.	.	.	.	.	.	.	.	.	.	.	.	.	.	.	.	.	.
.	.	12f\J	.	.	.	.	.	.	.	.	.	.	.	.	.	.	.	.	.	.	.	.	.	.
4D 4DD/	12r	12ryy	.	4Bn\)	.	.	.	.	.	.	.	.	.	.	.	.	.	.	.	.	.	.	.	.
!	!LO:TUP:a:problem=klamra łukowa	!	!	!	!	!	!	!	!	!	!	!	!	!	!	!	!	!	!	!	!	!	!	!
.	12bn/L	6f\	.	.	.	.	.	.	.	.	.	.	.	.	.	.	.	.	.	.	.	.	.	.
.	12ff/J	.	.	.	.	.	.	.	.	.	.	.	.	.	.	.	.	.	.	.	.	.	.	.
4E 4EE^/	12r	12ryy	.	4B-X\	-le?	.	.	.	.	.	.	.	.	.	.	.	.	.	.	.	.	.	.	.
!	!LO:TUP:a:problem=klamra łukowa	!	!	!	!	!	!	!	!	!	!	!	!	!	!	!	!	!	!	!	!	!	!	!
.	12b-X/L	6g\	.	.	.	.	.	.	.	.	.	.	.	.	.	.	.	.	.	.	.	.	.	.
.	12gg/J	.	.	.	.	.	.	.	.	.	.	.	.	.	.	.	.	.	.	.	.	.	.	.
=20	=20	=20	=20	=20	=20	=20	=20	=20	=20	=20	=20	=20	=20	=20	=20	=20	=20	=20	=20	=20	=20	=20	=20	=20
4F 4FF/	(12gg/L	4a\	.	2.A\	To	.	1r	.	.	1r	.	.	1r	.	.	1ryy	.	.	1ryy	.	.	1ryy	.	.
.	12ff/	.	.	.	.	.	.	.	.	.	.	.	.	.	.	.	.	.	.	.	.	.	.	.
.	12ee/J	.	.	.	.	.	.	.	.	.	.	.	.	.	.	.	.	.	.	.	.	.	.	.
12FF/L	12ff\L	2.ryy	.	.	.	.	.	.	.	.	.	.	.	.	.	.	.	.	.	.	.	.	.	.
12AA/	12cc\	.	.	.	.	.	.	.	.	.	.	.	.	.	.	.	.	.	.	.	.	.	.	.
12C/J	12a\J	.	.	.	.	.	.	.	.	.	.	.	.	.	.	.	.	.	.	.	.	.	.	.
8F\	8f/)	.	.	.	.	.	.	.	.	.	.	.	.	.	.	.	.	.	.	.	.	.	.	.
8r	8r	.	.	.	.	.	.	.	.	.	.	.	.	.	.	.	.	.	.	.	.	.	.	.
!	!	!	!	!LO:TUP:a:problem=klamra łukowa	!	!	!	!	!	!	!	!	!	!	!	!	!	!	!	!	!	!	!	!
4AA 4AAA/	4ff 4cc 4f\	.	p	12C\L	Dąb-	.	.	.	.	.	.	.	.	.	.	.	.	.	.	.	.	.	.	.
.	.	.	.	12F\	.	.	.	.	.	.	.	.	.	.	.	.	.	.	.	.	.	.	.	.
.	.	.	.	12A\J	.	.	.	.	.	.	.	.	.	.	.	.	.	.	.	.	.	.	.	.
=21	=21	=21	=21	=21	=21	=21	=21	=21	=21	=21	=21	=21	=21	=21	=21	=21	=21	=21	=21	=21	=21	=21	=21	=21
!	!LO:TX:b:t=rall. colla voce	!	!	!	!	!	!	!	!	!	!	!	!	!	!	!	!	!	!	!	!	!	!	!
2BB- 2BBB-/	4ff/	2b- 2g\	.	2..GT\	-rów-	.	1r	.	.	1r	.	.	1r	.	.	1ryy	.	.	1ryy	.	.	1ryy	.	.
.	8ee/L	.	.	.	.	.	.	.	.	.	.	.	.	.	.	.	.	.	.	.	.	.	.	.
.	8dd/J	.	.	.	.	.	.	.	.	.	.	.	.	.	.	.	.	.	.	.	.	.	.	.
4..C 4..CC/	4..ee/	4..b- 4..g\	.	.	.	.	.	.	.	.	.	.	.	.	.	.	.	.	.	.	.	.	.	.
.	.	.	.	8F\	-ki	.	.	.	.	.	.	.	.	.	.	.	.	.	.	.	.	.	.	.
16FF 16FFF/	16ff/	16a 16f\	.	.	.	.	.	.	.	.	.	.	.	.	.	.	.	.	.	.	.	.	.	.
*	*v	*v	*	*	*	*	*	*	*	*	*	*	*	*	*	*	*	*	*	*	*	*	*	*
=22||	=22||	=22||	=22||	=22||	=22||	=22||	=22||	=22||	=22||	=22||	=22||	=22||	=22||	=22||	=22||	=22||	=22||	=22||	=22||	=22||	=22||	=22||	=22||
*	*^	*	*	*	*	*	*	*	*	*	*	*	*	*	*	*	*	*	*	*	*	*	*
*k[b-e-a-d-]	*k[b-e-a-d-]	*k[b-e-a-d-]	*	*k[b-e-a-d-]	*	*	*k[b-e-a-d-]	*	*	*k[b-e-a-d-]	*	*	*k[b-e-a-d-]	*	*	*k[b-e-a-d-]	*	*	*k[b-e-a-d-]	*	*	*k[b-e-a-d-]	*	*
!	!LO:TX:b:t=a tempo.	!	!	!	!	!	!	!	!	!	!	!	!LO:TX:a:t=BRANKI.	!	!	!	!	!	!	!	!	!	!	!
4FF 4FFF/	4.ff/	4an 4f\	.	2F\	śpiew!	.	2r	.	.	2r	.	.	2r	.	.	1ryy	.	.	1ryy	.	.	1ryy	.	.
4c 4F\	.	2.ryy	.	.	.	.	.	.	.	.	.	.	.	.	.	.	.	.	.	.	.	.	.	.
.	8f/	.	.	.	.	.	.	.	.	.	.	.	.	.	.	.	.	.	.	.	.	.	.	.
!	!	!	!	!	!	!	!	!	!LO:DY:a	!	!	!LO:DY:a	!	!	!LO:DY:a	!	!	!	!	!	!	!	!	!
4Bn 4F\	4g 4f/	.	.	2r	.	.	4f/	Jas-	p	4g/	Jas-	p	4cc\	Jas-	p	.	.	.	.	.	.	.	.	.
4B-X 4C^\	4cc 4g 4en/	.	.	.	.	.	4en/	-kó-	.	4g/	-kó-	.	4cc\	-kó-	.	.	.	.	.	.	.	.	.	.
*	*v	*v	*	*	*	*	*	*	*	*	*	*	*	*	*	*	*	*	*	*	*	*	*	*
=23	=23	=23	=23	=23	=23	=23	=23	=23	=23	=23	=23	=23	=23	=23	=23	=23	=23	=23	=23	=23	=23	=23	=23
4F 4FF\	8cc 8a-X 8f/	p	1r	.	.	(2f/	-łecz-	.	[2a-/	-łecz-	.	[2cc\	-łecz-	.	1ryy	.	.	1ryy	.	.	1ryy	.	.
.	4cc 4a- 4f/	.	.	.	.	.	.	.	.	.	.	.	.	.	.	.	.	.	.	.	.	.	.
8A-\L	.	.	.	.	.	.	.	.	.	.	.	.	.	.	.	.	.	.	.	.	.	.	.
8c\J	4cc 4a-/	.	.	.	.	.	.	.	.	.	.	.	.	.	.	.	.	.	.	.	.	.	.
(4en\	.	.	.	.	.	4en/)	.	.	4a-/]	.	.	4cc\]	.	.	.	.	.	.	.	.	.	.	.
.	4b- 4g/	.	.	.	.	.	.	.	.	.	.	.	.	.	.	.	.	.	.	.	.	.	.
4f\)	.	.	.	.	.	4f/	-ki	.	4a-/	-ki	.	4cc\	-ki	.	.	.	.	.	.	.	.	.	.
.	8cc 8a-/	.	.	.	.	.	.	.	.	.	.	.	.	.	.	.	.	.	.	.	.	.	.
=24	=24	=24	=24	=24	=24	=24	=24	=24	=24	=24	=24	=24	=24	=24	=24	=24	=24	=24	=24	=24	=24	=24	=24
4FF/	8dd- 8b-^\	.	1ryy	.	.	[2f^/	wę-	.	[2b-^\	wę-	.	[2dd-^\	wę-	.	1ryy	.	.	1ryy	.	.	1ryy	.	.
.	4dd- 4b-\	.	.	.	.	.	.	.	.	.	.	.	.	.	.	.	.	.	.	.	.	.	.
(4BB-/	.	.	.	.	.	.	.	.	.	.	.	.	.	.	.	.	.	.	.	.	.	.	.
.	4dd- 4b-\	.	.	.	.	.	.	.	.	.	.	.	.	.	.	.	.	.	.	.	.	.	.
4D-\	.	.	.	.	.	4f/]	.	.	4b-\]	.	.	4dd-\]	.	.	.	.	.	.	.	.	.	.	.
.	4dd- 4b-\	.	.	.	.	.	.	.	.	.	.	.	.	.	.	.	.	.	.	.	.	.	.
4F\	.	.	.	.	.	4f/	-drow-	.	4b-\	-drow-	.	4dd-\	-drow-	.	.	.	.	.	.	.	.	.	.
.	[8dd- [8b-\	.	.	.	.	.	.	.	.	.	.	.	.	.	.	.	.	.	.	.	.	.	.
=25	=25	=25	=25	=25	=25	=25	=25	=25	=25	=25	=25	=25	=25	=25	=25	=25	=25	=25	=25	=25	=25	=25	=25
4B-\	8dd-] 8b-\]	.	1ryy	.	.	4f/	-ni-	.	4b-\	-ni-	.	4dd-\	-ni-	.	1ryy	.	.	1ryy	.	.	1ryy	.	.
.	4dd- 4b-\	.	.	.	.	.	.	.	.	.	.	.	.	.	.	.	.	.	.	.	.	.	.
4d-\)	.	.	.	.	.	4f/	-ce,	.	4b-\	-ce,	.	4dd-\	-ce,	.	.	.	.	.	.	.	.	.	.
.	4dd- 4b-\	.	.	.	.	.	.	.	.	.	.	.	.	.	.	.	.	.	.	.	.	.	.
(4en\	.	.	.	.	.	4.en/	nieś-	.	4.b-\	nieś-	.	4.dd-\	nieś-	.	.	.	.	.	.	.	.	.	.
!	!LO:N:vis=4.	!	!	!	!	!	!	!	!	!	!	!	!	!	!	!	!	!	!	!	!	!	!
.	4dd- 4b-\	.	.	.	.	.	.	.	.	.	.	.	.	.	.	.	.	.	.	.	.	.	.
4f\)	.	.	.	.	.	.	.	.	.	.	.	.	.	.	.	.	.	.	.	.	.	.	.
.	8dd- 8b-\	.	.	.	.	8f/	-cie	.	8b-\	-cie	.	8dd-\	-cie	.	.	.	.	.	.	.	.	.	.
=26	=26	=26	=26	=26	=26	=26	=26	=26	=26	=26	=26	=26	=26	=26	=26	=26	=26	=26	=26	=26	=26	=26	=26
4FF/	8cc 8b- 8g/	sf	1ryy	.	.	2.en^/	jęk	.	2.g^/	jęk	.	2.cc^\	jęk	.	1ryy	.	.	1ryy	.	.	1ryy	.	.
.	4cc 4b- 4g/	.	.	.	.	.	.	.	.	.	.	.	.	.	.	.	.	.	.	.	.	.	.
(4BB-/	.	.	.	.	.	.	.	.	.	.	.	.	.	.	.	.	.	.	.	.	.	.	.
.	4cc 4b- 4g/	.	.	.	.	.	.	.	.	.	.	.	.	.	.	.	.	.	.	.	.	.	.
4C/	.	.	.	.	.	.	.	.	.	.	.	.	.	.	.	.	.	.	.	.	.	.	.
.	4cc 4b- 4g/	.	.	.	.	.	.	.	.	.	.	.	.	.	.	.	.	.	.	.	.	.	.
4En\	.	.	.	.	.	4en/	bo-	.	4g/	bo-	.	4cc\	bo-	.	.	.	.	.	.	.	.	.	.
.	[8cc 8b- [8g/	.	.	.	.	.	.	.	.	.	.	.	.	.	.	.	.	.	.	.	.	.	.
=27	=27	=27	=27	=27	=27	=27	=27	=27	=27	=27	=27	=27	=27	=27	=27	=27	=27	=27	=27	=27	=27	=27	=27
4G\	8cc] 8b- 8g/]	.	1ryy	.	.	2.en/	-leś-	.	2.g/	-leś-	.	2.cc\	-leś-	.	1ryy	.	.	1ryy	.	.	1ryy	.	.
.	4cc 4b- 4g/	.	.	.	.	.	.	.	.	.	.	.	.	.	.	.	.	.	.	.	.	.	.
4B-\	.	.	.	.	.	.	.	.	.	.	.	.	.	.	.	.	.	.	.	.	.	.	.
.	4cc 4b- 4g/	.	.	.	.	.	.	.	.	.	.	.	.	.	.	.	.	.	.	.	.	.	.
4c\	.	.	.	.	.	.	.	.	.	.	.	.	.	.	.	.	.	.	.	.	.	.	.
.	4cc 4b- 4g/	.	.	.	.	.	.	.	.	.	.	.	.	.	.	.	.	.	.	.	.	.	.
4en\)	.	.	.	.	.	4c/	-ci	.	4en/	-ci	.	4g/	-ci	.	.	.	.	.	.	.	.	.	.
.	8cc 8b- 8g/	.	.	.	.	.	.	.	.	.	.	.	.	.	.	.	.	.	.	.	.	.	.
=28	=28	=28	=28	=28	=28	=28	=28	=28	=28	=28	=28	=28	=28	=28	=28	=28	=28	=28	=28	=28	=28	=28	=28
4F\	8cc 8a-/	.	1ryy	.	.	2f 2F/	tam	.	2f/	tam	.	2a-/	tam	.	1ryy	.	.	1ryy	.	.	1ryy	.	.
.	4cc 4a-/	.	.	.	.	.	.	.	.	.	.	.	.	.	.	.	.	.	.	.	.	.	.
(4f\	.	.	.	.	.	.	.	.	.	.	.	.	.	.	.	.	.	.	.	.	.	.	.
.	4cc 4a-/	.	.	.	.	.	.	.	.	.	.	.	.	.	.	.	.	.	.	.	.	.	.
4e-X\	.	.	.	.	.	2r	.	.	2r	.	.	2r	.	.	.	.	.	.	.	.	.	.	.
.	4cc 4a-/	.	.	.	.	.	.	.	.	.	.	.	.	.	.	.	.	.	.	.	.	.	.
4d-\	.	.	.	.	.	.	.	.	.	.	.	.	.	.	.	.	.	.	.	.	.	.	.
.	8cc 8a-/	.	.	.	.	.	.	.	.	.	.	.	.	.	.	.	.	.	.	.	.	.	.
=29	=29	=29	=29	=29	=29	=29	=29	=29	=29	=29	=29	=29	=29	=29	=29	=29	=29	=29	=29	=29	=29	=29	=29
4c\	8cc 8g 8f/	.	1ryy	.	.	2r	.	.	2r	.	.	2r	.	.	1ryy	.	.	1ryy	.	.	1ryy	.	.
.	4cc 4g 4f/	.	.	.	.	.	.	.	.	.	.	.	.	.	.	.	.	.	.	.	.	.	.
4B-\	.	.	.	.	.	.	.	.	.	.	.	.	.	.	.	.	.	.	.	.	.	.	.
.	4cc 4g 4en/	.	.	.	.	.	.	.	.	.	.	.	.	.	.	.	.	.	.	.	.	.	.
!	!	!	!	!	!	!	!	!LO:DY:a	!	!	!LO:DY:a	!	!	!LO:DY:a	!	!	!	!	!	!	!	!	!
4A-\	.	.	.	.	.	4.c/	Gdzie	p	4.cc\	Gdzie	p	4.cc\	Gdzie	p	.	.	.	.	.	.	.	.	.
.	4cc 4f/	.	.	.	.	.	.	.	.	.	.	.	.	.	.	.	.	.	.	.	.	.	.
4G\)	.	.	.	.	.	.	.	.	.	.	.	.	.	.	.	.	.	.	.	.	.	.	.
.	8cc 8b- 8e/	.	.	.	.	8c/	me	.	8cc\	me	.	8cc\	me	.	.	.	.	.	.	.	.	.	.
=30	=30	=30	=30	=30	=30	=30	=30	=30	=30	=30	=30	=30	=30	=30	=30	=30	=30	=30	=30	=30	=30	=30	=30
(4F 4FF/	8cc 8a- 8f/	sfp	1ryy	.	.	2.f/	sios-	.	2.a-/	sios-	.	2.cc\	sios-	.	1ryy	.	.	1ryy	.	.	1ryy	.	.
.	4cc 4a-/	.	.	.	.	.	.	.	.	.	.	.	.	.	.	.	.	.	.	.	.	.	.
4AA-/	.	.	.	.	.	.	.	.	.	.	.	.	.	.	.	.	.	.	.	.	.	.	.
.	4cc 4a-/	.	.	.	.	.	.	.	.	.	.	.	.	.	.	.	.	.	.	.	.	.	.
4C/	.	.	.	.	.	.	.	.	.	.	.	.	.	.	.	.	.	.	.	.	.	.	.
.	4cc 4a-/	.	.	.	.	.	.	.	.	.	.	.	.	.	.	.	.	.	.	.	.	.	.
4F\	.	.	.	.	.	4f/	-try	.	4a-/	-try	.	4cc\	-try	.	.	.	.	.	.	.	.	.	.
.	8ccL 8a-/	.	.	.	.	.	.	.	.	.	.	.	.	.	.	.	.	.	.	.	.	.	.
=31	=31	=31	=31	=31	=31	=31	=31	=31	=31	=31	=31	=31	=31	=31	=31	=31	=31	=31	=31	=31	=31	=31	=31
4A-\	8ccJ 8a-/	.	1ryy	.	.	(2f/	ró-	.	(2a-/	ró-	.	2.cc\	ró-	.	1ryy	.	.	1ryy	.	.	1ryy	.	.
.	4cc 4a-/	.	.	.	.	.	.	.	.	.	.	.	.	.	.	.	.	.	.	.	.	.	.
4c\)	.	.	.	.	.	.	.	.	.	.	.	.	.	.	.	.	.	.	.	.	.	.	.
.	4cc 4a-/	.	.	.	.	.	.	.	.	.	.	.	.	.	.	.	.	.	.	.	.	.	.
(4en\	.	.	.	.	.	4en/)	.	.	4g/)	.	.	.	.	.	.	.	.	.	.	.	.	.	.
.	4cc 4g/	.	.	.	.	.	.	.	.	.	.	.	.	.	.	.	.	.	.	.	.	.	.
4f\)	.	.	.	.	.	4f/	-wien-	.	4a-/	-wien-	.	4cc\	-wien-	.	.	.	.	.	.	.	.	.	.
.	8cc 8a-/	.	.	.	.	.	.	.	.	.	.	.	.	.	.	.	.	.	.	.	.	.	.
=32	=32	=32	=32	=32	=32	=32	=32	=32	=32	=32	=32	=32	=32	=32	=32	=32	=32	=32	=32	=32	=32	=32	=32
(4FF/	8dd- 8b-\	.	1ryy	.	.	1f	-ni-	.	1b-	-ni-	.	1dd-	-ni-	.	1ryy	.	.	1ryy	.	.	1ryy	.	.
.	4dd- 4b-\	<	.	.	.	.	.	.	.	.	.	.	.	.	.	.	.	.	.	.	.	.	.
4BB-/	.	.	.	.	.	.	.	.	.	.	.	.	.	.	.	.	.	.	.	.	.	.	.
.	4dd- 4b-\	.	.	.	.	.	.	.	.	.	.	.	.	.	.	.	.	.	.	.	.	.	.
4D-\	.	.	.	.	.	.	.	.	.	.	.	.	.	.	.	.	.	.	.	.	.	.	.
.	4dd- 4b-\	.	.	.	.	.	.	.	.	.	.	.	.	.	.	.	.	.	.	.	.	.	.
4F\	.	.	.	.	.	.	.	.	.	.	.	.	.	.	.	.	.	.	.	.	.	.	.
.	8dd- 8b-\	[[	.	.	.	.	.	.	.	.	.	.	.	.	.	.	.	.	.	.	.	.	.
=33	=33	=33	=33	=33	=33	=33	=33	=33	=33	=33	=33	=33	=33	=33	=33	=33	=33	=33	=33	=33	=33	=33	=33
4B-\	8dd- 8b-\	<	1ryy	.	.	2f/	-ce,	.	2b-\	-ce,	.	2dd-\	-ce,	.	1ryy	.	.	1ryy	.	.	1ryy	.	.
.	4dd- 4b-\	.	.	.	.	.	.	.	.	.	.	.	.	.	.	.	.	.	.	.	.	.	.
4An\	.	.	.	.	.	.	.	.	.	.	.	.	.	.	.	.	.	.	.	.	.	.	.
.	4dd- 4b-\	.	.	.	.	.	.	.	.	.	.	.	.	.	.	.	.	.	.	.	.	.	.
4B-\	.	.	.	.	.	4f/	gdzie	.	4b-\	gdzie	.	4dd-\	gdzie	.	.	.	.	.	.	.	.	.	.
.	4dd- 4b-\	.	.	.	.	.	.	.	.	.	.	.	.	.	.	.	.	.	.	.	.	.	.
4F-X\)	.	.	.	.	.	4f-X/	mój	.	4b-\	mój	.	4dd-\	mój	.	.	.	.	.	.	.	.	.	.
.	8dd- 8b-\	[[	.	.	.	.	.	.	.	.	.	.	.	.	.	.	.	.	.	.	.	.	.
=34	=34	=34	=34	=34	=34	=34	=34	=34	=34	=34	=34	=34	=34	=34	=34	=34	=34	=34	=34	=34	=34	=34	=34
*^	*	*	*	*	*	*	*	*	*	*	*	*	*	*	*	*	*	*	*	*	*	*	*
(4E-/	2E-\	8cc 8a-\	.	1ryy	.	.	2.e-/	lu-	.	2.a-/	lu-	.	2.cc\	lu-	.	1ryy	.	.	1ryy	.	.	1ryy	.	.
.	.	4cc 4a-\	.	.	.	.	.	.	.	.	.	.	.	.	.	.	.	.	.	.	.	.	.	.
4A-X/	.	.	.	.	.	.	.	.	.	.	.	.	.	.	.	.	.	.	.	.	.	.	.	.
.	.	4cc 4a-\	.	.	.	.	.	.	.	.	.	.	.	.	.	.	.	.	.	.	.	.	.	.
4G/	2ryy	.	.	.	.	.	.	.	.	.	.	.	.	.	.	.	.	.	.	.	.	.	.	.
.	.	4cc 4a-\	.	.	.	.	.	.	.	.	.	.	.	.	.	.	.	.	.	.	.	.	.	.
4F/)	.	.	.	.	.	.	4e-/	-by	.	4a-/	-by	.	4cc\	-by	.	.	.	.	.	.	.	.	.	.
.	.	8cc 8a-\	.	.	.	.	.	.	.	.	.	.	.	.	.	.	.	.	.	.	.	.	.	.
*v	*v	*	*	*	*	*	*	*	*	*	*	*	*	*	*	*	*	*	*	*	*	*	*	*
=35	=35	=35	=35	=35	=35	=35	=35	=35	=35	=35	=35	=35	=35	=35	=35	=35	=35	=35	=35	=35	=35	=35	=35
(4E-\	8b- 8a- 8e-^/	.	1ryy	.	.	[2e-/	zos-	.	(2a-/	zos-	.	[2b-\	zos-	.	1ryy	.	.	1ryy	.	.	1ryy	.	.
.	4b- 4a- 4e-/	.	.	.	.	.	.	.	.	.	.	.	.	.	.	.	.	.	.	.	.	.	.
4Dn\	.	.	.	.	.	.	.	.	.	.	.	.	.	.	.	.	.	.	.	.	.	.	.
.	8b- 8a- 8e-/	.	.	.	.	.	.	.	.	.	.	.	.	.	.	.	.	.	.	.	.	.	.
4E-\	8b- 8g 8e-^/	.	.	.	.	4e-/]	.	.	4g/)	.	.	4b-\]	.	.	.	.	.	.	.	.	.	.	.
.	4b- 4g 4e-/	.	.	.	.	.	.	.	.	.	.	.	.	.	.	.	.	.	.	.	.	.	.
4EE-/)	.	.	.	.	.	4e-/	-tał	.	4a-/	-tał	.	4b-\	-tał	.	.	.	.	.	.	.	.	.	.
.	8b- 8g 8e-/	.	.	.	.	.	.	.	.	.	.	.	.	.	.	.	.	.	.	.	.	.	.
=36	=36	=36	=36	=36	=36	=36	=36	=36	=36	=36	=36	=36	=36	=36	=36	=36	=36	=36	=36	=36	=36	=36	=36
4AA-/	8cc 8c/	.	1ryy	.	.	2A-/	sam!	.	2a-/	sam!	.	2a-\	sam!	.	1ryy	.	.	1ryy	.	.	1ryy	.	.
.	4cc 4e-/	.	.	.	.	.	.	.	.	.	.	.	.	.	.	.	.	.	.	.	.	.	.
4A-\	.	.	.	.	.	.	.	.	.	.	.	.	.	.	.	.	.	.	.	.	.	.	.
.	8cc 8e-/	.	.	.	.	.	.	.	.	.	.	.	.	.	.	.	.	.	.	.	.	.	.
!	!	!	!	!	!	!LO:TX:a:t=SOLO	!	!	!	!	!	!	!	!	!	!	!	!	!	!	!	!	!
4AA-/	8r	.	.	.	.	(6cc\	Gdzie	.	2r	.	.	2r	.	.	.	.	.	.	.	.	.	.	.
.	8bn 8dn/	.	.	.	.	.	.	.	.	.	.	.	.	.	.	.	.	.	.	.	.	.	.
.	.	.	.	.	.	6bn\)	.	.	.	.	.	.	.	.	.	.	.	.	.	.	.	.	.
4A-\	8r	.	.	.	.	.	.	.	.	.	.	.	.	.	.	.	.	.	.	.	.	.	.
.	.	.	.	.	.	6b-X\	mój	.	.	.	.	.	.	.	.	.	.	.	.	.	.	.	.
.	8b-X 8d-X/	.	.	.	.	.	.	.	.	.	.	.	.	.	.	.	.	.	.	.	.	.	.
=37	=37	=37	=37	=37	=37	=37	=37	=37	=37	=37	=37	=37	=37	=37	=37	=37	=37	=37	=37	=37	=37	=37	=37
4AA-/	8a- 8c/	.	1ryy	.	.	4cc\	lu-	.	2r	.	.	2r	.	.	1ryy	.	.	1ryy	.	.	1ryy	.	.
.	4ee- 4cc\	>	.	.	.	.	.	.	.	.	.	.	.	.	.	.	.	.	.	.	.	.	.
4A-\	.	.	.	.	.	4ee-\	-by	.	.	.	.	.	.	.	.	.	.	.	.	.	.	.	.
.	8ee- 8cc\	.	.	.	.	.	.	.	.	.	.	.	.	.	.	.	.	.	.	.	.	.	.
4G\	8r	.	.	.	.	4dd-X\	zos-	.	4r	.	.	4r	.	.	.	.	.	.	.	.	.	.	.
.	8dd-X 8b-\	]	.	.	.	.	.	.	.	.	.	.	.	.	.	.	.	.	.	.	.	.	.
4A-\	8r	.	.	.	.	4cc\	-tał	.	8cc\	Nad	.	8cc\	Nad	.	.	.	.	.	.	.	.	.	.
.	8cc 8a-\	.	.	.	.	.	.	.	8cc\	brze-	.	8cc\	brze-	.	.	.	.	.	.	.	.	.	.
=38	=38	=38	=38	=38	=38	=38	=38	=38	=38	=38	=38	=38	=38	=38	=38	=38	=38	=38	=38	=38	=38	=38	=38
!	!	!	!	!	!	!	!	!	!	!	!LO:DY:a	!	!	!LO:DY:a	!	!	!	!	!	!	!	!	!
4G 4GG\	8een 8cc 8b-\	f	1ryy	.	.	4a-\	sam!	.	4.cc\	-ga-	f	2.een\	-ga-	f	1ryy	.	.	1ryy	.	.	1ryy	.	.
.	4ee 4cc 4b-\	.	.	.	.	.	.	.	.	.	.	.	.	.	.	.	.	.	.	.	.	.	.
!	!	!	!	!	!	!LO:TX:a:t=CHÓR	!	!	!	!	!	!	!	!	!	!	!	!	!	!	!	!	!
4B- 4BB-\	.	.	.	.	.	4b-\	Dziś	.	.	.	.	.	.	.	.	.	.	.	.	.	.	.	.
.	4ee 4cc 4b-\	.	.	.	.	.	.	.	4.ryy	.	.	.	.	.	.	.	.	.	.	.	.	.	.
4A- 4AA-\	.	.	.	.	.	4a-\	nad	.	.	.	.	.	.	.	.	.	.	.	.	.	.	.	.
.	4ee 4cc 4b-\	.	.	.	.	.	.	.	.	.	.	.	.	.	.	.	.	.	.	.	.	.	.
4G 4GG\	.	.	.	.	.	4g/	brze-	.	4b-\	-mi	.	4ee\	-mi	.	.	.	.	.	.	.	.	.	.
.	8ee 8cc 8b-\	.	.	.	.	.	.	.	.	.	.	.	.	.	.	.	.	.	.	.	.	.	.
=39	=39	=39	=39	=39	=39	=39	=39	=39	=39	=39	=39	=39	=39	=39	=39	=39	=39	=39	=39	=39	=39	=39	=39
4F 4FF\	8ff 8cc 8a-\	.	1ryy	.	.	4f/	-ga-	.	(2a-/	ob-	.	(4ff\	ob-	.	1ryy	.	.	1ryy	.	.	1ryy	.	.
.	4ff 4cc 4a-\	.	.	.	.	.	.	.	.	.	.	.	.	.	.	.	.	.	.	.	.	.	.
4A- 4AA-\	.	.	.	.	.	4A-/	-mi	.	.	.	.	4cc\	.	.	.	.	.	.	.	.	.	.	.
.	4cc 4a-\	.	.	.	.	.	.	.	.	.	.	.	.	.	.	.	.	.	.	.	.	.	.
4B- 4BB-\	.	.	.	.	.	4B-/	ob-	.	4g/)	.	.	4b-\)	.	.	.	.	.	.	.	.	.	.	.
.	4b- 4g\	.	.	.	.	.	.	.	.	.	.	.	.	.	.	.	.	.	.	.	.	.	.
4Bn 4BBn\	.	.	.	.	.	4Bn^/	-céj	.	4f^/	-céj	.	4a-^/	-céj	.	.	.	.	.	.	.	.	.	.
.	8a- 8f\	.	.	.	.	.	.	.	.	.	.	.	.	.	.	.	.	.	.	.	.	.	.
=40	=40	=40	=40	=40	=40	=40	=40	=40	=40	=40	=40	=40	=40	=40	=40	=40	=40	=40	=40	=40	=40	=40	=40
!	!	!	!LO:TX:a:t=WOJC	!	!	!	!	!	!	!	!	!	!	!	!	!	!	!	!	!	!	!	!
4c 4C\	4cc 4en/	.	2r	.	.	2c/	rze-	.	2en/	rze-	.	2g/	rze-	.	1ryy	.	.	1ryy	.	.	2r	.	.
4r	4r	.	.	.	.	.	.	.	.	.	.	.	.	.	.	.	.	.	.	.	.	.	.
!	!	!	!	!	!	!	!	!	!	!	!	!	!	!	!	!	!	!	!	!	!LO:TX:a:t=SOLO DĄB.	!	!
(16C/LL	(16c/LL	f	4.c\	Lud	.	4c/	-ki	.	4e/	-ki	.	4g/	-ki	.	.	.	.	.	.	.	4.cc\	Lud	.
16BBn/	16Bn/	.	.	.	.	.	.	.	.	.	.	.	.	.	.	.	.	.	.	.	.	.	.
16C/	16c/	.	.	.	.	.	.	.	.	.	.	.	.	.	.	.	.	.	.	.	.	.	.
16D-/JJ	16d-/JJ	.	.	.	.	.	.	.	.	.	.	.	.	.	.	.	.	.	.	.	.	.	.
4C/)	4c/)	.	.	.	.	4r	.	.	4r	.	.	4r	.	.	.	.	.	.	.	.	.	.	.
.	.	.	8c\	od	.	.	.	.	.	.	.	.	.	.	.	.	.	.	.	.	8cc\	od	.
=41	=41	=41	=41	=41	=41	=41	=41	=41	=41	=41	=41	=41	=41	=41	=41	=41	=41	=41	=41	=41	=41	=41	=41
!	!	!	!	!	!	!	!	!	!	!	!	!	!	!	!	!	!	!	!	!	!	!	!LO:HP:a
(16C/LL	(16c/LL	.	2c\	bra-	.	2r	.	.	2r	.	.	2r	.	.	1ryy	.	.	1ryy	.	.	4cc\	bra-	<
16BBn/	16Bn/	.	.	.	.	.	.	.	.	.	.	.	.	.	.	.	.	.	.	.	.	.	.
16C/	16c/	.	.	.	.	.	.	.	.	.	.	.	.	.	.	.	.	.	.	.	.	.	.
16D-/JJ	16d-/JJ	.	.	.	.	.	.	.	.	.	.	.	.	.	.	.	.	.	.	.	.	.	.
4C/)	4c/)	.	.	.	.	.	.	.	.	.	.	.	.	.	.	.	.	.	.	.	4een\	-ci	.
(16C/LL	(16c/LL	.	4C/	-ci	.	4r	.	.	4r	.	.	4r	.	.	.	.	.	.	.	.	4gg\	swych	[
16BBn/	16Bn/	.	.	.	.	.	.	.	.	.	.	.	.	.	.	.	.	.	.	.	.	.	.
16C/	16c/	.	.	.	.	.	.	.	.	.	.	.	.	.	.	.	.	.	.	.	.	.	.
16D-/JJ	16d-/JJ	.	.	.	.	.	.	.	.	.	.	.	.	.	.	.	.	.	.	.	.	.	.
4C/)	4c/)	.	4r	.	.	4c^/	Lud	.	4cc^\	Lud	.	4cc^\	Lud	.	.	.	.	.	.	.	4ee\	da-	.
=42	=42	=42	=42	=42	=42	=42	=42	=42	=42	=42	=42	=42	=42	=42	=42	=42	=42	=42	=42	=42	=42	=42	=42
!	!	!	!	!	!	!	!	!LO:HP:a	!	!	!	!	!	!	!	!	!	!	!	!	!	!	!
4G 4GG\	8een 8cc 8b-\	f	1r	.	.	4g/	od	<	4cc\	od	.	4een\	od	.	1ryy	.	.	1ryy	.	.	4cc\	-le-	.
.	4ee 4cc 4b-\	.	.	.	.	.	.	.	.	.	.	.	.	.	.	.	.	.	.	.	.	.	.
4B- 4BB-\	.	.	.	.	.	(4b-/	bra-	[	2cc\	bra-	.	2ee\	bra-	.	.	.	.	.	.	.	4cc\	-ki	.
.	4ee 4cc 4b-\	.	.	.	.	.	.	.	.	.	.	.	.	.	.	.	.	.	.	.	.	.	.
4A- 4AA-\	.	.	.	.	.	4a-/)	.	.	.	.	.	.	.	.	.	.	.	.	.	.	2r	.	.
.	4ee 4cc 4b-\	.	.	.	.	.	.	.	.	.	.	.	.	.	.	.	.	.	.	.	.	.	.
4G 4GG\	.	.	.	.	.	4g/	-ci	.	4b-\	-ci	.	4ee\	-ci	.	.	.	.	.	.	.	.	.	.
.	8ee 8cc 8b-\	.	.	.	.	.	.	.	.	.	.	.	.	.	.	.	.	.	.	.	.	.	.
=43	=43	=43	=43	=43	=43	=43	=43	=43	=43	=43	=43	=43	=43	=43	=43	=43	=43	=43	=43	=43	=43	=43	=43
4F 4FF\	8ff 8cc 8a-\	.	1r	.	.	(4f/	swych	.	(2a-/	swych	.	(4ff\	swych	.	1ryy	.	.	1ryy	.	.	2r	.	.
.	4ff 4cc 4a-\	>	.	.	.	.	.	.	.	.	.	.	.	.	.	.	.	.	.	.	.	.	.
4A- 4AA-\	.	.	.	.	.	4A-/	.	.	.	.	.	4cc\	.	.	.	.	.	.	.	.	.	.	.
.	4cc 4a-\	.	.	.	.	.	.	.	.	.	.	.	.	.	.	.	.	.	.	.	.	.	.
4B- 4BB-\	.	.	.	.	.	4B-/)	.	.	4g/)	.	.	4b-\)	.	.	.	.	.	.	.	.	4r	.	.
.	4b- 4g/	.	.	.	.	.	.	.	.	.	.	.	.	.	.	.	.	.	.	.	.	.	.
4Bn 4BBn\	.	.	.	.	.	4Bn/	da-	.	4f/	da-	.	4a-/	da-	.	.	.	.	.	.	.	4a-/	Lud	.
.	8a- 8f/	]	.	.	.	.	.	.	.	.	.	.	.	.	.	.	.	.	.	.	.	.	.
=44	=44	=44	=44	=44	=44	=44	=44	=44	=44	=44	=44	=44	=44	=44	=44	=44	=44	=44	=44	=44	=44	=44	=44
!	!	!	!	!	!LO:DY:a	!	!	!LO:DY:a	!	!	!	!	!	!	!	!	!	!	!	!	!	!	!
4c 4C\	4cc 4en/	.	4r	.	f	2c/	-le-	f	2en/	-le-	.	[1g	-le-	.	1ryy	.	.	1ryy	.	.	2g/	od	.
4r	4r	.	4c\	od	.	.	.	.	.	.	.	.	.	.	.	.	.	.	.	.	.	.	.
(16C/LL	(16c/LL	f	4E-\	bra-	.	4.c/	-ki	.	4.cc\	-ki	.	.	.	.	.	.	.	.	.	.	4.cc\	bra-	.
16BBn/	16Bn/	.	.	.	.	.	.	.	.	.	.	.	.	.	.	.	.	.	.	.	.	.	.
16C/	16c/	.	.	.	.	.	.	.	.	.	.	.	.	.	.	.	.	.	.	.	.	.	.
16D-/JJ	16d-/JJ	.	.	.	.	.	.	.	.	.	.	.	.	.	.	.	.	.	.	.	.	.	.
4C/)	4c/)	.	4G\	-ci	.	.	.	.	.	.	.	.	.	.	.	.	.	.	.	.	.	.	.
.	.	.	.	.	.	8c/	da-	.	8cc\	da-	.	.	.	.	.	.	.	.	.	.	8ee-\	-ci	.
=45	=45	=45	=45	=45	=45	=45	=45	=45	=45	=45	=45	=45	=45	=45	=45	=45	=45	=45	=45	=45	=45	=45	=45
(16C/LL	(16c/LL	.	2.C/	swych	.	2c/	-le-	.	2cc\	-le-	.	2g/]	.	.	1ryy	.	.	1ryy	.	.	4gg\	bra-	.
16BBn/	16Bn/	.	.	.	.	.	.	.	.	.	.	.	.	.	.	.	.	.	.	.	.	.	.
16C/	16c/	.	.	.	.	.	.	.	.	.	.	.	.	.	.	.	.	.	.	.	.	.	.
16D-/JJ)	16d-/JJ)	.	.	.	.	.	.	.	.	.	.	.	.	.	.	.	.	.	.	.	.	.	.
4C/	4c/	.	.	.	.	.	.	.	.	.	.	.	.	.	.	.	.	.	.	.	4een\	-ci	.
(16C/LL	(16c/LL	.	.	.	.	4c/	-ki	.	4cc\	-ki	.	4e-/	-ki	.	.	.	.	.	.	.	4.cc\	swych	.
16BB/	16B/	.	.	.	.	.	.	.	.	.	.	.	.	.	.	.	.	.	.	.	.	.	.
16C/	16c/	.	.	.	.	.	.	.	.	.	.	.	.	.	.	.	.	.	.	.	.	.	.
16D-/JJ)	16d-/JJ)	.	.	.	.	.	.	.	.	.	.	.	.	.	.	.	.	.	.	.	.	.	.
4C/	4c/	.	4c\	da-	.	4r	.	.	4r	.	.	4r	.	.	.	.	.	.	.	.	.	.	.
.	.	.	.	.	.	.	.	.	.	.	.	.	.	.	.	.	.	.	.	.	8cc\	da-	.
=46	=46	=46	=46	=46	=46	=46	=46	=46	=46	=46	=46	=46	=46	=46	=46	=46	=46	=46	=46	=46	=46	=46	=46
*	*^	*	*	*	*	*	*	*	*	*	*	*	*	*	*	*	*	*	*	*	*	*	*
4F 4FF\	2dd-/	16dd-\LL	fp	4d-\	-le-	.	1r	.	.	1r	.	.	1r	.	.	1ryy	.	.	1ryy	.	.	2.dd-\	-le-	.
.	.	16f\	.	.	.	.	.	.	.	.	.	.	.	.	.	.	.	.	.	.	.	.	.	.
.	.	16a-\	.	.	.	.	.	.	.	.	.	.	.	.	.	.	.	.	.	.	.	.	.	.
.	.	16f\JJ	.	.	.	.	.	.	.	.	.	.	.	.	.	.	.	.	.	.	.	.	.	.
4r	.	16a-\LL	.	4D-\	-ki	.	.	.	.	.	.	.	.	.	.	.	.	.	.	.	.	.	.	.
.	.	16f\	.	.	.	.	.	.	.	.	.	.	.	.	.	.	.	.	.	.	.	.	.	.
.	.	16a-\	.	.	.	.	.	.	.	.	.	.	.	.	.	.	.	.	.	.	.	.	.	.
.	.	16f\JJ	.	.	.	.	.	.	.	.	.	.	.	.	.	.	.	.	.	.	.	.	.	.
4.d- 4.A- 4.F\	2ryy	16a-\LL	.	2r	.	.	.	.	.	.	.	.	.	.	.	.	.	.	.	.	.	.	.	.
.	.	16f\	.	.	.	.	.	.	.	.	.	.	.	.	.	.	.	.	.	.	.	.	.	.
.	.	16a-\	.	.	.	.	.	.	.	.	.	.	.	.	.	.	.	.	.	.	.	.	.	.
.	.	16f\JJ	.	.	.	.	.	.	.	.	.	.	.	.	.	.	.	.	.	.	.	.	.	.
.	.	16a-\LL	.	.	.	.	.	.	.	.	.	.	.	.	.	.	.	.	.	.	.	4dd-\	-ki	.
.	.	16f\	.	.	.	.	.	.	.	.	.	.	.	.	.	.	.	.	.	.	.	.	.	.
8d- 8A- 8F\	.	16a-\	.	.	.	.	.	.	.	.	.	.	.	.	.	.	.	.	.	.	.	.	.	.
.	.	16f\JJ	.	.	.	.	.	.	.	.	.	.	.	.	.	.	.	.	.	.	.	.	.	.
=47	=47	=47	=47	=47	=47	=47	=47	=47	=47	=47	=47	=47	=47	=47	=47	=47	=47	=47	=47	=47	=47	=47	=47	=47
4d- 4A- 4F\	2dd-/	16a-\LL	.	1r	.	.	1r	.	.	1r	.	.	1r	.	.	1ryy	.	.	1ryy	.	.	(8dd-\L	tęs-	.
.	.	16f\	.	.	.	.	.	.	.	.	.	.	.	.	.	.	.	.	.	.	.	.	.	.
.	.	16a-\	.	.	.	.	.	.	.	.	.	.	.	.	.	.	.	.	.	.	.	8een\	.	.
.	.	16f\JJ	.	.	.	.	.	.	.	.	.	.	.	.	.	.	.	.	.	.	.	.	.	.
!LO:TX:a:t=L.R.	!	!	!	!	!	!	!	!	!	!	!	!	!	!	!	!	!	!	!	!	!	!	!	!
16ddd->/LL	.	16a-\LL	.	.	.	.	.	.	.	.	.	.	.	.	.	.	.	.	.	.	.	8ff\	.	.
16eee->/	.	16f\	.	.	.	.	.	.	.	.	.	.	.	.	.	.	.	.	.	.	.	.	.	.
16fff>/	.	16a-\	.	.	.	.	.	.	.	.	.	.	.	.	.	.	.	.	.	.	.	8gg\J)	.	.
16ggg>/JJ	.	16f\JJ	.	.	.	.	.	.	.	.	.	.	.	.	.	.	.	.	.	.	.	.	.	.
4aaa->/	2ryy	16a-\LL	.	.	.	.	.	.	.	.	.	.	.	.	.	.	.	.	.	.	.	4aa-\	kni	.
.	.	16f\	.	.	.	.	.	.	.	.	.	.	.	.	.	.	.	.	.	.	.	.	.	.
.	.	16a-\	.	.	.	.	.	.	.	.	.	.	.	.	.	.	.	.	.	.	.	.	.	.
.	.	16f\JJ	.	.	.	.	.	.	.	.	.	.	.	.	.	.	.	.	.	.	.	.	.	.
4r	.	16a-\LL	.	.	.	.	.	.	.	.	.	.	.	.	.	.	.	.	.	.	.	8dd-\	do	.
.	.	16f\	.	.	.	.	.	.	.	.	.	.	.	.	.	.	.	.	.	.	.	.	.	.
.	.	16a-\	.	.	.	.	.	.	.	.	.	.	.	.	.	.	.	.	.	.	.	8dd-\	ro-	.
.	.	16f\JJ	.	.	.	.	.	.	.	.	.	.	.	.	.	.	.	.	.	.	.	.	.	.
=48	=48	=48	=48	=48	=48	=48	=48	=48	=48	=48	=48	=48	=48	=48	=48	=48	=48	=48	=48	=48	=48	=48	=48	=48
4E- 4EE-/	2ryy	16r	.	1r	.	.	1r	.	.	1r	.	.	1r	.	.	1ryy	.	.	1ryy	.	.	([2dd-\	-dzin-	.
.	.	16e-\LL	.	.	.	.	.	.	.	.	.	.	.	.	.	.	.	.	.	.	.	.	.	.
.	.	16gn\	.	.	.	.	.	.	.	.	.	.	.	.	.	.	.	.	.	.	.	.	.	.
.	.	16e-\JJ	.	.	.	.	.	.	.	.	.	.	.	.	.	.	.	.	.	.	.	.	.	.
4r	.	16g\LL	.	.	.	.	.	.	.	.	.	.	.	.	.	.	.	.	.	.	.	.	.	.
.	.	16e-\	.	.	.	.	.	.	.	.	.	.	.	.	.	.	.	.	.	.	.	.	.	.
.	.	16g\	.	.	.	.	.	.	.	.	.	.	.	.	.	.	.	.	.	.	.	.	.	.
.	.	16e-\JJ	.	.	.	.	.	.	.	.	.	.	.	.	.	.	.	.	.	.	.	.	.	.
4.E-\	2cc/	16cc\LL	.	.	.	.	.	.	.	.	.	.	.	.	.	.	.	.	.	.	.	8dd-\L]	.	.
.	.	16e-\	.	.	.	.	.	.	.	.	.	.	.	.	.	.	.	.	.	.	.	.	.	.
.	.	16g\	.	.	.	.	.	.	.	.	.	.	.	.	.	.	.	.	.	.	.	8cc\J	.	.
.	.	16e-\JJ	.	.	.	.	.	.	.	.	.	.	.	.	.	.	.	.	.	.	.	.	.	.
.	.	16g\LL	.	.	.	.	.	.	.	.	.	.	.	.	.	.	.	.	.	.	.	8ee-\)	.	.
.	.	16e-\	.	.	.	.	.	.	.	.	.	.	.	.	.	.	.	.	.	.	.	.	.	.
8G\	.	16g\	.	.	.	.	.	.	.	.	.	.	.	.	.	.	.	.	.	.	.	8dd-\	-nych	.
.	.	16e-\JJ	.	.	.	.	.	.	.	.	.	.	.	.	.	.	.	.	.	.	.	.	.	.
*	*v	*v	*	*	*	*	*	*	*	*	*	*	*	*	*	*	*	*	*	*	*	*	*	*
=49	=49	=49	=49	=49	=49	=49	=49	=49	=49	=49	=49	=49	=49	=49	=49	=49	=49	=49	=49	=49	=49	=49	=49
4c\	16g/LL	.	1r	.	.	1r	.	.	1r	.	.	1r	.	.	1ryy	.	.	1ryy	.	.	2cc\	pól;	.
.	16e-/	.	.	.	.	.	.	.	.	.	.	.	.	.	.	.	.	.	.	.	.	.	.
.	16g/	.	.	.	.	.	.	.	.	.	.	.	.	.	.	.	.	.	.	.	.	.	.
.	16e-/JJ	.	.	.	.	.	.	.	.	.	.	.	.	.	.	.	.	.	.	.	.	.	.
4r	16g/LL	.	.	.	.	.	.	.	.	.	.	.	.	.	.	.	.	.	.	.	.	.	.
.	16e-/	.	.	.	.	.	.	.	.	.	.	.	.	.	.	.	.	.	.	.	.	.	.
.	16g/	.	.	.	.	.	.	.	.	.	.	.	.	.	.	.	.	.	.	.	.	.	.
.	16e-/JJ	.	.	.	.	.	.	.	.	.	.	.	.	.	.	.	.	.	.	.	.	.	.
2r	16cc/LL	.	.	.	.	.	.	.	.	.	.	.	.	.	.	.	.	.	.	.	2r	.	.
.	16e-/	.	.	.	.	.	.	.	.	.	.	.	.	.	.	.	.	.	.	.	.	.	.
.	16g/	.	.	.	.	.	.	.	.	.	.	.	.	.	.	.	.	.	.	.	.	.	.
.	16e-/JJ	.	.	.	.	.	.	.	.	.	.	.	.	.	.	.	.	.	.	.	.	.	.
.	16g/LL	.	.	.	.	.	.	.	.	.	.	.	.	.	.	.	.	.	.	.	.	.	.
.	16e-/	.	.	.	.	.	.	.	.	.	.	.	.	.	.	.	.	.	.	.	.	.	.
.	16g/	.	.	.	.	.	.	.	.	.	.	.	.	.	.	.	.	.	.	.	.	.	.
.	16e-/JJ	.	.	.	.	.	.	.	.	.	.	.	.	.	.	.	.	.	.	.	.	.	.
=50	=50	=50	=50	=50	=50	=50	=50	=50	=50	=50	=50	=50	=50	=50	=50	=50	=50	=50	=50	=50	=50	=50	=50
*	*^	*	*	*	*	*	*	*	*	*	*	*	*	*	*	*	*	*	*	*	*	*	*
4DD-/	2b-/	16b-\LL	.	1r	.	.	1r	.	.	1r	.	.	1r	.	.	1ryy	.	.	1ryy	.	.	[2b-^\	Czas	.
.	.	16d-\	.	.	.	.	.	.	.	.	.	.	.	.	.	.	.	.	.	.	.	.	.	.
.	.	16f\	.	.	.	.	.	.	.	.	.	.	.	.	.	.	.	.	.	.	.	.	.	.
.	.	16d-\JJ	.	.	.	.	.	.	.	.	.	.	.	.	.	.	.	.	.	.	.	.	.	.
4r	.	16f\LL	.	.	.	.	.	.	.	.	.	.	.	.	.	.	.	.	.	.	.	.	.	.
.	.	16d-\	.	.	.	.	.	.	.	.	.	.	.	.	.	.	.	.	.	.	.	.	.	.
.	.	16f\	.	.	.	.	.	.	.	.	.	.	.	.	.	.	.	.	.	.	.	.	.	.
.	.	16d-\JJ	.	.	.	.	.	.	.	.	.	.	.	.	.	.	.	.	.	.	.	.	.	.
4.B- 4.F 4.D-\	2ryy	16f\LL	.	.	.	.	.	.	.	.	.	.	.	.	.	.	.	.	.	.	.	8b-\L]	.	.
.	.	16d-\	.	.	.	.	.	.	.	.	.	.	.	.	.	.	.	.	.	.	.	.	.	.
.	.	16f\	.	.	.	.	.	.	.	.	.	.	.	.	.	.	.	.	.	.	.	(8cc\	.	.
.	.	16d-\JJ	.	.	.	.	.	.	.	.	.	.	.	.	.	.	.	.	.	.	.	.	.	.
.	.	16f\LL	.	.	.	.	.	.	.	.	.	.	.	.	.	.	.	.	.	.	.	8dd-\J	.	.
.	.	16d-\	.	.	.	.	.	.	.	.	.	.	.	.	.	.	.	.	.	.	.	.	.	.
8B- 8F 8D-\	.	16f\	.	.	.	.	.	.	.	.	.	.	.	.	.	.	.	.	.	.	.	8ee-\)	u-	.
.	.	16d-\JJ	.	.	.	.	.	.	.	.	.	.	.	.	.	.	.	.	.	.	.	.	.	.
=51	=51	=51	=51	=51	=51	=51	=51	=51	=51	=51	=51	=51	=51	=51	=51	=51	=51	=51	=51	=51	=51	=51	=51	=51
4B- 4F 4D-\	2b-/	16f\LL	.	1r	.	.	1r	.	.	1r	.	.	1r	.	.	1ryy	.	.	1ryy	.	.	(8ff\L	-pły-	.
.	.	16d-\	.	.	.	.	.	.	.	.	.	.	.	.	.	.	.	.	.	.	.	.	.	.
.	.	16f\	.	.	.	.	.	.	.	.	.	.	.	.	.	.	.	.	.	.	.	8een\J)	.	.
.	.	16d-\JJ	.	.	.	.	.	.	.	.	.	.	.	.	.	.	.	.	.	.	.	.	.	.
!LO:TX:a:t=L.R.	!	!	!	!	!	!	!	!	!	!	!	!	!	!	!	!	!	!	!	!	!	!	!	!
16bb->/LL	.	16f\LL	.	.	.	.	.	.	.	.	.	.	.	.	.	.	.	.	.	.	.	(8gg\L	-wa	.
16ccc>/	.	16d-\	.	.	.	.	.	.	.	.	.	.	.	.	.	.	.	.	.	.	.	.	.	.
16ddd->/	.	16f\	.	.	.	.	.	.	.	.	.	.	.	.	.	.	.	.	.	.	.	8ff\J)	.	.
16eee->/JJ	.	16d-\JJ	.	.	.	.	.	.	.	.	.	.	.	.	.	.	.	.	.	.	.	.	.	.
!	!	!	!	!	!	!	!	!	!	!	!	!	!	!	!	!	!	!	!	!	!	!	!	!LO:HP:a
4fff>/	2ryy	16f\LL	.	.	.	.	.	.	.	.	.	.	.	.	.	.	.	.	.	.	.	(8ee-X\L	jak	>
.	.	16d-\	.	.	.	.	.	.	.	.	.	.	.	.	.	.	.	.	.	.	.	.	.	.
.	.	16f\	.	.	.	.	.	.	.	.	.	.	.	.	.	.	.	.	.	.	.	8dd-\J)	.	]
.	.	16d-\JJ	.	.	.	.	.	.	.	.	.	.	.	.	.	.	.	.	.	.	.	.	.	.
4r	.	16f\LL	.	.	.	.	.	.	.	.	.	.	.	.	.	.	.	.	.	.	.	(8cc\L	te	.
.	.	16d-\	.	.	.	.	.	.	.	.	.	.	.	.	.	.	.	.	.	.	.	.	.	.
.	.	16f\	.	.	.	.	.	.	.	.	.	.	.	.	.	.	.	.	.	.	.	8b-\J)	.	.
.	.	16d-\JJ	.	.	.	.	.	.	.	.	.	.	.	.	.	.	.	.	.	.	.	.	.	.
*	*v	*v	*	*	*	*	*	*	*	*	*	*	*	*	*	*	*	*	*	*	*	*	*	*
=52	=52	=52	=52	=52	=52	=52	=52	=52	=52	=52	=52	=52	=52	=52	=52	=52	=52	=52	=52	=52	=52	=52	=52
4CC/	16r	.	2r	.	.	1r	.	.	1r	.	.	1r	.	.	1ryy	.	.	1ryy	.	.	([2b-\	wo-	.
.	16e-/LL	.	.	.	.	.	.	.	.	.	.	.	.	.	.	.	.	.	.	.	.	.	.
.	16a-/	.	.	.	.	.	.	.	.	.	.	.	.	.	.	.	.	.	.	.	.	.	.
.	16e-/JJ	.	.	.	.	.	.	.	.	.	.	.	.	.	.	.	.	.	.	.	.	.	.
4r	16a-/LL	.	.	.	.	.	.	.	.	.	.	.	.	.	.	.	.	.	.	.	.	.	.
.	16e-/	.	.	.	.	.	.	.	.	.	.	.	.	.	.	.	.	.	.	.	.	.	.
.	16a-/	.	.	.	.	.	.	.	.	.	.	.	.	.	.	.	.	.	.	.	.	.	.
.	16e-/JJ	.	.	.	.	.	.	.	.	.	.	.	.	.	.	.	.	.	.	.	.	.	.
4.c 4.A- 4.E- 4.C^\	16a-/LL	.	4.c\	Tę-	.	.	.	.	.	.	.	.	.	.	.	.	.	.	.	.	8b-\L]	.	.
.	16e-/	.	.	.	.	.	.	.	.	.	.	.	.	.	.	.	.	.	.	.	.	.	.
.	16a-/	.	.	.	.	.	.	.	.	.	.	.	.	.	.	.	.	.	.	.	8g\	.	.
.	16e-/JJ	.	.	.	.	.	.	.	.	.	.	.	.	.	.	.	.	.	.	.	.	.	.
.	16a-/LL	.	.	.	.	.	.	.	.	.	.	.	.	.	.	.	.	.	.	.	8a-\	.	.
.	16e-/	.	.	.	.	.	.	.	.	.	.	.	.	.	.	.	.	.	.	.	.	.	.
8c 8A- 8E- 8C\	16a-/	.	8c\	-skni	.	.	.	.	.	.	.	.	.	.	.	.	.	.	.	.	8ff\J)	.	.
.	16e-/JJ	.	.	.	.	.	.	.	.	.	.	.	.	.	.	.	.	.	.	.	.	.	.
=53	=53	=53	=53	=53	=53	=53	=53	=53	=53	=53	=53	=53	=53	=53	=53	=53	=53	=53	=53	=53	=53	=53	=53
*	*^	*	*	*	*	*	*	*	*	*	*	*	*	*	*	*	*	*	*	*	*	*	*
[2c [2A- [2E- [2C\	2ee-/	16ee-\LL	.	4c\	do	.	1r	.	.	1r	.	.	1r	.	.	1ryy	.	.	1ryy	.	.	2ee-\	-dy	.
.	.	16e-\	.	.	.	.	.	.	.	.	.	.	.	.	.	.	.	.	.	.	.	.	.	.
.	.	16a-\	.	.	.	.	.	.	.	.	.	.	.	.	.	.	.	.	.	.	.	.	.	.
.	.	16e-\JJ	.	.	.	.	.	.	.	.	.	.	.	.	.	.	.	.	.	.	.	.	.	.
.	.	16a-\LL	.	4c\	ro-	.	.	.	.	.	.	.	.	.	.	.	.	.	.	.	.	.	.	.
.	.	16e-\	.	.	.	.	.	.	.	.	.	.	.	.	.	.	.	.	.	.	.	.	.	.
.	.	16a-\	.	.	.	.	.	.	.	.	.	.	.	.	.	.	.	.	.	.	.	.	.	.
.	.	16e-\JJ	.	.	.	.	.	.	.	.	.	.	.	.	.	.	.	.	.	.	.	.	.	.
4c] 4A-] 4E-] 4C\]	2ryy	16cc\LL	.	4.c\	-dzin-	.	.	.	.	.	.	.	.	.	.	.	.	.	.	.	.	4.cc\	jak	.
.	.	16e-\	.	.	.	.	.	.	.	.	.	.	.	.	.	.	.	.	.	.	.	.	.	.
.	.	16a-\	.	.	.	.	.	.	.	.	.	.	.	.	.	.	.	.	.	.	.	.	.	.
.	.	16e-\JJ	.	.	.	.	.	.	.	.	.	.	.	.	.	.	.	.	.	.	.	.	.	.
4r	.	16a-\LL	.	.	.	.	.	.	.	.	.	.	.	.	.	.	.	.	.	.	.	.	.	.
.	.	16e-\	.	.	.	.	.	.	.	.	.	.	.	.	.	.	.	.	.	.	.	.	.	.
.	.	16a-\	.	8c\	-nych	.	.	.	.	.	.	.	.	.	.	.	.	.	.	.	.	8a-\	te	.
.	.	16e-\JJ	.	.	.	.	.	.	.	.	.	.	.	.	.	.	.	.	.	.	.	.	.	.
*	*v	*v	*	*	*	*	*	*	*	*	*	*	*	*	*	*	*	*	*	*	*	*	*	*
=54	=54	=54	=54	=54	=54	=54	=54	=54	=54	=54	=54	=54	=54	=54	=54	=54	=54	=54	=54	=54	=54	=54	=54
8BB-\L	[2g^/	.	2B- 2E-\	pól;	.	1r	.	.	1r	.	.	1r	.	.	1ryy	.	.	1ryy	.	.	4g/	wo-	.
8e- 8d- 8B-\	.	.	.	.	.	.	.	.	.	.	.	.	.	.	.	.	.	.	.	.	.	.	.
8e- 8d- 8B-\	.	.	.	.	.	.	.	.	.	.	.	.	.	.	.	.	.	.	.	.	4e-/	-dy	.
8e-J 8d- 8B-\	.	.	.	.	.	.	.	.	.	.	.	.	.	.	.	.	.	.	.	.	.	.	.
4e- 4d- 4B-\	8g/L]	.	2r	.	.	.	.	.	.	.	.	.	.	.	.	.	.	.	.	.	2r	.	.
.	8a-'/	.	.	.	.	.	.	.	.	.	.	.	.	.	.	.	.	.	.	.	.	.	.
4r	8b-'/	.	.	.	.	.	.	.	.	.	.	.	.	.	.	.	.	.	.	.	.	.	.
.	8cc'/J	.	.	.	.	.	.	.	.	.	.	.	.	.	.	.	.	.	.	.	.	.	.
=55	=55	=55	=55	=55	=55	=55	=55	=55	=55	=55	=55	=55	=55	=55	=55	=55	=55	=55	=55	=55	=55	=55	=55
4e- 4d- 4B-\	8dd-'\L	.	1r	.	.	2r	.	.	2r	.	.	2r	.	.	1ryy	.	.	1ryy	.	.	1r	.	.
.	8ee-'\	.	.	.	.	.	.	.	.	.	.	.	.	.	.	.	.	.	.	.	.	.	.
4r	8ff'\	.	.	.	.	.	.	.	.	.	.	.	.	.	.	.	.	.	.	.	.	.	.
.	8gg'\J	.	.	.	.	.	.	.	.	.	.	.	.	.	.	.	.	.	.	.	.	.	.
4e- 4d- 4B-\	8aa-'\L	.	.	.	.	4e-/	Czas	.	4ee-\	Czas	.	4ee-\	Czas	.	.	.	.	.	.	.	.	.	.
.	8bb-'\	.	.	.	.	.	.	.	.	.	.	.	.	.	.	.	.	.	.	.	.	.	.
4r	8ccc'\	.	.	.	.	4e-/	u-	.	4ee-\	u-	.	4ee-\	u-	.	.	.	.	.	.	.	.	.	.
.	8ddd-'\J	.	.	.	.	.	.	.	.	.	.	.	.	.	.	.	.	.	.	.	.	.	.
=56	=56	=56	=56	=56	=56	=56	=56	=56	=56	=56	=56	=56	=56	=56	=56	=56	=56	=56	=56	=56	=56	=56	=56
8AA-\L	4eee-\	.	1r	.	.	4c^/	-pły-	.	4a-^/	-pły-	.	4ee-^\	-pły-	.	1ryy	.	.	1ryy	.	.	1r	.	.
8e- 8c 8A-\	.	.	.	.	.	.	.	.	.	.	.	.	.	.	.	.	.	.	.	.	.	.	.
8e- 8c 8A-\	[4a-/	.	.	.	.	4c/	-wa	.	4a-/	-wa	.	4ee-\	-wa	.	.	.	.	.	.	.	.	.	.
8e-J 8c 8A-\	.	.	.	.	.	.	.	.	.	.	.	.	.	.	.	.	.	.	.	.	.	.	.
4e- 4c 4A-\	8a-/L]	.	.	.	.	4.c/	jak	.	4.a-/	jak	.	4.ee-\	jak	.	.	.	.	.	.	.	.	.	.
.	8b-'/	.	.	.	.	.	.	.	.	.	.	.	.	.	.	.	.	.	.	.	.	.	.
4r	8cc'/	.	.	.	.	.	.	.	.	.	.	.	.	.	.	.	.	.	.	.	.	.	.
.	8dd-'/J	.	.	.	.	8c/	te	.	8a-/	te	.	8ee-\	te	.	.	.	.	.	.	.	.	.	.
=57	=57	=57	=57	=57	=57	=57	=57	=57	=57	=57	=57	=57	=57	=57	=57	=57	=57	=57	=57	=57	=57	=57	=57
4e- 4c 4A-\	8ee-'\L	.	1r	.	.	2.c/	wo-	.	2.a-/	wo-	.	2.ee-\	wo-	.	1ryy	.	.	1ryy	.	.	1r	.	.
.	8ff'\	.	.	.	.	.	.	.	.	.	.	.	.	.	.	.	.	.	.	.	.	.	.
4r	8gg'\	.	.	.	.	.	.	.	.	.	.	.	.	.	.	.	.	.	.	.	.	.	.
.	8aa-'\J	.	.	.	.	.	.	.	.	.	.	.	.	.	.	.	.	.	.	.	.	.	.
4e- 4c 4A-\	8bb-'\L	.	.	.	.	.	.	.	.	.	.	.	.	.	.	.	.	.	.	.	.	.	.
.	8ccc'\	.	.	.	.	.	.	.	.	.	.	.	.	.	.	.	.	.	.	.	.	.	.
4r	8ddd-'\	.	.	.	.	4c/	-dy	.	4a-/	-dy	.	4ee-\	-dy	.	.	.	.	.	.	.	.	.	.
.	8eee-'\J	.	.	.	.	.	.	.	.	.	.	.	.	.	.	.	.	.	.	.	.	.	.
=58	=58	=58	=58	=58	=58	=58	=58	=58	=58	=58	=58	=58	=58	=58	=58	=58	=58	=58	=58	=58	=58	=58	=58
8GG\L	4eeen\	.	1r	.	.	2.B-/	to-	.	2.g^/	to-	.	2.een\	to-	.	1ryy	.	.	1ryy	.	.	1r	.	.
8en 8c 8B- 8G\	.	.	.	.	.	.	.	.	.	.	.	.	.	.	.	.	.	.	.	.	.	.	.
8e 8c 8B- 8G\	[4g^/	.	.	.	.	.	.	.	.	.	.	.	.	.	.	.	.	.	.	.	.	.	.
8eJ 8c 8B- 8G\	.	.	.	.	.	.	.	.	.	.	.	.	.	.	.	.	.	.	.	.	.	.	.
4e 4c 4B- 4G\	8g/L]	.	.	.	.	.	.	.	.	.	.	.	.	.	.	.	.	.	.	.	.	.	.
.	8a-'/	.	.	.	.	.	.	.	.	.	.	.	.	.	.	.	.	.	.	.	.	.	.
4r	8b-'/	.	.	.	.	4G/	-cząc	.	4b-/	-cząc	.	4ee\	-cząc	.	.	.	.	.	.	.	.	.	.
.	8cc'/J	.	.	.	.	.	.	.	.	.	.	.	.	.	.	.	.	.	.	.	.	.	.
=59	=59	=59	=59	=59	=59	=59	=59	=59	=59	=59	=59	=59	=59	=59	=59	=59	=59	=59	=59	=59	=59	=59	=59
4en 4c 4B- 4G\	8dd-'\L	.	1r	.	.	4c/	nie-	.	4g^/	nie-	.	4een\	nie-	.	1ryy	.	.	1ryy	.	.	1r	.	.
.	8een'\	.	.	.	.	.	.	.	.	.	.	.	.	.	.	.	.	.	.	.	.	.	.
4r	8gg'\	.	.	.	.	4c/	-ba	.	4g/	-ba	.	4ee\	-ba	.	.	.	.	.	.	.	.	.	.
.	8aa-'\J	.	.	.	.	.	.	.	.	.	.	.	.	.	.	.	.	.	.	.	.	.	.
4e 4c 4B- 4G\	8bb-'\L	.	.	.	.	4.c/	i	.	4.g/	i	.	4.ee\	i	.	.	.	.	.	.	.	.	.	.
.	8ccc'\	.	.	.	.	.	.	.	.	.	.	.	.	.	.	.	.	.	.	.	.	.	.
4r	8ddd-'\	.	.	.	.	.	.	.	.	.	.	.	.	.	.	.	.	.	.	.	.	.	.
.	8eee-'\J	.	.	.	.	8c/	na-	.	8g/	na-	.	8ee\	na-	.	.	.	.	.	.	.	.	.	.
=60	=60	=60	=60	=60	=60	=60	=60	=60	=60	=60	=60	=60	=60	=60	=60	=60	=60	=60	=60	=60	=60	=60	=60
8FF\L	4fff\	.	2r	.	.	4A-/	-ro-	.	4f/	-ro-	.	4ff\	-ro-	.	1ryy	.	.	1ryy	.	.	1r	.	.
8c 8A-\	.	.	.	.	.	.	.	.	.	.	.	.	.	.	.	.	.	.	.	.	.	.	.
8c 8A-\	[4f/	.	.	.	.	4f/	-dy,	.	4f/	-dy,	.	4f/	-dy,	.	.	.	.	.	.	.	.	.	.
8cJ 8A-\	.	.	.	.	.	.	.	.	.	.	.	.	.	.	.	.	.	.	.	.	.	.	.
4c 4A-\	8f/L]	.	4.F\	Czas	.	4.f/	a	.	4.f/	a	.	4.ff\	a	.	.	.	.	.	.	.	.	.	.
.	(8a-/J	.	.	.	.	.	.	.	.	.	.	.	.	.	.	.	.	.	.	.	.	.	.
4r	8dd-\L	.	.	.	.	.	.	.	.	.	.	.	.	.	.	.	.	.	.	.	.	.	.
.	8cc\J)	.	8F\	u-	.	8f/	nie	.	8f/	nie	.	8ff\	nie	.	.	.	.	.	.	.	.	.	.
=61	=61	=61	=61	=61	=61	=61	=61	=61	=61	=61	=61	=61	=61	=61	=61	=61	=61	=61	=61	=61	=61	=61	=61
4f 4c 4A- 4F\	(8gg\L	.	4F\	-pły-	.	4f/	spło-	.	4f/	spło-	.	4ff\	spło-	.	1ryy	.	.	1ryy	.	.	1r	.	.
.	8ff\	.	.	.	.	.	.	.	.	.	.	.	.	.	.	.	.	.	.	.	.	.	.
4r	8bb-\	.	4F\	-wa	.	4f/	-nie	.	4f/	-nie	.	4ff\	-nie	.	.	.	.	.	.	.	.	.	.
.	8aa-\J	.	.	.	.	.	.	.	.	.	.	.	.	.	.	.	.	.	.	.	.	.	.
4f 4c 4A- 4F\	8ddd-\L	.	4.F\	jak	.	4.f/	ser-	.	4.f/	ser-	.	4.ff\	ser-	.	.	.	.	.	.	.	.	.	.
.	8ccc\	.	.	.	.	.	.	.	.	.	.	.	.	.	.	.	.	.	.	.	.	.	.
4r	8eeen\	.	.	.	.	.	.	.	.	.	.	.	.	.	.	.	.	.	.	.	.	.	.
.	8fff\J)	.	8A-\	te	.	8f/	-ca	.	8f/	-ca	.	8gg\	-ca	.	.	.	.	.	.	.	.	.	.
=62	=62	=62	=62	=62	=62	=62	=62	=62	=62	=62	=62	=62	=62	=62	=62	=62	=62	=62	=62	=62	=62	=62	=62
*	*8va	*	*	*	*	*	*	*	*	*	*	*	*	*	*	*	*	*	*	*	*	*	*
!	!	!	!	!	!LO:DY:a	!	!	!LO:DY:a	!	!	!LO:DY:a	!	!	!LO:DY:a	!	!	!	!	!	!	!	!	!
8BB-\L	[2ggg-X\	sf	2d- 2B-\	wo-	f	2.B-/	ból!	f	2.g-X/	ból!	f	2.gg-X\	ból!	f	1ryy	.	.	1ryy	.	.	1r	.	.
8g-X 8d- 8B-\	.	.	.	.	.	.	.	.	.	.	.	.	.	.	.	.	.	.	.	.	.	.	.
8g- 8d- 8B-\	.	.	.	.	.	.	.	.	.	.	.	.	.	.	.	.	.	.	.	.	.	.	.
8g-J 8d- 8B-\	.	.	.	.	.	.	.	.	.	.	.	.	.	.	.	.	.	.	.	.	.	.	.
4g- 4d- 4B-\	8ggg-\L]	.	4d- 4B-\	-dy,	.	.	.	.	.	.	.	.	.	.	.	.	.	.	.	.	.	.	.
.	(8fff\	.	.	.	.	.	.	.	.	.	.	.	.	.	.	.	.	.	.	.	.	.	.
4r	8ggg-\	.	4r	.	.	8.B-/	Czas	.	8.g-/	Czas	.	8.gg-\	Czas	.	.	.	.	.	.	.	.	.	.
.	8ddd-\J	.	.	.	.	.	.	.	.	.	.	.	.	.	.	.	.	.	.	.	.	.	.
.	.	.	.	.	.	16B-/	u-	.	16g-/	u-	.	16gg-\	u-	.	.	.	.	.	.	.	.	.	.
=63	=63	=63	=63	=63	=63	=63	=63	=63	=63	=63	=63	=63	=63	=63	=63	=63	=63	=63	=63	=63	=63	=63	=63
4c 4C\	8fff\L	.	1r	.	.	4c/	-pły-	.	4a-/	-pły-	.	4ff\	-pły-	.	1ryy	.	.	1ryy	.	.	2r	.	.
.	8ccc\	.	.	.	.	.	.	.	.	.	.	.	.	.	.	.	.	.	.	.	.	.	.
8r	8eeen\	.	.	.	.	4c/	-wa	.	4gn/	-wa	.	4een\	-wa	.	.	.	.	.	.	.	.	.	.
*clefG2	*	*	*	*	*	*	*	*	*	*	*	*	*	*	*	*	*	*	*	*	*	*	*
2b- 2gn 2c/	8ccc\J	.	.	.	.	.	.	.	.	.	.	.	.	.	.	.	.	.	.	.	.	.	.
.	8dddn\L	.	.	.	.	4c/	jak	.	4b-/	jak	.	4ddn\	jak	.	.	.	.	.	.	.	4r	.	.
.	8ccc\	.	.	.	.	.	.	.	.	.	.	.	.	.	.	.	.	.	.	.	.	.	.
!	!	!	!	!	!	!	!	!	!	!	!	!	!	!	!	!	!	!	!	!	!LO:TX:a:t=SOLO DAB.	!	!
.	8eee\	.	.	.	.	4B-/	te	.	4g/	te	.	4ee\	te	.	.	.	.	.	.	.	4cc\	Czas	.
8r	8ccc\J)	.	.	.	.	.	.	.	.	.	.	.	.	.	.	.	.	.	.	.	.	.	.
*	*X8va	*	*	*	*	*	*	*	*	*	*	*	*	*	*	*	*	*	*	*	*	*	*
=64	=64	=64	=64	=64	=64	=64	=64	=64	=64	=64	=64	=64	=64	=64	=64	=64	=64	=64	=64	=64	=64	=64	=64
!	!LO:TX:a:t=loco	!	!	!	!	!	!	!	!	!	!	!	!	!	!	!	!	!	!	!	!	!	!
8FL 8FF\	[2fff\	.	1r	.	.	2..An/	wo-	.	2cc\	wo-	.	(2ff\	wo-	.	1ryy	.	.	1ryy	.	.	2ff\	pły-	.
8f 8cn 8A-\	.	.	.	.	.	.	.	.	.	.	.	.	.	.	.	.	.	.	.	.	.	.	.
8f 8c 8A-\	.	.	.	.	.	.	.	.	.	.	.	.	.	.	.	.	.	.	.	.	.	.	.
!LO:TX:a:t=ten	!	!	!	!	!	!	!	!	!	!	!	!	!	!	!	!	!	!	!	!	!	!	!
8fJ 8c 8A-\	.	.	.	.	.	.	.	.	.	.	.	.	.	.	.	.	.	.	.	.	.	.	.
2f 2c 2A-\	(8fff\L]	.	.	.	.	.	.	.	4.f/	.	.	4.ee-X\)	.	.	.	.	.	.	.	.	4.cc\	-nie	.
.	8eee-X\	.	.	.	.	.	.	.	.	.	.	.	.	.	.	.	.	.	.	.	.	.	.
.	8ccc\	.	.	.	.	.	.	.	.	.	.	.	.	.	.	.	.	.	.	.	.	.	.
.	8aan\J)	.	.	.	.	8A/	-dy	.	8f/	-dy	.	8ee-\	-dy	.	.	.	.	.	.	.	8cc\	jak	.
=65	=65	=65	=65	=65	=65	=65	=65	=65	=65	=65	=65	=65	=65	=65	=65	=65	=65	=65	=65	=65	=65	=65	=65
!	!	!	!	!	!	!LO:N:vis=4.	!	!	!	!	!	!LO:N:vis=4	!	!	!	!	!	!	!	!	!	!	!
8B-\L	(8ddd-\L	.	1r	.	.	2.B-/	to-	.	2.f/	to-	.	(2dd-X\	to-	.	1ryy	.	.	1ryy	.	.	4dd-\	wo-	.
8f 8d- 8B-\	8ff\	.	.	.	.	.	.	.	.	.	.	.	.	.	.	.	.	.	.	.	.	.	.
8f 8d- 8B-\	8fff\	.	.	.	.	.	.	.	.	.	.	.	.	.	.	.	.	.	.	.	4ff\	-dy	.
8fJ 8d- 8B-\	8ff\J	.	.	.	.	.	.	.	.	.	.	.	.	.	.	.	.	.	.	.	.	.	.
4f 4d- 4B-\	8eee-\L	.	.	.	.	.	.	.	.	.	.	4cc\)	.	.	.	.	.	.	.	.	4ee-\	to-	.
.	8ff\	.	.	.	.	.	.	.	.	.	.	.	.	.	.	.	.	.	.	.	.	.	.
4r	8ddd-\	.	.	.	.	4B-/	-cząc	.	4b-\	-cząc	.	4dd-\	-cząc	.	.	.	.	.	.	.	4dd-\	-cząc	.
.	8ff\J)	.	.	.	.	.	.	.	.	.	.	.	.	.	.	.	.	.	.	.	.	.	.
=66	=66	=66	=66	=66	=66	=66	=66	=66	=66	=66	=66	=66	=66	=66	=66	=66	=66	=66	=66	=66	=66	=66	=66
!	!	!	!	!	!	!	!	!	!	!	!	!	!	!	!	!	!	!	!	!	!	!	!LO:HP:a
8C\L	[2ccc\	.	1r	.	.	2.c/	nie-	.	2.a-/	nie-	.	2.cc\	nie-	.	1ryy	.	.	1ryy	.	.	4cc\	nie-	<
8f 8c 8A-\	.	.	.	.	.	.	.	.	.	.	.	.	.	.	.	.	.	.	.	.	.	.	.
8f 8c 8A-\	.	.	.	.	.	.	.	.	.	.	.	.	.	.	.	.	.	.	.	.	4ff\	-ba	.
8fJ 8c 8A-\	.	.	.	.	.	.	.	.	.	.	.	.	.	.	.	.	.	.	.	.	.	.	.
!	!	!	!	!	!	!	!	!	!	!	!	!	!	!	!	!	!	!	!	!	!	!	!LO:HP:a
4f 4c 4A-\	8ccc\L]	.	.	.	.	.	.	.	.	.	.	.	.	.	.	.	.	.	.	.	4ee-\	i	[ >
.	8ff\	.	.	.	.	.	.	.	.	.	.	.	.	.	.	.	.	.	.	.	.	.	.
4f 4c 4A-\	8aa-\	.	.	.	.	4c/	-ba	.	4f/	-ba	.	4a-/	-ba	.	.	.	.	.	.	.	4dd-\	na-	]]
.	8ccc\J	.	.	.	.	.	.	.	.	.	.	.	.	.	.	.	.	.	.	.	.	.	.
=67	=67	=67	=67	=67	=67	=67	=67	=67	=67	=67	=67	=67	=67	=67	=67	=67	=67	=67	=67	=67	=67	=67	=67
4C\	8ccc\L	.	1r	.	.	4c/	i	.	4f/	i	.	4a-/	i	.	1ryy	.	.	1ryy	.	.	2.cc\	-ro-	.
.	8aa-\	.	.	.	.	.	.	.	.	.	.	.	.	.	.	.	.	.	.	.	.	.	.
4r	8ff\	.	.	.	.	4c/	na-	.	4f/	na-	.	4a-/	na-	.	.	.	.	.	.	.	.	.	.
.	8cc\J	.	.	.	.	.	.	.	.	.	.	.	.	.	.	.	.	.	.	.	.	.	.
4f 4c\	2ccc 2cc\	.	.	.	.	2c/	-ro-	.	(4f/	-ro-	.	2g/	-ro-	.	.	.	.	.	.	.	.	.	.
4en\	.	.	.	.	.	.	.	.	4en/)	.	.	.	.	.	.	.	.	.	.	.	4cc\	-dy	.
=68	=68	=68	=68	=68	=68	=68	=68	=68	=68	=68	=68	=68	=68	=68	=68	=68	=68	=68	=68	=68	=68	=68	=68
4F 4FF\	8ccc 8cc\	.	1r	.	.	2F/	-dy, 	.	2f/	-dy, 	.	2a-/	-dy, 	.	1ryy	.	.	1ryy	.	.	4a-/	a	.
.	4cc 4a-\	.	.	.	.	.	.	.	.	.	.	.	.	.	.	.	.	.	.	.	.	.	.
4F 4FF\	.	.	.	.	.	.	.	.	.	.	.	.	.	.	.	.	.	.	.	.	4aa-\	nie	.
.	4aa- 4cc 4a-^\	.	.	.	.	.	.	.	.	.	.	.	.	.	.	.	.	.	.	.	.	.	.
4G 4GG\	.	.	.	.	.	2r	.	.	2r	.	.	2r	.	.	.	.	.	.	.	.	4ggn\	spło-	.
.	4gg 4cc 4a-^\	.	.	.	.	.	.	.	.	.	.	.	.	.	.	.	.	.	.	.	.	.	.
4A- 4AA-\	.	.	.	.	.	.	.	.	.	.	.	.	.	.	.	.	.	.	.	.	4ff\	-nie	.
.	8ff 8cc 8a-^\	.	.	.	.	.	.	.	.	.	.	.	.	.	.	.	.	.	.	.	.	.	.
=69	=69	=69	=69	=69	=69	=69	=69	=69	=69	=69	=69	=69	=69	=69	=69	=69	=69	=69	=69	=69	=69	=69	=69
4B- 4BB-\	8ff 8a-\	.	1r	.	.	2r	.	.	2r	.	.	2r	.	.	1ryy	.	.	1ryy	.	.	4een\	ser-	.
.	4een 4g\	.	.	.	.	.	.	.	.	.	.	.	.	.	.	.	.	.	.	.	.	.	.
4B- 4BB-\	.	.	.	.	.	.	.	.	.	.	.	.	.	.	.	.	.	.	.	.	4ff\	-ca	.
.	4ff 4dd-X 4g\	.	.	.	.	.	.	.	.	.	.	.	.	.	.	.	.	.	.	.	.	.	.
!	!	!	!	!	!	!	!	!LO:DY:a	!	!	!LO:DY:a	!	!	!LO:DY:a	!	!	!	!	!	!	!	!	!LO:DY:a
4B- 4BB-\	.	.	.	.	.	4B-/	Czas	pp	4f/	Czas	pp	4g/	Czas	pp	.	.	.	.	.	.	2g/	ból!	pp
.	4g 4f/	.	.	.	.	.	.	.	.	.	.	.	.	.	.	.	.	.	.	.	.	.	.
4B- 4BB-\	.	.	.	.	.	4B-/	u-	.	4f/	u-	.	4g/	u-	.	.	.	.	.	.	.	.	.	.
.	8g 8f/	.	.	.	.	.	.	.	.	.	.	.	.	.	.	.	.	.	.	.	.	.	.
=70	=70	=70	=70	=70	=70	=70	=70	=70	=70	=70	=70	=70	=70	=70	=70	=70	=70	=70	=70	=70	=70	=70	=70
4B- 4BB-\	8g 8f/	.	1r	.	.	2.f/	-pły-	.	2.f/	-pły-	.	2.g/	-pły-	.	1ryy	.	.	1ryy	.	.	4g\	Czas	.
.	4g 4f/	.	.	.	.	.	.	.	.	.	.	.	.	.	.	.	.	.	.	.	.	.	.
4BB- 4BBB-/	.	.	.	.	.	.	.	.	.	.	.	.	.	.	.	.	.	.	.	.	4ff\	u-	.
.	4ff 4g 4f\	.	.	.	.	.	.	.	.	.	.	.	.	.	.	.	.	.	.	.	.	.	.
4C 4CC/	.	.	.	.	.	.	.	.	.	.	.	.	.	.	.	.	.	.	.	.	4ee-\	-pły-	.
.	4ee- 4g 4f\	.	.	.	.	.	.	.	.	.	.	.	.	.	.	.	.	.	.	.	.	.	.
4D- 4DD-/	.	.	.	.	.	4f/	-wa	.	4f/	-wa	.	4g/	-wa	.	.	.	.	.	.	.	4dd-\	-wa	.
.	8dd- 8g 8f\	.	.	.	.	.	.	.	.	.	.	.	.	.	.	.	.	.	.	.	.	.	.
=71	=71	=71	=71	=71	=71	=71	=71	=71	=71	=71	=71	=71	=71	=71	=71	=71	=71	=71	=71	=71	=71	=71	=71
4C 4CC/	8cc 8a- 8f/	.	1r	.	.	4f/	jak	.	4f/	jak	.	4a-/	jak	.	1ryy	.	.	1ryy	.	.	4cc\	jak	.
.	4cc 4a- 4f/	.	.	.	.	.	.	.	.	.	.	.	.	.	.	.	.	.	.	.	.	.	.
4c 4C\	.	.	.	.	.	4f/	te	.	4f/	te	.	4a-/	te	.	.	.	.	.	.	.	4cc\	te	.
.	8cc 8a- 8f/	.	.	.	.	.	.	.	.	.	.	.	.	.	.	.	.	.	.	.	.	.	.
4c 4C\	8cc 8g 8en/	.	.	.	.	4f/	wo-	.	4f/	wo-	.	4a-/	wo-	.	.	.	.	.	.	.	4ddn\	wo-	.
.	4cc 4g 4e/	.	.	.	.	.	.	.	.	.	.	.	.	.	.	.	.	.	.	.	.	.	.
4c 4C\	.	.	.	.	.	4g/	-dy	.	4g/	-dy	.	4g/	-dy	.	.	.	.	.	.	.	4een\	-dy	.
.	8cc 8g 8e/	.	.	.	.	.	.	.	.	.	.	.	.	.	.	.	.	.	.	.	.	.	.
=72	=72	=72	=72	=72	=72	=72	=72	=72	=72	=72	=72	=72	=72	=72	=72	=72	=72	=72	=72	=72	=72	=72	=72
!	!	!	!	!	!	!	!	!LO:HP:a	!	!	!LO:HP:a	!	!	!LO:HP:a	!	!	!	!	!	!	!	!	!LO:HP:a
4F 4FF/	8cc 8a- 8f/	.	1r	.	.	4A-/	to-	<	4f/	to-	<	4cc\	to-	<	1ryy	.	.	1ryy	.	.	4ff\	to-	<
.	4cc 4a-\	.	.	.	.	.	.	.	.	.	.	.	.	.	.	.	.	.	.	.	.	.	.
4F 4FF/	.	.	.	.	.	4f 4F/	-cząc	.	4a-/	-cząc	.	4cc\	-cząc	.	.	.	.	.	.	.	4aa-\	-cząc	.
.	4aa- 4cc 4a-^\	.	.	.	.	.	.	.	.	.	.	.	.	.	.	.	.	.	.	.	.	.	.
!	!	!	!	!	!	!	!	!LO:HP:a	!	!	!LO:HP:a	!	!	!LO:HP:a	!	!	!	!	!	!	!	!	!LO:HP:a
4G 4GG\	.	.	.	.	.	4g 4G/	nie-	[ >	4b-\	nie-	[ >	4een\	nie-	[ >	.	.	.	.	.	.	4gg\	nie-	[ >
.	4gg 4cc 4a-^\	.	.	.	.	.	.	.	.	.	.	.	.	.	.	.	.	.	.	.	.	.	.
4A- 4AA-\	.	.	.	.	.	4a- 4A-/	-ba	]	4cc\	-ba	]	4ff\	-ba	]	.	.	.	.	.	.	4ff\	-ba	]
.	[8ff 8cc [8a-^\	.	.	.	.	.	.	.	.	.	.	.	.	.	.	.	.	.	.	.	.	.	.
=73	=73	=73	=73	=73	=73	=73	=73	=73	=73	=73	=73	=73	=73	=73	=73	=73	=73	=73	=73	=73	=73	=73	=73
4B- 4BB-\	8ff] 8a-\]	.	1r	.	.	2B-/	i	.	2g^/	i	.	4een\	i	.	1ryy	.	.	1ryy	.	.	4een\	i	.
.	4een 4g\	.	.	.	.	.	.	.	.	.	.	.	.	.	.	.	.	.	.	.	.	.	.
4B- 4BB-\	.	.	.	.	.	.	.	.	.	.	.	4ff\	na-	.	.	.	.	.	.	.	4ff\	na-	.
.	4ff 4dd- 4f\	.	.	.	.	.	.	.	.	.	.	.	.	.	.	.	.	.	.	.	.	.	.
4B- 4BB-\	.	.	.	.	.	4B-/	-zie-	.	4f/	-zie-	.	4g/	-ro-	.	.	.	.	.	.	.	[2g/	-ro-	.
.	4g 4f/	.	.	.	.	.	.	.	.	.	.	.	.	.	.	.	.	.	.	.	.	.	.
4B- 4BB-\	.	.	.	.	.	4B-/	-mie,	.	4f/	-mie,	.	4g/	-dy	.	.	.	.	.	.	.	.	.	.
.	8g 8f/	.	.	.	.	.	.	.	.	.	.	.	.	.	.	.	.	.	.	.	.	.	.
=74	=74	=74	=74	=74	=74	=74	=74	=74	=74	=74	=74	=74	=74	=74	=74	=74	=74	=74	=74	=74	=74	=74	=74
!	!	!	!	!	!	!	!	!LO:DY:a	!	!	!LO:DY:a	!	!	!LO:DY:a	!	!	!	!	!	!	!	!	!
4B- 4BB-\	4g 4f/	p	1r	.	.	4.B-/	A	p	4.d-/	A	p	4.f/	A	p	1ryy	.	.	1ryy	.	.	4g/]	.	.
4B- 4BB-\	2g 2f/	.	.	.	.	.	.	.	.	.	.	.	.	.	.	.	.	.	.	.	(16a-/LL	-dy,	.
.	.	.	.	.	.	.	.	.	.	.	.	.	.	.	.	.	.	.	.	.	16b-/JJ)	.	.
.	.	.	.	.	.	8B-/	nie	.	8d-/	nie	.	8f/	nie	.	.	.	.	.	.	.	8cc^\	A	.
4c 4C\	.	.	.	.	.	2B-/	spło-	.	(4d-/	spło-	.	(4f/	spło-	.	.	.	.	.	.	.	(8dd-\L	nie	.
.	.	.	.	.	.	.	.	.	.	.	.	.	.	.	.	.	.	.	.	.	8ff\	.	.
4d- 4D-\	4g 4f/	.	.	.	.	.	.	.	4f/)	.	.	4g/)	.	.	.	.	.	.	.	.	8ee-\J)	.	.
.	.	.	.	.	.	.	.	.	.	.	.	.	.	.	.	.	.	.	.	.	8dd-\	spło-	.
=75	=75	=75	=75	=75	=75	=75	=75	=75	=75	=75	=75	=75	=75	=75	=75	=75	=75	=75	=75	=75	=75	=75	=75
*	*	*	*	*	*	*	*	*	*	*	*	*	*	*	*	*	*	*	*	*	*^	*	*
4C\	8cc 8a- 8f/	.	1r	.	.	2c/	-nie	.	2f/	-nie	.	2a-/	-nie	.	1ryy	.	.	1ryy	.	.	2cc\	2ryy	-nie	.
.	4cc 4a- 4f/	.	.	.	.	.	.	.	.	.	.	.	.	.	.	.	.	.	.	.	.	.	.	.
4c\	.	.	.	.	.	.	.	.	.	.	.	.	.	.	.	.	.	.	.	.	.	.	.	.
.	4cc 4a- 4f/	.	.	.	.	.	.	.	.	.	.	.	.	.	.	.	.	.	.	.	.	.	.	.
4C\	.	.	.	.	.	4c/	ser-	.	4f/	ser-	.	4g/	ser-	.	.	.	.	.	.	.	(8dd-/L	4cc\	ser-	.
.	4cc 4g 4en/	.	.	.	.	.	.	.	.	.	.	.	.	.	.	.	.	.	.	.	8cc/)	.	.	.
4c\	.	.	.	.	.	4c/	-ca	.	4en/	-ca	.	4g/	-ca	.	.	.	.	.	.	.	(8aa-/	4cc\	-ca	.
.	8cc 8b- 8e/	.	.	.	.	.	.	.	.	.	.	.	.	.	.	.	.	.	.	.	8gg/J)	.	.	.
=76	=76	=76	=76	=76	=76	=76	=76	=76	=76	=76	=76	=76	=76	=76	=76	=76	=76	=76	=76	=76	=76	=76	=76	=76
4FF/	8ff 8an 8f\	fp	1r	.	.	2F/	ból	.	2f/	ból	.	2f/	ból	.	1ryy	.	.	1ryy	.	.	2ff/	2f\	ból	.
.	4cc 4a 4f\	.	.	.	.	.	.	.	.	.	.	.	.	.	.	.	.	.	.	.	.	.	.	.
4AAn/	.	.	.	.	.	.	.	.	.	.	.	.	.	.	.	.	.	.	.	.	.	.	.	.
.	4cc 4a\	.	.	.	.	.	.	.	.	.	.	.	.	.	.	.	.	.	.	.	.	.	.	.
4C/	.	.	.	.	.	2r	.	.	2r	.	.	2r	.	.	.	.	.	.	.	.	2r	2ryy	.	.
.	4cc 4a\	.	.	.	.	.	.	.	.	.	.	.	.	.	.	.	.	.	.	.	.	.	.	.
4F\	.	.	.	.	.	.	.	.	.	.	.	.	.	.	.	.	.	.	.	.	.	.	.	.
.	[8cc [8a\	.	.	.	.	.	.	.	.	.	.	.	.	.	.	.	.	.	.	.	.	.	.	.
*	*	*	*	*	*	*	*	*	*	*	*	*	*	*	*	*	*	*	*	*	*v	*v	*	*
=77	=77	=77	=77	=77	=77	=77	=77	=77	=77	=77	=77	=77	=77	=77	=77	=77	=77	=77	=77	=77	=77	=77	=77
4An\	8cc] 8a\]	pp	1r	.	.	4r	.	.	4r	.	.	4r	.	.	1ryy	.	.	1ryy	.	.	1r	.	.
.	4cc 4an\	.	.	.	.	.	.	.	.	.	.	.	.	.	.	.	.	.	.	.	.	.	.
!	!	!	!	!	!	!	!	!LO:DY:a	!	!	!LO:DY:a	!	!	!LO:DY:a	!	!	!	!	!	!	!	!	!
4c\	.	.	.	.	.	4f/	To-	p	4an\	To-	p	4cc\	To-	p	.	.	.	.	.	.	.	.	.
.	4cc 4a\	.	.	.	.	.	.	.	.	.	.	.	.	.	.	.	.	.	.	.	.	.	.
(4en\	.	.	.	.	.	4en/	-cząc	.	4a\	-cząc	.	4cc\	-cząc	.	.	.	.	.	.	.	.	.	.
.	4cc 4a\	.	.	.	.	.	.	.	.	.	.	.	.	.	.	.	.	.	.	.	.	.	.
4f\)	.	.	.	.	.	4f/	nie-	.	4a\	nie-	.	4cc\	nie-	.	.	.	.	.	.	.	.	.	.
.	8cc 8a\	.	.	.	.	.	.	.	.	.	.	.	.	.	.	.	.	.	.	.	.	.	.
=78	=78	=78	=78	=78	=78	=78	=78	=78	=78	=78	=78	=78	=78	=78	=78	=78	=78	=78	=78	=78	=78	=78	=78
4FF/	8ddn 8b-\	.	1r	.	.	1f	-ba	.	1b-	-ba	.	1ddn	-ba	.	1ryy	.	.	1ryy	.	.	2r	.	.
.	4dd 4b-\	.	.	.	.	.	.	.	.	.	.	.	.	.	.	.	.	.	.	.	.	.	.
4BB-/	.	.	.	.	.	.	.	.	.	.	.	.	.	.	.	.	.	.	.	.	.	.	.
.	4dd 4b-\	.	.	.	.	.	.	.	.	.	.	.	.	.	.	.	.	.	.	.	.	.	.
!	!	!	!	!	!	!	!	!	!	!	!	!	!	!	!	!	!	!	!	!	!	!	!LO:DY:a
4Dn/	.	.	.	.	.	.	.	.	.	.	.	.	.	.	.	.	.	.	.	.	[2ff^\	A	p
.	4dd 4b-\	.	.	.	.	.	.	.	.	.	.	.	.	.	.	.	.	.	.	.	.	.	.
4F\	.	.	.	.	.	.	.	.	.	.	.	.	.	.	.	.	.	.	.	.	.	.	.
.	[8dd [8b-\	.	.	.	.	.	.	.	.	.	.	.	.	.	.	.	.	.	.	.	.	.	.
=79	=79	=79	=79	=79	=79	=79	=79	=79	=79	=79	=79	=79	=79	=79	=79	=79	=79	=79	=79	=79	=79	=79	=79
4B-\	8dd] 8b-\]	.	1r	.	.	2r	.	.	2r	.	.	2r	.	.	1ryy	.	.	1ryy	.	.	4.ff\]	.	.
.	4ddn 4b-\	.	.	.	.	.	.	.	.	.	.	.	.	.	.	.	.	.	.	.	.	.	.
4d-\	.	.	.	.	.	.	.	.	.	.	.	.	.	.	.	.	.	.	.	.	.	.	.
.	4dd 4b-\	.	.	.	.	.	.	.	.	.	.	.	.	.	.	.	.	.	.	.	8een\	nie	.
!	!	!	!	!	!	!	!	!LO:HP:a	!	!	!LO:HP:a	!	!	!LO:HP:a	!	!	!	!	!	!	!	!	!
(4en\	.	.	.	.	.	4en/	i	<	4b-\	i	<	4ddn\	i	<	.	.	.	.	.	.	(8ggn\L	spło-	<
.	4dd 4b-\	.	.	.	.	.	.	.	.	.	.	.	.	.	.	.	.	.	.	.	8ff\	.	.
4f\)	.	.	.	.	.	4f/	na-	[[	4b-\	na-	[[	4ee-\	na-	[[	.	.	.	.	.	.	8ee\	.	.
.	8dd 8b-\	.	.	.	.	.	.	.	.	.	.	.	.	.	.	.	.	.	.	.	8ddn\J)	.	[[
=80	=80	=80	=80	=80	=80	=80	=80	=80	=80	=80	=80	=80	=80	=80	=80	=80	=80	=80	=80	=80	=80	=80	=80
!	!LO:TX:b:t=sempre	!	!	!	!	!	!	!	!	!	!	!	!	!	!	!	!	!	!	!	!	!	!
4FF/	8ff 8an 8f\	.	1r	.	.	1f^	-ro-	.	1an	-ro-	.	1cc^	-ro-	.	1ryy	.	.	1ryy	.	.	2cc\	-nie	.
.	4cc 4a\	.	.	.	.	.	.	.	.	.	.	.	.	.	.	.	.	.	.	.	.	.	.
4AAn/	.	.	.	.	.	.	.	.	.	.	.	.	.	.	.	.	.	.	.	.	.	.	.
.	4cc 4a\	.	.	.	.	.	.	.	.	.	.	.	.	.	.	.	.	.	.	.	.	.	.
4C\	.	.	.	.	.	.	.	.	.	.	.	.	.	.	.	.	.	.	.	.	2r	.	.
.	4cc 4a\	p	.	.	.	.	.	.	.	.	.	.	.	.	.	.	.	.	.	.	.	.	.
4F\	.	.	.	.	.	.	.	.	.	.	.	.	.	.	.	.	.	.	.	.	.	.	.
.	[8cc [8a\	.	.	.	.	.	.	.	.	.	.	.	.	.	.	.	.	.	.	.	.	.	.
=81	=81	=81	=81	=81	=81	=81	=81	=81	=81	=81	=81	=81	=81	=81	=81	=81	=81	=81	=81	=81	=81	=81	=81
4An\	8cc] 8an\]	.	1r	.	.	2f/	-dy,	.	2an/	-dy,	.	2cc\	-dy,	.	1ryy	.	.	1ryy	.	.	2r	.	.
.	4cc 4a\	.	.	.	.	.	.	.	.	.	.	.	.	.	.	.	.	.	.	.	.	.	.
4c\	.	.	.	.	.	.	.	.	.	.	.	.	.	.	.	.	.	.	.	.	.	.	.
.	4cc 4a\	.	.	.	.	.	.	.	.	.	.	.	.	.	.	.	.	.	.	.	.	.	.
4en\	.	.	.	.	.	4.en/	A	.	4.a/	A	.	4.cc\	A	.	.	.	.	.	.	.	4.cc\	A	.
.	4cc 4a\	.	.	.	.	.	.	.	.	.	.	.	.	.	.	.	.	.	.	.	.	.	.
4f\	.	.	.	.	.	.	.	.	.	.	.	.	.	.	.	.	.	.	.	.	.	.	.
.	8cc 8a\	.	.	.	.	8f/	nie	.	8a/	nie	.	8dd-\	nie	.	.	.	.	.	.	.	8cc\	nie	.
=82	=82	=82	=82	=82	=82	=82	=82	=82	=82	=82	=82	=82	=82	=82	=82	=82	=82	=82	=82	=82	=82	=82	=82
*^	*	*	*	*	*	*	*	*	*	*	*	*	*	*	*	*	*	*	*	*	*	*	*
!	!	!	!	!	!	!	!	!	!LO:DY:a	!	!	!	!	!	!LO:DY:a	!	!	!	!	!	!	!	!	!
4FF/	1FF	8een 8b- 8g\	.	1r	.	.	4g/	spło-	pp	2.b-\	spło-	.	2.een\	spło-	pp	1ryy	.	.	1ryy	.	.	(8cc\L	spło-	.
.	.	4ee 4b- 4g\	.	.	.	.	.	.	.	.	.	.	.	.	.	.	.	.	.	.	.	8bb-\	.	.
4BB-/	.	.	.	.	.	.	4b-/	.	.	.	.	.	.	.	.	.	.	.	.	.	.	8gg\	.	.
.	.	4ee 4b- 4g\	.	.	.	.	.	.	.	.	.	.	.	.	.	.	.	.	.	.	.	8een\J	.	.
4D-X/	.	.	.	.	.	.	4an/	.	.	.	.	.	.	.	.	.	.	.	.	.	.	8cc/L	.	.
.	.	4ee 4b- 4g\	.	.	.	.	.	.	.	.	.	.	.	.	.	.	.	.	.	.	.	8b-/	.	.
4En/	.	.	.	.	.	.	4g/	-nie	.	4b-\	-nie	.	4ee\	-nie	.	.	.	.	.	.	.	8g/J)	.	.
.	.	8ee 8b- 8g\	.	.	.	.	.	.	.	.	.	.	.	.	.	.	.	.	.	.	.	8en/	-nie	.
=83	=83	=83	=83	=83	=83	=83	=83	=83	=83	=83	=83	=83	=83	=83	=83	=83	=83	=83	=83	=83	=83	=83	=83	=83
!	!	!	!	!	!	!	!LO:TX:a:t=ritard.	!	!	!LO:TX:a:t=ritard.	!	!	!LO:TX:a:t=ritard.	!	!	!	!	!	!	!	!	!LO:TX:a:t=ritard	!	!
4G/	1F	8een 8b- 8g\	.	1r	.	.	2.g/	ser-	.	2.b-\	ser-	.	2.een\	ser-	.	1ryy	.	.	1ryy	.	.	4.dd-X\	wiecz-	.
!	!	!LO:TX:b:t=ritard.	!	!	!	!	!	!	!	!	!	!	!	!	!	!	!	!	!	!	!	!	!	!
.	.	4ee 4b- 4g\	.	.	.	.	.	.	.	.	.	.	.	.	.	.	.	.	.	.	.	.	.	.
4B-/	.	.	.	.	.	.	.	.	.	.	.	.	.	.	.	.	.	.	.	.	.	.	.	.
.	.	4ee 4b- 4g\	.	.	.	.	.	.	.	.	.	.	.	.	.	.	.	.	.	.	.	8cc\	-ny	.
4d-/	.	.	.	.	.	.	.	.	.	.	.	.	.	.	.	.	.	.	.	.	.	4.aan\	ser-	.
.	.	4ee 4b- 4g\	.	.	.	.	.	.	.	.	.	.	.	.	.	.	.	.	.	.	.	.	.	.
4en/	.	.	.	.	.	.	4c/	-ca	.	4b-\	-ca	.	4ee\	-ca	.	.	.	.	.	.	.	.	.	.
.	.	8ee 8b- 8g\	.	.	.	.	.	.	.	.	.	.	.	.	.	.	.	.	.	.	.	8gg\	-ca	.
*v	*v	*	*	*	*	*	*	*	*	*	*	*	*	*	*	*	*	*	*	*	*	*	*	*
=84	=84	=84	=84	=84	=84	=84	=84	=84	=84	=84	=84	=84	=84	=84	=84	=84	=84	=84	=84	=84	=84	=84	=84
4FF/	8ff 8an 8f\	pp	1r	.	.	[1f	ból!	.	[1an	ból!	.	[1ff	ból!	.	1ryy	.	.	1ryy	.	.	[1ff	ból!	.
.	4ff 4a 4f\	.	.	.	.	.	.	.	.	.	.	.	.	.	.	.	.	.	.	.	.	.	.
4AAn/	.	.	.	.	.	.	.	.	.	.	.	.	.	.	.	.	.	.	.	.	.	.	.
.	4ff 4a 4f\	.	.	.	.	.	.	.	.	.	.	.	.	.	.	.	.	.	.	.	.	.	.
4C/	.	.	.	.	.	.	.	.	.	.	.	.	.	.	.	.	.	.	.	.	.	.	.
.	4ff 4a 4f\	.	.	.	.	.	.	.	.	.	.	.	.	.	.	.	.	.	.	.	.	.	.
4F\	.	.	.	.	.	.	.	.	.	.	.	.	.	.	.	.	.	.	.	.	.	.	.
.	8ff 8a 8f\	.	.	.	.	.	.	.	.	.	.	.	.	.	.	.	.	.	.	.	.	.	.
=85	=85	=85	=85	=85	=85	=85	=85	=85	=85	=85	=85	=85	=85	=85	=85	=85	=85	=85	=85	=85	=85	=85	=85
4An\	8ff 8an 8f\	.	1r	.	.	2f/]	.	.	2an\]	.	.	2ff\]	.	.	1ryy	.	.	1ryy	.	.	2ff\]	.	.
.	4ff 4f\	.	.	.	.	.	.	.	.	.	.	.	.	.	.	.	.	.	.	.	.	.	.
4c\	.	.	.	.	.	.	.	.	.	.	.	.	.	.	.	.	.	.	.	.	.	.	.
.	4ff 4a\	.	.	.	.	.	.	.	.	.	.	.	.	.	.	.	.	.	.	.	.	.	.
4en\	.	.	.	.	.	2r	.	.	2r	.	.	2r	.	.	.	.	.	.	.	.	2r	.	.
.	4ff 4a\	.	.	.	.	.	.	.	.	.	.	.	.	.	.	.	.	.	.	.	.	.	.
4f\	.	.	.	.	.	.	.	.	.	.	.	.	.	.	.	.	.	.	.	.	.	.	.
.	8ff 8a\	.	.	.	.	.	.	.	.	.	.	.	.	.	.	.	.	.	.	.	.	.	.
*	*	*	*	*	*	*	*	*	*	*	*	*	*	*	*clefF4	*	*	*	*	*	*	*	*
=86||	=86||	=86||	=86||	=86||	=86||	=86||	=86||	=86||	=86||	=86||	=86||	=86||	=86||	=86||	=86||	=86||	=86||	=86||	=86||	=86||	=86||	=86||	=86||
*k[b-]	*k[b-]	*	*k[b-]	*	*	*k[b-]	*	*	*k[b-]	*	*	*k[b-]	*	*	*k[b-]	*	*	*k[b-]	*	*	*k[b-]	*	*
4FF 4FFF/	12ffL 12a 12f\	f	2r	.	.	2r	.	.	2r	.	.	2r	.	.	2r	.	.	2r	.	.	2r	.	.
!	!LO:TX:b:t=animato.	!	!	!	!	!	!	!	!	!	!	!	!	!	!	!	!	!	!	!	!	!	!
.	12ff 12a 12f\	.	.	.	.	.	.	.	.	.	.	.	.	.	.	.	.	.	.	.	.	.	.
.	12ffJ 12a 12f\	.	.	.	.	.	.	.	.	.	.	.	.	.	.	.	.	.	.	.	.	.	.
4F 4FF\	12f\L	.	.	.	.	.	.	.	.	.	.	.	.	.	.	.	.	.	.	.	.	.	.
.	12a\	.	.	.	.	.	.	.	.	.	.	.	.	.	.	.	.	.	.	.	.	.	.
.	12cc\J	.	.	.	.	.	.	.	.	.	.	.	.	.	.	.	.	.	.	.	.	.	.
!	!	!	!LO:TX:a:t=WOJCIECH.	!	!	!LO:TX:a:t=ASTERY.	!	!	!LO:TX:a:t=SOPRAN.	!	!	!LO:TX:a:t=PROMIEŃ.	!	!	!LO:TX:a:t=BAS.	!	!	!LO:TX:a:t=TENOR.	!	!	!LO:TX:a:t=DĄBRÓWKA.	!	!
8.CL 8.CC/	12ff\L	.	4r	.	.	4r	.	.	4r	.	.	4r	.	.	4r	.	.	4r	.	.	4r	.	.
.	12aa\	.	.	.	.	.	.	.	.	.	.	.	.	.	.	.	.	.	.	.	.	.	.
.	12ccc\J	.	.	.	.	.	.	.	.	.	.	.	.	.	.	.	.	.	.	.	.	.	.
16AAJk 16AAA/	.	.	.	.	.	.	.	.	.	.	.	.	.	.	.	.	.	.	.	.	.	.	.
4FF 4FFF/	12fffL 12aa 12ff\	sf	8r	.	.	8r	.	.	8r	.	.	8r	.	.	8r	.	.	8r	.	.	8r	.	.
.	12fff 12aa 12ff\	.	.	.	.	.	.	.	.	.	.	.	.	.	.	.	.	.	.	.	.	.	.
!	!	!	!	!	!LO:DY:a	!LO:N:vis=4	!	!	!LO:N:vis=4	!	!	!	!	!	!	!	!	!	!	!LO:DY:a	!LO:TX:a:t=BRANKA.	!	!LO:DY:a
.	.	.	8F\	O	f	8a/	O	f	8a/	O	f	8ff\	O	f	8F\	O	f	8cc\	O	f	8ff\	O	f
.	12fffJ 12aa 12ff\	.	.	.	.	.	.	.	.	.	.	.	.	.	.	.	.	.	.	.	.	.	.
=87	=87	=87	=87	=87	=87	=87	=87	=87	=87	=87	=87	=87	=87	=87	=87	=87	=87	=87	=87	=87	=87	=87	=87
4BB- 4BBB-/	12fffL 12ddd 12gg\	.	4BB-/	ksią-	.	4g/	ksią-	.	4dd\	ksią-	.	4ff\	ksią-	.	2BB-/	ksią-	.	4b-\	ksią-	.	4ff\	ksią-	.
.	12fff 12ddd 12gg\	.	.	.	.	.	.	.	.	.	.	.	.	.	.	.	.	.	.	.	.	.	.
.	12fffJ 12ddd 12gg\	.	.	.	.	.	.	.	.	.	.	.	.	.	.	.	.	.	.	.	.	.	.
4B- 4BB-\	12fffL 12bb- 12gg\	.	12BB-/	-że!	.	12g/	-że!	.	12b-\	-że!	.	12ff\	-że!	.	.	.	.	12b-\	-że!	.	12ff\	-że!	.
.	12eee 12bb- 12gg\	.	12BB-/	sły-	.	12g/	sły-	.	12b-\	sły-	.	12ee\	sły-	.	.	.	.	12b-\	sły-	.	12ee\	sły-	.
.	12dddJ 12bb- 12gg\	.	12BB-/	-szysz	.	12g/	-szysz	.	12g/	-szysz	.	12dd\	-szysz	.	.	.	.	12b-\	-szysz	.	12dd\	-szysz	.
!	!LO:TX:b:t=con forza.	!	!	!	!	!LO:N:vis=8	!	!	!	!	!	!	!	!	!	!	!	!	!	!	!	!	!
4C 4CC/	12eeeL 12ccc 12gg\	.	4C/	gło-	.	4g/	gło-	.	4cc\	gło-	.	4ff\	gło-	.	4C/	-że	.	4cc\	gło-	.	4ff\	gło-	.
.	12eee 12ccc 12gg\	.	.	.	.	.	.	.	.	.	.	.	.	.	.	.	.	.	.	.	.	.	.
.	12eeeJ 12ccc 12gg\	.	.	.	.	.	.	.	.	.	.	.	.	.	.	.	.	.	.	.	.	.	.
8.cL 8.C\	12eeeL 12ccc 12gg\	.	8.B-\	-sy	.	8.g/	-sy	.	8.cc\	-sy	.	8.ee\	-sy	.	8.C/	ksią-	.	8.cc\	-sy	.	8.ee\	-sy	.
.	12eee 12ccc 12gg\	.	.	.	.	.	.	.	.	.	.	.	.	.	.	.	.	.	.	.	.	.	.
.	12eeeJ 12ccc 12gg\	.	.	.	.	.	.	.	.	.	.	.	.	.	.	.	.	.	.	.	.	.	.
16B-Jk 16BB-\	.	.	16B-\	o	.	16g/	o	.	16b-\	o	.	16ee\	o	.	16C/	-że	.	16cc\	.	.	16ee\	o	.
=88	=88	=88	=88	=88	=88	=88	=88	=88	=88	=88	=88	=88	=88	=88	=88	=88	=88	=88	=88	=88	=88	=88	=88
4A 4AA\	12eeeL 12ccc 12ff\	sf	4A\	ksią-	.	4f/	ksią-	.	4a\	ksią-	.	4ee\	ksią-	.	4F\	sły-	.	4ff\	ksią-	.	4ee\	ksią-	.
.	12eee 12ccc 12ff\	.	.	.	.	.	.	.	.	.	.	.	.	.	.	.	.	.	.	.	.	.	.
.	12eeeJ 12ccc 12ff\	.	.	.	.	.	.	.	.	.	.	.	.	.	.	.	.	.	.	.	.	.	.
12FL 12FF/	12eeeL 12ccc 12ff\	.	12F\	-że	.	12f/	-że	.	12cc\	-że	.	12ee\	-że	.	4A\	-szysz	.	12ff\	-że	.	12ee\	-że	.
12G 12GG/	12ddd 12ff\	.	12G\	sły-	.	12f/	sły-	.	12cc\	sły-	.	12ee\	sły-	.	.	.	.	12ff\	sły-	.	12dd\	sły-	.
12AJ 12AA/	12cccJ 12ff\	.	12A\	-szysz	.	12f/	-szysz	.	12cc\	-szysz	.	12ee\	-szysz	.	.	.	.	12ff\	-szysz	.	12cc\	-szysz	.
4B- 4BB-\	12dddL 12bb- 12ff\	sf	4..B-\	gło-	.	4..f/	gło-	.	(4cc\	gło-	.	(4ee\	gło-	.	(4B-\	gło-	.	4.ff\	gło-	.	(4ee\	gło-	.
.	12ddd 12bb- 12ff\	.	.	.	.	.	.	.	.	.	.	.	.	.	.	.	.	.	.	.	.	.	.
.	12dddJ 12bb- 12ff\	.	.	.	.	.	.	.	.	.	.	.	.	.	.	.	.	.	.	.	.	.	.
4BB- 4BBB-/	12dddL 12ff\	.	.	.	.	.	.	.	8.b-\)	.	.	8.dd\)	.	.	8.BB-/)	.	.	.	.	.	8dd\)	.	.
.	12ddd 12gg\	.	.	.	.	.	.	.	.	.	.	.	.	.	.	.	.	.	.	.	.	.	.
.	.	.	.	.	.	.	.	.	.	.	.	.	.	.	.	.	.	8ff\	-sy	.	8dd\	-sy	.
.	12dddJ 12ff\	.	.	.	.	.	.	.	.	.	.	.	.	.	.	.	.	.	.	.	.	.	.
.	.	.	16BB-/	-sy	.	16f/	-sy	.	16b-\	-sy	.	16dd\	-sy	.	16BB-/	-sy	.	.	.	.	.	.	.
=89	=89	=89	=89	=89	=89	=89	=89	=89	=89	=89	=89	=89	=89	=89	=89	=89	=89	=89	=89	=89	=89	=89	=89
*	*^	*	*	*	*	*	*	*	*	*	*	*	*	*	*	*	*	*	*	*	*	*	*
4C 4CC/	12cccL 12ee\	4ryy	.	4C\	twych	.	4e/	twych	.	4b-\	twych	.	4dd\	twych	.	4C\	twych	.	4een\	twych	.	4dd\	twych	.
.	12ccc 12ee\	.	.	.	.	.	.	.	.	.	.	.	.	.	.	.	.	.	.	.	.	.	.	.
.	12cccJ 12ee\	.	.	.	.	.	.	.	.	.	.	.	.	.	.	.	.	.	.	.	.	.	.	.
!	!LO:N:vis=8	!	!	!	!	!	!	!	!	!	!	!	!	!	!	!	!	!	!	!	!	!	!	!
8.EL 8.EE/	12ddd/L	8.ggL 8.ee\	>	8.E\	czes-	.	8.g/	czes-	.	8.g/	czes-	.	(12dd\L	czes-	.	8.E\	czes-	.	8.cc\	czes-	.	(12dd\L	czes-	.
.	12ccc/	.	.	.	.	.	.	.	.	.	.	.	12cc\J)	.	.	.	.	.	.	.	.	12cc\J)	.	.
.	12bb-/J	.	.	.	.	.	.	.	.	.	.	.	12bn\	-kich	.	.	.	.	.	.	.	12bn\	-kich	.
!	!	!	!	!	!	!	!	!	!	!	!	!	!	!	!	!	!	!LO:HP:a	!	!	!	!	!	!
16CJk 16CC/	.	16gg\Jk	.	16E\	-kich	.	16g/	-kich	.	16g/	-kich	.	.	.	.	16E\	-kich	<	16cc\	-kich	.	.	.	.
4F 4FF/	12eeeL 12aa 12cc\	2ryy	]	4F\	brań-	.	4f/	brań-	.	4a/	brań-	.	4cc\	brań-	.	4F\	brań-	.	4cc\	brań-	.	4cc\	brań-	.
.	12eee 12aa 12cc\	.	.	.	.	.	.	.	.	.	.	.	.	.	.	.	.	.	.	.	.	.	.	.
.	12eeeJ 12aa 12cc\	.	.	.	.	.	.	.	.	.	.	.	.	.	.	.	.	.	.	.	.	.	.	.
4f 4F\	12aaL 12ff 12cc\	.	.	4F\	-ców;	.	4f/	-ców;	.	4f/	-ców;	.	4a\	-ców;	.	4A\	-ców;	[	4cc\	-ców;	.	4a\	-ców;	.
.	12aa 12ff 12cc\	.	.	.	.	.	.	.	.	.	.	.	.	.	.	.	.	.	.	.	.	.	.	.
.	12aaJ 12ff 12cc\	.	.	.	.	.	.	.	.	.	.	.	.	.	.	.	.	.	.	.	.	.	.	.
*	*v	*v	*	*	*	*	*	*	*	*	*	*	*	*	*	*	*	*	*	*	*	*	*	*
=90	=90	=90	=90	=90	=90	=90	=90	=90	=90	=90	=90	=90	=90	=90	=90	=90	=90	=90	=90	=90	=90	=90	=90
*	*8va	*	*	*	*	*	*	*	*	*	*	*	*	*	*	*	*	*	*	*	*	*	*
!	!	!	!	!	!	!	!	!	!	!	!	!	!	!	!	!	!	!	!	!	!	!	!LO:DY:a
4AA 4AAA/	12aaL 12cc#X 12a/	.	4A\	Jam	.	4e/	bądź	.	4a/	bądź	.	4cc#X\	bądź	.	4A\	bądź	.	4a/	bądź	.	[2aa\	ach!	f
.	12aa 12cc# 12a/	.	.	.	.	.	.	.	.	.	.	.	.	.	.	.	.	.	.	.	.	.	.
.	12aaJ 12cc# 12a/	.	.	.	.	.	.	.	.	.	.	.	.	.	.	.	.	.	.	.	.	.	.
12AL 12AA\	12aaL 12a/	.	4G\	dał	.	8.e/	mi-	.	(12b-/L	mi-	.	8.cc#\	mi-	.	8.G\	mi-	.	8.ee\	mi-	.	.	.	.
12G#X 12GG#X\	12bbn 12bn/	.	.	.	.	.	.	.	12a/J)	.	.	.	.	.	.	.	.	.	.	.	.	.	.
12GnJ 12GGn\	12ccc#XJ 12cc#X/	.	.	.	.	.	.	.	12g/	-ło-	.	.	.	.	.	.	.	.	.	.	.	.	.
.	.	.	.	.	.	16e/	-ło-	.	.	.	.	16cc#\	-ło-	.	16G\	-ło-	.	16ee\	-ło-	.	.	.	.
4F 4FF/	12dddL 12aa 12dd/	.	4F\	ci	.	4.f/	-sier-	.	4.a/	-sier-	.	4.dd\	-sier-	.	4F\	-sier-	.	4.dd\	-sier-	.	2ryy	.	.
.	12ddd 12aa 12dd/	.	.	.	.	.	.	.	.	.	.	.	.	.	.	.	.	.	.	.	.	.	.
.	12dddJ 12aa 12dd/	.	.	.	.	.	.	.	.	.	.	.	.	.	.	.	.	.	.	.	.	.	.
4D 4DD/	12dddL 12aa 12ff/	.	8.F\	Wia-	.	.	.	.	.	.	.	.	.	.	4F\	-nym	.	.	.	.	.	.	.
.	12ddd 12aa 12ff/	.	.	.	.	.	.	.	.	.	.	.	.	.	.	.	.	.	.	.	.	.	.
.	.	.	.	.	.	8d/	-nym	.	8a/	-nym	.	8dd\	-nym	.	.	.	.	8dd\	-nym	.	.	.	.
.	12dddJ 12aa 12ff/	.	.	.	.	.	.	.	.	.	.	.	.	.	.	.	.	.	.	.	.	.	.
.	.	.	16F\	-rę	.	.	.	.	.	.	.	.	.	.	.	.	.	.	.	.	.	.	.
=91	=91	=91	=91	=91	=91	=91	=91	=91	=91	=91	=91	=91	=91	=91	=91	=91	=91	=91	=91	=91	=91	=91	=91
4AA 4AAA/	12eeeL 12ccc#X 12aa 12ee\	.	2E\	u-	.	8.c#X/L	na	.	4.a^/	dla	.	4.ee\	dla	.	4.E\	dla	.	(8.cc#X\L	na	.	2.aa\]	.	.
.	12eee 12ccc# 12aa 12ee\	.	.	.	.	.	.	.	.	.	.	.	.	.	.	.	.	.	.	.	.	.	.
.	12eeeJ 12ccc# 12aa 12ee\	.	.	.	.	.	.	.	.	.	.	.	.	.	.	.	.	.	.	.	.	.	.
.	.	.	.	.	.	16A/Jk	.	.	.	.	.	.	.	.	.	.	.	16a\Jk)	.	.	.	.	.
12AL 12AA\	12eeeL 12aa 12ee\	.	.	.	.	8.Bn/	łzy	.	.	.	.	.	.	.	.	.	.	8.bn\	łzy	.	.	.	.
12Bn 12BBn\	12eee 12aa 12ee\	.	.	.	.	.	.	.	.	.	.	.	.	.	.	.	.	.	.	.	.	.	.
.	.	.	.	.	.	.	.	.	8a/	wy-	.	8ee\	wy-	.	8E\	wy-	.	.	.	.	.	.	.
12c#XJ 12C#X\	12eeeJ 12aa 12ee\	.	.	.	.	.	.	.	.	.	.	.	.	.	.	.	.	.	.	.	.	.	.
.	.	.	.	.	.	16c#/	wy-	.	.	.	.	.	.	.	.	.	.	16cc#\	wy-	.	.	.	.
4d 4D\	12fffL 12ddd 12aa 12ff\	.	4D\	-kój	.	4d/	-gnań-	.	4.a/	-gnań-	.	4.ff\	-gnań-	.	4.D\	-gnań-	.	4dd\	-gnań-	.	.	.	.
.	12fff 12ddd 12aa 12ff\	.	.	.	.	.	.	.	.	.	.	.	.	.	.	.	.	.	.	.	.	.	.
.	12fffJ 12ddd 12aa 12ff\	.	.	.	.	.	.	.	.	.	.	.	.	.	.	.	.	.	.	.	.	.	.
4D 4DD/	12fffL 12ddd 12aa 12ff\	.	8.d\	łzy	.	4f/	-ców	.	.	.	.	.	.	.	.	.	.	4dd\	-ców	.	4a\	bądź	.
.	12fff 12ddd 12aa 12ff\	.	.	.	.	.	.	.	.	.	.	.	.	.	.	.	.	.	.	.	.	.	.
.	.	.	.	.	.	.	.	.	8dd\	-ców	.	8ff\	-ców	.	8D\	-ców	.	.	.	.	.	.	.
.	12fffJ 12ddd 12aa 12ff\	.	.	.	.	.	.	.	.	.	.	.	.	.	.	.	.	.	.	.	.	.	.
.	.	.	16d\	wy-	.	.	.	.	.	.	.	.	.	.	.	.	.	.	.	.	.	.	.
=92	=92	=92	=92	=92	=92	=92	=92	=92	=92	=92	=92	=92	=92	=92	=92	=92	=92	=92	=92	=92	=92	=92	=92
4D 4DD/	12fff#XL 12ddd 12aa 12ff#X\	.	4.c\	-gnań-	.	4a/	bądź	.	4dd\	bądź	.	4ff#X\	bądź	.	4Cn/	bądź	.	4ff#X\	bądź	.	4aa\	ach	.
.	12fff# 12ddd 12aa 12ff#\	.	.	.	.	.	.	.	.	.	.	.	.	.	.	.	.	.	.	.	.	.	.
.	12fff#J 12ddd 12aa 12ff#\	.	.	.	.	.	.	.	.	.	.	.	.	.	.	.	.	.	.	.	.	.	.
12dL 12D\	12fff#L 12ddd 12ff#\	.	.	.	.	8.a/	mi-	.	8.dd\	mi-	.	8.ff#\	mi-	.	8.C/	mi-	.	8.dd\	mi-	.	12dd\	bądź	.
12c#X 12C#X\	12eee 12ee\	.	.	.	.	.	.	.	.	.	.	.	.	.	.	.	.	.	.	.	12ee\	mi-	.
.	.	.	8c\	-ców	.	.	.	.	.	.	.	.	.	.	.	.	.	.	.	.	.	.	.
12cnJ 12Cn\	12fff#J 12ff#\	.	.	.	.	.	.	.	.	.	.	.	.	.	.	.	.	.	.	.	12ff#X\	-ło-	.
.	.	.	.	.	.	16g/	-ło-	.	16dd\	-ło-	.	16ff#\	-ło-	.	16C/	-ło-	.	16dd\	-ło-	.	.	.	.
!	!	!	!	!	!	!	!	!	!	!	!	!	!	!	!	!	!	!	!	!LO:HP:a	!	!	!
4B- 4BB-\	12gggL 12ddd 12gg\	sf	4B-^\	u-	.	4g/	-sier-	.	4.dd\	-sier-	.	4.gg\	-sier-	.	4BB-/	-sier-	.	4.dd\	-sier-	<	4gg\	-sier-	.
.	12ggg 12ddd 12gg\	.	.	.	.	.	.	.	.	.	.	.	.	.	.	.	.	.	.	.	.	.	.
.	12gggJ 12ddd 12gg\	.	.	.	.	.	.	.	.	.	.	.	.	.	.	.	.	.	.	.	.	.	.
8.BnL 8.BBn\	12fffnL 12ddd 12aa-X 12ffn\	sf	4An^\	-kój	.	4a-X/	-nym	.	.	.	.	.	.	.	4BBn/	-nym	.	.	.	.	4ffn\	-nym	.
.	12fff 12ddd 12aa- 12ff\	.	.	.	.	.	.	.	.	.	.	.	.	.	.	.	.	.	.	.	.	.	.
.	.	.	.	.	.	.	.	.	8dd\	-nym	.	8ffn\	-nym	.	.	.	.	8dd\	-nym	[	.	.	.
.	12fffJ 12ddd 12aa- 12ff\	.	.	.	.	.	.	.	.	.	.	.	.	.	.	.	.	.	.	.	.	.	.
16BJk 16BB\	.	.	.	.	.	.	.	.	.	.	.	.	.	.	.	.	.	.	.	.	.	.	.
=93	=93	=93	=93	=93	=93	=93	=93	=93	=93	=93	=93	=93	=93	=93	=93	=93	=93	=93	=93	=93	=93	=93	=93
4c 4C^\	12fffL 12ccc 12aan 12ff\	.	4c\	te	.	4an/	na	.	4cc^\	na	.	4ff^\	na	.	[4C\	na	.	4ffn\	na	.	4ff\	na	.
.	12fff 12ccc 12aa 12ff\	.	.	.	.	.	.	.	.	.	.	.	.	.	.	.	.	.	.	.	.	.	.
.	12fffJ 12ccc 12aa 12ff\	.	.	.	.	.	.	.	.	.	.	.	.	.	.	.	.	.	.	.	.	.	.
12CL 12CC/	12fffL 12aa 12ff\	.	(12C\L	łzy	.	8.f/	łzy	.	8.a/	łzy	.	8.ee\	łzy	.	4C\]	.	.	8.ff\	łzy	.	8.ee\	łzy	.
12F 12FF/	12eee 12aa 12ff\	<	12F\J)	.	.	.	.	.	.	.	.	.	.	.	.	.	.	.	.	.	.	.	.
12AJ 12AA/	12dddJ 12aa 12ff\	[	12A\	wy-	.	.	.	.	.	.	.	.	.	.	.	.	.	.	.	.	.	.	.
.	.	.	.	.	.	16f/	wy-	.	16f/	wy-	.	16dd\	wy-	.	.	.	.	16ff\	wy-	.	16dd\	wy-	.
4c 4C^\	12eeeL 12gg 12ee\	.	2c\	-gnań-	.	(4..e/	-gnań-	.	(4..g/	-gnań-	.	2ee\	-gnań-	.	8F\	łzy	.	(4cc\	-gnań-	.	4ee\	-gnań-	.
.	12eee 12gg 12ee\	.	.	.	.	.	.	.	.	.	.	.	.	.	.	.	.	.	.	.	.	.	.
.	.	.	.	.	.	.	.	.	.	.	.	.	.	.	8A\	wy-	.	.	.	.	.	.	.
.	12eeeJ 12gg 12ee\	.	.	.	.	.	.	.	.	.	.	.	.	.	.	.	.	.	.	.	.	.	.
4C 4CC^/	12eeeL 12gg 12ee\	.	.	.	.	.	.	.	.	.	.	.	.	.	4c\	-gnań-	.	8.ee\	.	.	4ryy	.	.
.	12ddd 12gg 12ee\	.	.	.	.	.	.	.	.	.	.	.	.	.	.	.	.	.	.	.	.	.	.
.	12cccJ 12gg 12ee\	.	.	.	.	.	.	.	.	.	.	.	.	.	.	.	.	.	.	.	.	.	.
.	.	.	.	.	.	16g/)	.	.	16b-/)	.	.	.	.	.	.	.	.	16cc\)	.	.	.	.	.
=94	=94	=94	=94	=94	=94	=94	=94	=94	=94	=94	=94	=94	=94	=94	=94	=94	=94	=94	=94	=94	=94	=94	=94
4FF 4FFF/	12fffL 12ff\	.	4F\	-ców	.	4f/	-ców	.	4a/	-ców	.	2.ff\	-ców	.	2F\	-ców	.	4ff\	-ców	.	4ff\	-ców	.
*	*X8va	*	*	*	*	*	*	*	*	*	*	*	*	*	*	*	*	*	*	*	*	*	*
.	24f\L	.	.	.	.	.	.	.	.	.	.	.	.	.	.	.	.	.	.	.	.	.	.
.	24ff\	.	.	.	.	.	.	.	.	.	.	.	.	.	.	.	.	.	.	.	.	.	.
.	24f\	.	.	.	.	.	.	.	.	.	.	.	.	.	.	.	.	.	.	.	.	.	.
.	24ff\JJ	.	.	.	.	.	.	.	.	.	.	.	.	.	.	.	.	.	.	.	.	.	.
8.GL 8.GG\	24f\LL	<	4r	.	.	8.A/	ty	.	8.f/	ty	.	.	.	.	.	.	.	8.a/	ty	.	4ryy	.	.
.	24ff\	.	.	.	.	.	.	.	.	.	.	.	.	.	.	.	.	.	.	.	.	.	.
.	24f\	.	.	.	.	.	.	.	.	.	.	.	.	.	.	.	.	.	.	.	.	.	.
.	24ff\	.	.	.	.	.	.	.	.	.	.	.	.	.	.	.	.	.	.	.	.	.	.
.	24f\	.	.	.	.	.	.	.	.	.	.	.	.	.	.	.	.	.	.	.	.	.	.
16AJk 16AA\	.	.	.	.	.	16A/	nam	.	16f/	nam	.	.	.	.	.	.	.	16a/	nam	.	.	.	.
.	24ff\JJ	.	.	.	.	.	.	.	.	.	.	.	.	.	.	.	.	.	.	.	.	.	.
4B- 4BB-\	24f\LL	[	2r	.	.	(4B-/	wol-	.	4f/	wol-	.	.	.	.	2r	.	.	(4b-\	wol-	.	2r	.	.
.	24ff\	.	.	.	.	.	.	.	.	.	.	.	.	.	.	.	.	.	.	.	.	.	.
.	24f\	.	.	.	.	.	.	.	.	.	.	.	.	.	.	.	.	.	.	.	.	.	.
.	24ff\	.	.	.	.	.	.	.	.	.	.	.	.	.	.	.	.	.	.	.	.	.	.
.	24f\	.	.	.	.	.	.	.	.	.	.	.	.	.	.	.	.	.	.	.	.	.	.
.	24ff\	.	.	.	.	.	.	.	.	.	.	.	.	.	.	.	.	.	.	.	.	.	.
8.BnL 8.BBn^\	24f\	.	.	.	.	4Bn/)	.	.	4ryy	.	.	8.ff\	ty	.	.	.	.	8.bn\)	.	.	.	.	.
.	24ff\	.	.	.	.	.	.	.	.	.	.	.	.	.	.	.	.	.	.	.	.	.	.
.	24f\	.	.	.	.	.	.	.	.	.	.	.	.	.	.	.	.	.	.	.	.	.	.
.	24ff\	.	.	.	.	.	.	.	.	.	.	.	.	.	.	.	.	.	.	.	.	.	.
.	24f\	.	.	.	.	.	.	.	.	.	.	.	.	.	.	.	.	.	.	.	.	.	.
16BJk 16BB\	.	.	.	.	.	.	.	.	.	.	.	16ff\	nam	.	.	.	.	16b\	-ność	.	.	.	.
.	24ff\JJ	.	.	.	.	.	.	.	.	.	.	.	.	.	.	.	.	.	.	.	.	.	.
=95	=95	=95	=95	=95	=95	=95	=95	=95	=95	=95	=95	=95	=95	=95	=95	=95	=95	=95	=95	=95	=95	=95	=95
!	!	!	!	!	!	!	!	!	!	!	!	!LO:N:vis=2	!	!	!	!	!	!	!	!	!	!	!
4c 4C\	36.f\LL	.	2r	.	.	4c/	-ność	.	2.f/	-ność	.	[2.ff\	wol-	.	2r	.	.	(4cc\	dasz	.	1r	.	.
.	36.ff\	.	.	.	.	.	.	.	.	.	.	.	.	.	.	.	.	.	.	.	.	.	.
.	36.f\	.	.	.	.	.	.	.	.	.	.	.	.	.	.	.	.	.	.	.	.	.	.
.	36.ff\	.	.	.	.	.	.	.	.	.	.	.	.	.	.	.	.	.	.	.	.	.	.
.	36.f\	.	.	.	.	.	.	.	.	.	.	.	.	.	.	.	.	.	.	.	.	.	.
.	36.ff\	.	.	.	.	.	.	.	.	.	.	.	.	.	.	.	.	.	.	.	.	.	.
8.d-XL 8.D-X\	36.f\	.	.	.	.	4d-X/	ty	.	.	.	.	.	.	.	.	.	.	4dd-X\	.	.	.	.	.
.	36.ff\	.	.	.	.	.	.	.	.	.	.	.	.	.	.	.	.	.	.	.	.	.	.
.	36.f\	.	.	.	.	.	.	.	.	.	.	.	.	.	.	.	.	.	.	.	.	.	.
.	36.ff\	.	.	.	.	.	.	.	.	.	.	.	.	.	.	.	.	.	.	.	.	.	.
.	36.f\	.	.	.	.	.	.	.	.	.	.	.	.	.	.	.	.	.	.	.	.	.	.
16d-Jk 16D-\	.	.	.	.	.	.	.	.	.	.	.	.	.	.	.	.	.	.	.	.	.	.	.
.	36.ff\JJ	.	.	.	.	.	.	.	.	.	.	.	.	.	.	.	.	.	.	.	.	.	.
4dn 4Dn\	24.f\LL	.	4r	.	.	4dn/	nam	.	.	.	.	.	.	.	4r	.	.	4ddn\)	.	.	.	.	.
.	24.ff\	.	.	.	.	.	.	.	.	.	.	.	.	.	.	.	.	.	.	.	.	.	.
.	24.f\	.	.	.	.	.	.	.	.	.	.	.	.	.	.	.	.	.	.	.	.	.	.
.	24.ff\JJ	.	.	.	.	.	.	.	.	.	.	.	.	.	.	.	.	.	.	.	.	.	.
8.dL 8.D\	24.bnLL 24.a-X 24.f\	.	8.D^\	Ty	.	4d/	dasz	.	8.a/	ty	.	8.ff\]	.	.	8.D\	Ty	.	8.ff\	wol-	.	.	.	.
.	24.ff\	.	.	.	.	.	.	.	.	.	.	.	.	.	.	.	.	.	.	.	.	.	.
.	24.b 24.a- 24.f\	.	.	.	.	.	.	.	.	.	.	.	.	.	.	.	.	.	.	.	.	.	.
16dJk 16D\	24.ff\JJ	.	16D\	nam	.	.	.	.	16a/	nam	.	16ff\	-ność	.	16D\	nam	.	16ff\	-ność	.	.	.	.
=96	=96	=96	=96	=96	=96	=96	=96	=96	=96	=96	=96	=96	=96	=96	=96	=96	=96	=96	=96	=96	=96	=96	=96
4e-X 4E-X\	24.ccLL 24.a-X\	.	2E-X\	dasz	.	4.e-X/	wol-	.	(8a-X\L	wol-	.	2ee-X\	dasz	.	2E-X\	dasz	.	2ee-X\	dasz	.	1r	.	.
.	24.ee-X 24.cc\	.	.	.	.	.	.	.	.	.	.	.	.	.	.	.	.	.	.	.	.	.	.
.	24.cc 24.a-\	.	.	.	.	.	.	.	8cc\	.	.	.	.	.	.	.	.	.	.	.	.	.	.
.	24.ee-JJ 24.cc\	.	.	.	.	.	.	.	.	.	.	.	.	.	.	.	.	.	.	.	.	.	.
12E-L 12EE-X/	24.ccLL 24.a-\	.	.	.	.	.	.	.	8b-\J)	.	.	.	.	.	.	.	.	.	.	.	.	.	.
.	24.aa-X\	.	.	.	.	.	.	.	.	.	.	.	.	.	.	.	.	.	.	.	.	.	.
12E- 12EE-/	.	.	.	.	.	.	.	.	.	.	.	.	.	.	.	.	.	.	.	.	.	.	.
.	24.cc 24.a-\	.	.	.	.	8a-X/	-ność	.	8a-\	ność	.	.	.	.	.	.	.	.	.	.	.	.	.
12E-J 12EE-/	.	.	.	.	.	.	.	.	.	.	.	.	.	.	.	.	.	.	.	.	.	.	.
.	24.aa-\JJ	.	.	.	.	.	.	.	.	.	.	.	.	.	.	.	.	.	.	.	.	.	.
8EnL 8EEn/	36.ccLL 36.g\	.	(8En\L	wol-	.	4.g/	wol-	.	4b-\	dasz	.	4.gg\	ty	.	(8En\L	wol-	.	(8een\L	ty	.	.	.	.
.	36.gg\	.	.	.	.	.	.	.	.	.	.	.	.	.	.	.	.	.	.	.	.	.	.
.	36.cc 36.g\	.	.	.	.	.	.	.	.	.	.	.	.	.	.	.	.	.	.	.	.	.	.
8C 8CC/	36.gg\	.	8C\	.	.	.	.	.	.	.	.	.	.	.	8C\	.	.	8cc\	.	.	.	.	.
.	36.cc 36.g\	.	.	.	.	.	.	.	.	.	.	.	.	.	.	.	.	.	.	.	.	.	.
.	36.gg\	.	.	.	.	.	.	.	.	.	.	.	.	.	.	.	.	.	.	.	.	.	.
8D 8DD/	36.cc 36.g\	.	8D\J)	.	.	.	.	.	8cc\	wol-	.	.	.	.	8D\J)	.	.	8dd\J)	.	.	.	.	.
.	36.gg\	.	.	.	.	.	.	.	.	.	.	.	.	.	.	.	.	.	.	.	.	.	.
.	36.cc 36.g\	.	.	.	.	.	.	.	.	.	.	.	.	.	.	.	.	.	.	.	.	.	.
8EJ 8EE/	36.gg\	.	8E\	-ność	.	8g/	-ność	.	8b-\	-ność	.	8gg\	nam	.	8E\	-ność	.	8ee\	nam	.	.	.	.
.	36.cc 36.g\	.	.	.	.	.	.	.	.	.	.	.	.	.	.	.	.	.	.	.	.	.	.
.	36.gg\JJ	.	.	.	.	.	.	.	.	.	.	.	.	.	.	.	.	.	.	.	.	.	.
=97	=97	=97	=97	=97	=97	=97	=97	=97	=97	=97	=97	=97	=97	=97	=97	=97	=97	=97	=97	=97	=97	=97	=97
4F 4FF/	24.ccLL 24.an\	.	4F\	dasz	.	4f/	dasz	.	4an/	dasz	.	4gg\	wol-	.	4F\	dasz	.	[4cc\	wol-	.	1r	.	.
.	24.gg\	.	.	.	.	.	.	.	.	.	.	.	.	.	.	.	.	.	.	.	.	.	.
.	24.cc 24.a\	.	.	.	.	.	.	.	.	.	.	.	.	.	.	.	.	.	.	.	.	.	.
.	24.gg\JJ	.	.	.	.	.	.	.	.	.	.	.	.	.	.	.	.	.	.	.	.	.	.
12FL 12FF\	24.ccLL 24.a\	<	8.F\	ty	.	8.f/	ty	.	8.a/	ty	.	4ff\	-ność	.	8F\	ty	.	8.cc\]	.	.	.	.	.
.	24.ff\	.	.	.	.	.	.	.	.	.	.	.	.	.	.	.	.	.	.	.	.	.	.
12G 12GG\	.	.	.	.	.	.	.	.	.	.	.	.	.	.	.	.	.	.	.	.	.	.	.
.	24.cc 24.a\	.	.	.	.	.	.	.	.	.	.	.	.	.	16ryy	.	.	.	.	.	.	.	.
12AJ 12AA\	.	.	.	.	.	.	.	.	.	.	.	.	.	.	.	.	.	.	.	.	.	.	.
.	24.ff\JJ	.	16F\	nam	.	16f/	nam	.	16a/	nam	.	.	.	.	16F\	nam	.	16cc\	-ność	.	.	.	.
4B- 4BB-\	24.ccLL 24.f\	[	(4B-\	wol-	.	(4f/	wol-	.	(4b-/	wol-	.	4een\	dasz	.	4B-\	wol-	.	4b-\	dasz	.	.	.	.
.	24.een\	.	.	.	.	.	.	.	.	.	.	.	.	.	.	.	.	.	.	.	.	.	.
.	24.cc 24.f\	.	.	.	.	.	.	.	.	.	.	.	.	.	.	.	.	.	.	.	.	.	.
.	24.ee\JJ	.	.	.	.	.	.	.	.	.	.	.	.	.	.	.	.	.	.	.	.	.	.
4r	24.b-LL 24.f\	.	8.BB-/)	.	.	8.d/)	.	.	8.f/)	.	.	8.dd\	wol-	.	8.BB-/	.	.	8.b-\	wol-	.	.	.	.
.	24.dd\	.	.	.	.	.	.	.	.	.	.	.	.	.	.	.	.	.	.	.	.	.	.
.	24.b- 24.f\	.	.	.	.	.	.	.	.	.	.	.	.	.	.	.	.	.	.	.	.	.	.
.	24.dd\JJ	.	16BB-/	-ność	.	16d/	-ność	.	16f/	-ność	.	16dd\	-ność	.	16BB-/	-ność	.	16b-\	-ność	.	.	.	.
=98	=98	=98	=98	=98	=98	=98	=98	=98	=98	=98	=98	=98	=98	=98	=98	=98	=98	=98	=98	=98	=98	=98	=98
4C 4CC^/	12r	.	4C\	dasz	.	2a/	dasz	.	4a\	dasz	.	4cc\	dasz	.	4C\	dasz	.	4cc\	dasz	.	1r	.	.
!	!LO:TUP:a:problem=klamra łukowa	!	!	!	!	!	!	!	!	!	!	!	!	!	!	!	!	!	!	!	!	!	!
.	12aaL 12cc 12a 12f\	.	.	.	.	.	.	.	.	.	.	.	.	.	.	.	.	.	.	.	.	.	.
.	12cccJ 12cc\	.	.	.	.	.	.	.	.	.	.	.	.	.	.	.	.	.	.	.	.	.	.
4D 4DD^/	12r	.	4D\	ty	.	.	.	.	4an\	ty	.	4bn\	ty	.	4D\	ty	.	4dd\	ty	.	.	.	.
!	!LO:TUP:a:problem=klamra łukowa	!	!	!	!	!	!	!	!	!	!	!	!	!	!	!	!	!	!	!	!	!	!
.	12bnL 12f\	.	.	.	.	.	.	.	.	.	.	.	.	.	.	.	.	.	.	.	.	.	.
.	12bbnJ 12bn\	.	.	.	.	.	.	.	.	.	.	.	.	.	.	.	.	.	.	.	.	.	.
4E 4EE^/	12r	.	4E\	nam	.	4e/	nam	.	4g/	nam	.	4b-X\	nam	.	4E\	nam	.	4cc\	nam	.	.	.	.
!	!LO:TUP:a:problem=klamra łukowa	!	!	!	!	!	!	!	!	!	!	!	!	!	!	!	!	!	!	!	!	!	!
.	12b-XL 12g 12c\	.	.	.	.	.	.	.	.	.	.	.	.	.	.	.	.	.	.	.	.	.	.
.	12cccJ 12cc\	.	.	.	.	.	.	.	.	.	.	.	.	.	.	.	.	.	.	.	.	.	.
!	!	!	!	!	!	!LO:N:vis=8	!	!	!	!	!	!	!	!	!	!	!	!	!	!	!	!	!
4F 4FF^/	12r	.	8.F\	wol-	.	8.f/	wol-	.	8.an/	wol-	.	8.a/	wol-	.	8.F\	wol-	.	8.cc\	wol-	.	.	.	.
!	!LO:TUP:a:problem=klamra łukowa	!	!	!	!	!	!	!	!	!	!	!	!	!	!	!	!	!	!	!	!	!	!
.	12anL 12f 12c\	.	.	.	.	.	.	.	.	.	.	.	.	.	.	.	.	.	.	.	.	.	.
.	12cccJ 12cc\	.	.	.	.	.	.	.	.	.	.	.	.	.	.	.	.	.	.	.	.	.	.
.	.	.	16G\	-ność	.	16f/	-ność	.	16a/	-ność	.	16a/	-ność	.	16F\	-ność	.	16a/	-ność	.	.	.	.
=99	=99	=99	=99	=99	=99	=99	=99	=99	=99	=99	=99	=99	=99	=99	=99	=99	=99	=99	=99	=99	=99	=99	=99
!	!	!	!	!	!LO:DY:a	!	!	!LO:DY:a	!	!	!LO:DY:a	!	!	!LO:DY:a	!	!	!LO:DY:a	!	!	!LO:DY:a	!	!	!
12BB-L 12BBB-/	36.ffLL 36.dd 36.g\	ff	(2BB-/	wol-	f	(2f/	wol-	f	[2g/	wol-	f	(2dd\	wol-	f	(2BB-/	wol-	f	(2b-\	wol-	f	1r	.	.
.	36.gg\	.	.	.	.	.	.	.	.	.	.	.	.	.	.	.	.	.	.	.	.	.	.
12B- 12BB-/	36.ff 36.dd 36.g\	.	.	.	.	.	.	.	.	.	.	.	.	.	.	.	.	.	.	.	.	.	.
.	36.gg\	.	.	.	.	.	.	.	.	.	.	.	.	.	.	.	.	.	.	.	.	.	.
12B- 12BB-/	36.ff 36.dd 36.g\	.	.	.	.	.	.	.	.	.	.	.	.	.	.	.	.	.	.	.	.	.	.
.	36.gg\	.	.	.	.	.	.	.	.	.	.	.	.	.	.	.	.	.	.	.	.	.	.
12B- 12BB-/	36.ff 36.dd 36.g\	.	.	.	.	.	.	.	.	.	.	.	.	.	.	.	.	.	.	.	.	.	.
.	36.gg\	.	.	.	.	.	.	.	.	.	.	.	.	.	.	.	.	.	.	.	.	.	.
12B- 12BB-/	36.ff 36.dd 36.g\	.	.	.	.	.	.	.	.	.	.	.	.	.	.	.	.	.	.	.	.	.	.
.	36.gg\	.	.	.	.	.	.	.	.	.	.	.	.	.	.	.	.	.	.	.	.	.	.
12B-J 12BB-/	36.ff 36.dd 36.g\	.	.	.	.	.	.	.	.	.	.	.	.	.	.	.	.	.	.	.	.	.	.
.	36.gg\JJ	.	.	.	.	.	.	.	.	.	.	.	.	.	.	.	.	.	.	.	.	.	.
12CL 12CC/	36.eeLL 36.cc 36.g\	ff	4..C/)	.	.	4..e/)	.	.	4..g/]	.	.	4cc\)	.	.	4..C/)	.	.	4..cc\)	.	.	.	.	.
.	36.gg\	.	.	.	.	.	.	.	.	.	.	.	.	.	.	.	.	.	.	.	.	.	.
12c 12C/	36.ee 36.cc 36.g\	.	.	.	.	.	.	.	.	.	.	.	.	.	.	.	.	.	.	.	.	.	.
.	36.gg\	.	.	.	.	.	.	.	.	.	.	.	.	.	.	.	.	.	.	.	.	.	.
12c 12C/	36.ee 36.cc 36.g\	.	.	.	.	.	.	.	.	.	.	.	.	.	.	.	.	.	.	.	.	.	.
.	36.gg\	.	.	.	.	.	.	.	.	.	.	.	.	.	.	.	.	.	.	.	.	.	.
12c 12C/	36.ee 36.cc 36.g\	.	.	.	.	.	.	.	.	.	.	8.aa\	.	.	.	.	.	.	.	.	.	.	.
.	36.gg\	.	.	.	.	.	.	.	.	.	.	.	.	.	.	.	.	.	.	.	.	.	.
12c 12C/	36.ee 36.cc 36.g\	.	.	.	.	.	.	.	.	.	.	.	.	.	.	.	.	.	.	.	.	.	.
.	36.gg\	.	.	.	.	.	.	.	.	.	.	.	.	.	.	.	.	.	.	.	.	.	.
12cJ 12C/	36.ee 36.cc 36.g\	.	.	.	.	.	.	.	.	.	.	.	.	.	.	.	.	.	.	.	.	.	.
.	.	.	16c\	-ność	.	16e/	-ność	.	16b-\	-ność	.	16gg\	-ność	.	16c\	-ność	.	16cc\	-ność	.	.	.	.
.	36.gg\JJ	.	.	.	.	.	.	.	.	.	.	.	.	.	.	.	.	.	.	.	.	.	.
=100	=100	=100	=100	=100	=100	=100	=100	=100	=100	=100	=100	=100	=100	=100	=100	=100	=100	=100	=100	=100	=100	=100	=100
4FF 4FFF/	12ffL 12cc 12a 12f\	.	1F	dasz!	.	1f	dasz!	.	1a	dasz!	.	1ff	dasz!	.	1F	dasz!	.	1ff	dasz!	.	1r	.	.
.	12ff 12cc 12a 12f\	.	.	.	.	.	.	.	.	.	.	.	.	.	.	.	.	.	.	.	.	.	.
.	12ffJ 12cc 12a 12f\	>	.	.	.	.	.	.	.	.	.	.	.	.	.	.	.	.	.	.	.	.	.
4AA 4AAA/	12ffL 12cc^\	.	.	.	.	.	.	.	.	.	.	.	.	.	.	.	.	.	.	.	.	.	.
.	12a\	.	.	.	.	.	.	.	.	.	.	.	.	.	.	.	.	.	.	.	.	.	.
.	12f\J	.	.	.	.	.	.	.	.	.	.	.	.	.	.	.	.	.	.	.	.	.	.
4C 4CC/	12ccL 12a^/	.	.	.	.	.	.	.	.	.	.	.	.	.	.	.	.	.	.	.	.	.	.
.	12f/	.	.	.	.	.	.	.	.	.	.	.	.	.	.	.	.	.	.	.	.	.	.
.	12c/J	.	.	.	.	.	.	.	.	.	.	.	.	.	.	.	.	.	.	.	.	.	.
8.FL 8.FF\	12aL 12f^/	.	.	.	.	.	.	.	.	.	.	.	.	.	.	.	.	.	.	.	.	.	.
.	12c/	.	.	.	.	.	.	.	.	.	.	.	.	.	.	.	.	.	.	.	.	.	.
.	12A/J	]]	.	.	.	.	.	.	.	.	.	.	.	.	.	.	.	.	.	.	.	.	.
16AJk 16AA\	.	.	.	.	.	.	.	.	.	.	.	.	.	.	.	.	.	.	.	.	.	.	.
=101	=101	=101	=101	=101	=101	=101	=101	=101	=101	=101	=101	=101	=101	=101	=101	=101	=101	=101	=101	=101	=101	=101	=101
2B- 2BB-\	12ggL 12ff 12dd 12g\	f	1r	.	.	1r	.	.	1r	.	.	1r	.	.	1r	.	.	1r	.	.	1r	.	.
.	12gg 12ff 12dd 12g\	.	.	.	.	.	.	.	.	.	.	.	.	.	.	.	.	.	.	.	.	.	.
.	12ggJ 12ff 12dd 12g\	.	.	.	.	.	.	.	.	.	.	.	.	.	.	.	.	.	.	.	.	.	.
.	12ggL 12ff 12dd 12g\	.	.	.	.	.	.	.	.	.	.	.	.	.	.	.	.	.	.	.	.	.	.
.	12gg 12ff 12dd 12g\	.	.	.	.	.	.	.	.	.	.	.	.	.	.	.	.	.	.	.	.	.	.
.	12ggJ 12ff 12dd 12g\	.	.	.	.	.	.	.	.	.	.	.	.	.	.	.	.	.	.	.	.	.	.
4c 4C\	12ggL 12ee 12g\	.	.	.	.	.	.	.	.	.	.	.	.	.	.	.	.	.	.	.	.	.	.
.	12gg 12ee 12g\	.	.	.	.	.	.	.	.	.	.	.	.	.	.	.	.	.	.	.	.	.	.
.	12ggJ 12ee 12g\	.	.	.	.	.	.	.	.	.	.	.	.	.	.	.	.	.	.	.	.	.	.
4c#X 4C#X\	12ggL 12ee 12g\	.	.	.	.	.	.	.	.	.	.	.	.	.	.	.	.	.	.	.	.	.	.
.	12aa\	.	.	.	.	.	.	.	.	.	.	.	.	.	.	.	.	.	.	.	.	.	.
.	12ggJ 12ee 12g\	.	.	.	.	.	.	.	.	.	.	.	.	.	.	.	.	.	.	.	.	.	.
=102	=102	=102	=102	=102	=102	=102	=102	=102	=102	=102	=102	=102	=102	=102	=102	=102	=102	=102	=102	=102	=102	=102	=102
4d 4D\	12ffL 12dd 12f\	.	1r	.	.	1r	.	.	1r	.	.	1r	.	.	1r	.	.	1r	.	.	1r	.	.
.	12ff 12dd 12f\	.	.	.	.	.	.	.	.	.	.	.	.	.	.	.	.	.	.	.	.	.	.
.	12ffJ 12dd 12f\	.	.	.	.	.	.	.	.	.	.	.	.	.	.	.	.	.	.	.	.	.	.
4cn 4Cn\	12ff#XL 12dd 12f#X\	.	.	.	.	.	.	.	.	.	.	.	.	.	.	.	.	.	.	.	.	.	.
.	12ff# 12dd 12f#\	.	.	.	.	.	.	.	.	.	.	.	.	.	.	.	.	.	.	.	.	.	.
.	12ff#J 12dd 12f#\	.	.	.	.	.	.	.	.	.	.	.	.	.	.	.	.	.	.	.	.	.	.
4B- 4BB-\	12ggL 12dd 12g\	.	.	.	.	.	.	.	.	.	.	.	.	.	.	.	.	.	.	.	.	.	.
.	12gg 12dd 12g\	.	.	.	.	.	.	.	.	.	.	.	.	.	.	.	.	.	.	.	.	.	.
.	12ggJ 12dd 12g\	.	.	.	.	.	.	.	.	.	.	.	.	.	.	.	.	.	.	.	.	.	.
!	!LO:TUP:a:problem=klamra łukowa	!	!	!	!	!	!	!	!	!	!	!	!	!	!	!	!	!	!	!	!	!	!
4BB- 4BBB-/	12eeeL 12gg\	.	.	.	.	.	.	.	.	.	.	.	.	.	.	.	.	.	.	.	.	.	.
.	12dd\	.	.	.	.	.	.	.	.	.	.	.	.	.	.	.	.	.	.	.	.	.	.
.	12ddd\J	.	.	.	.	.	.	.	.	.	.	.	.	.	.	.	.	.	.	.	.	.	.
=103	=103	=103	=103	=103	=103	=103	=103	=103	=103	=103	=103	=103	=103	=103	=103	=103	=103	=103	=103	=103	=103	=103	=103
4AA 4AAA/	12cccL 12ff 12cc\	.	1r	.	.	1r	.	.	1r	.	.	1r	.	.	1r	.	.	1r	.	.	1r	.	.
.	12ccc 12ff 12cc\	.	.	.	.	.	.	.	.	.	.	.	.	.	.	.	.	.	.	.	.	.	.
.	12cccJ 12ff 12cc\	.	.	.	.	.	.	.	.	.	.	.	.	.	.	.	.	.	.	.	.	.	.
4D 4DD/	12aaL 12ff 12dd\	.	.	.	.	.	.	.	.	.	.	.	.	.	.	.	.	.	.	.	.	.	.
.	12aa 12ff 12dd\	.	.	.	.	.	.	.	.	.	.	.	.	.	.	.	.	.	.	.	.	.	.
.	12aaJ 12ff 12dd\	.	.	.	.	.	.	.	.	.	.	.	.	.	.	.	.	.	.	.	.	.	.
!	!LO:TUP:a:problem=klamra łukowa	!	!	!	!	!	!	!	!	!	!	!	!	!	!	!	!	!	!	!	!	!	!
4GG 4GGG/	12cccL 12ff 12dd\	.	.	.	.	.	.	.	.	.	.	.	.	.	.	.	.	.	.	.	.	.	.
.	12bb- 12ff 12dd\	.	.	.	.	.	.	.	.	.	.	.	.	.	.	.	.	.	.	.	.	.	.
.	12aaJ 12ff 12dd\	.	.	.	.	.	.	.	.	.	.	.	.	.	.	.	.	.	.	.	.	.	.
4C 4CC/	12ggL 12ee\	.	.	.	.	.	.	.	.	.	.	.	.	.	.	.	.	.	.	.	.	.	.
.	12gg 12ee 12b-\	.	.	.	.	.	.	.	.	.	.	.	.	.	.	.	.	.	.	.	.	.	.
.	12aaJ 12ee 12b-\	.	.	.	.	.	.	.	.	.	.	.	.	.	.	.	.	.	.	.	.	.	.
=104	=104	=104	=104	=104	=104	=104	=104	=104	=104	=104	=104	=104	=104	=104	=104	=104	=104	=104	=104	=104	=104	=104	=104
12FFL 12FFF/	12ffL 12a\	.	1r	.	.	1r	.	.	1r	.	.	1r	.	.	1r	.	.	1r	.	.	1r	.	.
12F/	12f\	.	.	.	.	.	.	.	.	.	.	.	.	.	.	.	.	.	.	.	.	.	.
12F/J	12f\J	.	.	.	.	.	.	.	.	.	.	.	.	.	.	.	.	.	.	.	.	.	.
12F/L	12f\L	.	.	.	.	.	.	.	.	.	.	.	.	.	.	.	.	.	.	.	.	.	.
12C/	12a 12f\	.	.	.	.	.	.	.	.	.	.	.	.	.	.	.	.	.	.	.	.	.	.
12AA/J	12ccJ 12a 12f\	.	.	.	.	.	.	.	.	.	.	.	.	.	.	.	.	.	.	.	.	.	.
4FF/	4ff 4a 4f\	.	.	.	.	.	.	.	.	.	.	.	.	.	.	.	.	.	.	.	.	.	.
8.FL 8.FF/	8.ffL 8.a 8.f\	.	.	.	.	.	.	.	.	.	.	.	.	.	.	.	.	.	.	.	.	.	.
16FJk 16FF/	16ffJk 16a 16f\	.	.	.	.	.	.	.	.	.	.	.	.	.	.	.	.	.	.	.	.	.	.
=105	=105	=105	=105	=105	=105	=105	=105	=105	=105	=105	=105	=105	=105	=105	=105	=105	=105	=105	=105	=105	=105	=105	=105
2F 2FF;/	2ff 2a 2f;\	.	1r	.	.	1r	.	.	1r	.	.	1r	.	.	1r	.	.	1r	.	.	1r	.	.
2r	2r	.	.	.	.	.	.	.	.	.	.	.	.	.	.	.	.	.	.	.	.	.	.
==	==	==	==	==	==	==	==	==	==	==	==	==	==	==	==	==	==	==	==	==	==	==	==
*-	*-	*-	*-	*-	*-	*-	*-	*-	*-	*-	*-	*-	*-	*-	*-	*-	*-	*-	*-	*-	*-	*-	*-
!!!system-decoration: [(s1)][(s2,s3)][(s4,s5,s6)][(s7)]{(s8,s9)}
!!!RDF**kern: > = above
!!!RDF**kern: < = below
!!!RDF**dynam: > = "dim", fontstyle= "bold-italic"
!!!RDF**dynam: < = "cres", fontstyle= "bold-italic"
!!!RDF**kern: | = vertical stroke
!!!RDF**kern: N = linked
!!!RDF**kern: i = editorial accidental
!!!RDF**kern: l = terminal long
!!!ENC: Filip Voros
!!!END: 2022-02-23
!!!EED: Wojciech Jakubiak-Danek
!!!EEV: 2022-02-28
!!!YEC: Copyright 2022 Narodowy Instytut Fryderyka Chopina (https://polishscores.org)
!!!YEM: License CC-BY-4.0 (https://creativecommons.org/licenses/by/4.0)
